; GCode generated by CraftWare

G28 X0 Y0
G28 Z0


M104 S215 ;set head temp (no wait)
M190 S60 ;set bed temp (wait)
M109 S215 ;set head temp (wait)
; ------------------------------------
; Layer #0
; ------------------------------------
M106 S0 ;turn off fan
G21 ; mm
G90 ; abs
G92 E0 ;reset extr
G0 F1200 Z0.200
;segType:Skirt
G0 F3000 E-1.0000
G0 X142.411 Y120.061 F5400
G0 F3000 E0.0000
G1 X142.285 Y119.682 E0.0133 F2400
G1 X142.285 Y110.582 E0.3160
G1 X142.222 Y110.392 E0.3226
G1 X133.122 Y110.392 E0.6253
G1 X132.679 Y110.329 E0.6402
G1 X129.646 Y107.296 E0.7828
G1 X129.646 Y79.995 E1.6909
G1 X132.679 Y76.961 E1.8335
G1 X133.122 Y76.898 E1.8484
G1 X147.278 Y76.898 E2.3192
G1 X150.311 Y79.931 E2.4619
G1 X150.501 Y80.248 E2.4742
G1 X150.501 Y89.601 E2.7853
G1 X151.449 Y89.664 E2.8169
G1 X160.043 Y89.664 E3.1027
G1 X163.077 Y92.697 E3.2454
G1 X163.140 Y93.140 E3.2603
G1 X163.140 Y119.935 E4.1515
G1 X162.698 Y120.504 E4.1755
G1 X160.170 Y123.032 E4.2944
G1 X159.790 Y123.158 E4.3077
G1 X145.635 Y123.158 E4.7785
G1 X145.066 Y122.715 E4.8025
G1 X144.686 Y122.336 E4.8203
G1 X142.411 Y120.061 E4.9273
G0 F3000 E3.9273
G0 X175.020 Y119.429 F5400
G0 F3000 E4.9273
G1 X175.020 Y92.634 E5.8185 F2400
G1 X175.147 Y92.255 E5.8318
G1 X177.675 Y89.727 E5.9507
G1 X178.244 Y89.284 E5.9747
G1 X187.597 Y89.284 E6.2858
G1 X187.660 Y88.337 E6.3174
G1 X187.660 Y79.742 E6.6032
G1 X190.693 Y76.709 E6.7459
G1 X191.136 Y76.645 E6.7608
G1 X205.292 Y76.645 E7.2316
G1 X205.861 Y77.088 E7.2556
G1 X208.388 Y79.616 E7.3745
G1 X208.515 Y79.995 E7.3878
G1 X208.515 Y106.790 E8.2790
G1 X208.445 Y107.000 E8.2863
G0 F3000 E7.2863
G0 X206.066 Y106.244 F5400
G0 X203.687 Y105.488
G0 X146.597 Y87.337
G0 X144.218 Y86.580
G0 X134.703 Y83.555
G0 F3000 E8.2863
;segType:HShell
G1 X145.482 Y94.334 E8.7934 F2400
;segType:Perimeter
G0 X145.502 Y93.850 F5400
G1 X146.302 Y93.850 E8.8200 F1440
G1 X158.942 Y93.850 E9.2404
G1 X158.942 Y118.850 E10.0719
G1 X146.643 Y118.850 E10.4809
G1 X146.643 Y106.150 E10.9033
G1 X133.943 Y106.150 E11.3257
G1 X133.943 Y81.150 E12.1572
G1 X146.242 Y81.150 E12.5663
G1 X146.242 Y93.790 E12.9867
G0 X146.242 Y94.590 F5400
;segType:Loop
G0 X147.342 Y94.250
G1 X158.542 Y94.250 E13.3592 F2400
G1 X158.542 Y118.450 E14.1641
G1 X147.043 Y118.450 E14.5465
G1 X147.043 Y105.750 E14.9689
G1 X134.343 Y105.750 E15.3913
G1 X134.343 Y81.550 E16.1962
G1 X145.842 Y81.550 E16.5787
G1 X145.842 Y94.250 E17.0011
G1 X147.142 Y94.250 E17.0443
;segType:HShell
G0 X145.759 Y94.610 F5400
G1 X158.182 Y107.034 E17.6287 F2400
G0 X158.182 Y106.468 F5400
G1 X146.324 Y94.610 E18.1865 F2400
G0 X146.890 Y94.610 F5400
G1 X158.182 Y105.903 E18.7176 F2400
G0 X158.182 Y105.337 F5400
G1 X147.456 Y94.610 E19.2221 F2400
G0 X148.021 Y94.610 F5400
G1 X158.182 Y104.771 E19.7001 F2400
G0 X158.182 Y104.206 F5400
G1 X148.587 Y94.610 E20.1514 F2400
G0 X149.153 Y94.610 F5400
G1 X158.182 Y103.640 E20.5761 F2400
G0 X158.182 Y103.074 F5400
G1 X149.718 Y94.610 E20.9742 F2400
G0 X150.284 Y94.610 F5400
G1 X158.182 Y102.509 E21.3458 F2400
G0 X158.182 Y101.943 F5400
G1 X150.850 Y94.610 E21.6906 F2400
G0 X151.415 Y94.610 F5400
G1 X158.182 Y101.377 E22.0089 F2400
G0 X158.182 Y100.812 F5400
G1 X151.981 Y94.610 E22.3006 F2400
G0 X152.547 Y94.610 F5400
G1 X158.182 Y100.246 E22.5657 F2400
G0 X158.182 Y99.680 F5400
G1 X153.112 Y94.610 E22.8042 F2400
G0 X153.678 Y94.610 F5400
G1 X158.182 Y99.114 E23.0160 F2400
G0 X158.182 Y98.549 F5400
G1 X154.244 Y94.610 E23.2013 F2400
G0 X154.810 Y94.610 F5400
G1 X158.182 Y97.983 E23.3599 F2400
G0 X158.182 Y97.417 F5400
G1 X155.375 Y94.610 E23.4919 F2400
G0 X155.941 Y94.610 F5400
G1 X158.182 Y96.852 E23.5974 F2400
G0 X158.182 Y96.286 F5400
G1 X156.507 Y94.610 E23.6762 F2400
G0 X157.072 Y94.610 F5400
G1 X158.182 Y95.720 E23.7284 F2400
G0 X158.182 Y95.155 F5400
G1 X157.638 Y94.610 E23.7540 F2400
G0 X147.403 Y105.872 F5400
G1 X158.182 Y116.651 E24.2610 F2400
G0 X158.182 Y117.216 F5400
G1 X147.403 Y106.437 E24.7680 F2400
G0 X147.403 Y107.003 F5400
G1 X158.182 Y117.782 E25.2750 F2400
G0 X157.924 Y118.089 F5400
G1 X147.403 Y107.569 E25.7699 F2400
G0 X147.403 Y108.134 F5400
G1 X157.358 Y118.089 E26.2382 F2400
G0 X156.793 Y118.089 F5400
G1 X147.403 Y108.700 E26.6798 F2400
G0 X147.403 Y109.266 F5400
G1 X156.227 Y118.089 E27.0948 F2400
G0 X155.661 Y118.089 F5400
G1 X147.403 Y109.831 E27.4833 F2400
G0 X147.403 Y110.397 F5400
G1 X155.095 Y118.089 E27.8451 F2400
G0 X154.530 Y118.089 F5400
G1 X147.403 Y110.963 E28.1803 F2400
G0 X147.403 Y111.528 F5400
G1 X153.964 Y118.089 E28.4889 F2400
G0 X153.398 Y118.089 F5400
G1 X147.403 Y112.094 E28.7709 F2400
G0 X147.403 Y112.660 F5400
G1 X152.833 Y118.089 E29.0263 F2400
G0 X152.267 Y118.089 F5400
G1 X147.403 Y113.226 E29.2551 F2400
G0 X147.403 Y113.791 F5400
G1 X151.701 Y118.089 E29.4573 F2400
G0 X151.136 Y118.089 F5400
G1 X147.403 Y114.357 E29.6328 F2400
G0 X147.403 Y114.923 F5400
G1 X150.570 Y118.089 E29.7818 F2400
G0 X150.004 Y118.089 F5400
G1 X147.403 Y115.488 E29.9042 F2400
G0 X147.403 Y116.054 F5400
G1 X149.439 Y118.089 E29.9999 F2400
G0 X148.873 Y118.089 F5400
G1 X147.403 Y116.620 E30.0690 F2400
G0 X147.403 Y117.185 F5400
G1 X148.307 Y118.089 E30.1116 F2400
G0 X147.742 Y118.089 F5400
G1 X147.403 Y117.751 E30.1275 F2400
G0 X147.043 Y117.391 F5400
G0 X147.043 Y105.750
G0 X135.402 Y105.750
G0 X135.402 Y105.750
G0 X134.694 Y105.042
G0 X134.703 Y105.051
G1 X135.042 Y105.390 E30.1434 F2400
G0 X135.607 Y105.390 F5400
G1 X134.703 Y104.485 E30.1859 F2400
G0 X134.703 Y103.920 F5400
G1 X136.173 Y105.390 E30.2551 F2400
G0 X136.739 Y105.390 F5400
G1 X134.703 Y103.354 E30.3508 F2400
G0 X134.703 Y102.788 F5400
G1 X137.304 Y105.390 E30.4732 F2400
G0 X137.870 Y105.390 F5400
G1 X134.703 Y102.223 E30.6221 F2400
G0 X134.703 Y101.657 F5400
G1 X138.436 Y105.390 E30.7977 F2400
G0 X139.001 Y105.390 F5400
G1 X134.703 Y101.091 E30.9999 F2400
G0 X134.703 Y100.526 F5400
G1 X139.567 Y105.390 E31.2286 F2400
G0 X140.133 Y105.390 F5400
G1 X134.703 Y99.960 E31.4840 F2400
G0 X134.703 Y99.394 F5400
G1 X140.698 Y105.390 E31.7660 F2400
G0 X141.264 Y105.390 F5400
G1 X134.703 Y98.829 E32.0746 F2400
G0 X134.703 Y98.263 F5400
G1 X141.830 Y105.390 E32.4099 F2400
G0 X142.396 Y105.390 F5400
G1 X134.703 Y97.697 E32.7717 F2400
G0 X134.703 Y97.132 F5400
G1 X142.961 Y105.390 E33.1601 F2400
G0 X143.527 Y105.390 F5400
G1 X134.703 Y96.566 E33.5752 F2400
G0 X134.703 Y96.000 F5400
G1 X144.093 Y105.390 E34.0168 F2400
G0 X144.658 Y105.390 F5400
G1 X134.703 Y95.434 E34.4851 F2400
G0 X134.703 Y94.869 F5400
G1 X145.224 Y105.390 E34.9799 F2400
G0 X145.790 Y105.390 F5400
G1 X134.703 Y94.303 E35.5014 F2400
G0 X134.703 Y93.737 F5400
G1 X146.355 Y105.390 E36.0495 F2400
G0 X146.921 Y105.390 F5400
G1 X134.703 Y93.172 E36.6242 F2400
G0 X134.703 Y92.606 F5400
G1 X158.182 Y116.085 E37.7286 F2400
G0 X158.182 Y115.519 F5400
G1 X134.703 Y92.040 E38.8329 F2400
G0 X134.703 Y91.475 F5400
G1 X158.182 Y114.954 E39.9373 F2400
G0 X158.182 Y114.388 F5400
G1 X134.703 Y90.909 E41.0417 F2400
G0 X134.703 Y90.343 F5400
G1 X158.182 Y113.822 E42.1461 F2400
G0 X158.182 Y113.257 F5400
G1 X134.703 Y89.778 E43.2505 F2400
G0 X134.703 Y89.212 F5400
G1 X158.182 Y112.691 E44.3548 F2400
G0 X158.182 Y112.125 F5400
G1 X134.703 Y88.646 E45.4592 F2400
G0 X134.703 Y88.081 F5400
G1 X158.182 Y111.560 E46.5636 F2400
G0 X158.182 Y110.994 F5400
G1 X134.703 Y87.515 E47.6680 F2400
G0 X134.703 Y86.949 F5400
G1 X158.182 Y110.428 E48.7724 F2400
G0 X158.182 Y109.863 F5400
G1 X134.703 Y86.383 E49.8767 F2400
G0 X134.703 Y85.818 F5400
G1 X158.182 Y109.297 E50.9811 F2400
G0 X158.182 Y108.731 F5400
G1 X134.703 Y85.252 E52.0855 F2400
G0 X134.703 Y84.686 F5400
G1 X158.182 Y108.165 E53.1899 F2400
G0 X158.182 Y107.600 F5400
G1 X134.703 Y84.121 E54.2943 F2400
G0 X144.938 Y81.911 F5400
G1 X145.482 Y82.455 E54.3199 F2400
G0 X145.482 Y83.020 F5400
G1 X144.372 Y81.911 E54.3721 F2400
G0 X143.807 Y81.911 F5400
G1 X145.482 Y83.586 E54.4509 F2400
G0 X145.482 Y84.152 F5400
G1 X143.241 Y81.911 E54.5563 F2400
G0 X142.675 Y81.911 F5400
G1 X145.482 Y84.717 E54.6883 F2400
G0 X145.482 Y85.283 F5400
G1 X142.110 Y81.911 E54.8469 F2400
G0 X141.544 Y81.911 F5400
G1 X145.482 Y85.849 E55.0322 F2400
G0 X145.482 Y86.414 F5400
G1 X140.978 Y81.911 E55.2440 F2400
G0 X140.413 Y81.911 F5400
G1 X145.482 Y86.980 E55.4825 F2400
G0 X145.482 Y87.546 F5400
G1 X139.847 Y81.911 E55.7475 F2400
G0 X139.281 Y81.911 F5400
G1 X145.482 Y88.111 E56.0392 F2400
G0 X145.482 Y88.677 F5400
G1 X138.716 Y81.911 E56.3575 F2400
G0 X138.150 Y81.911 F5400
G1 X145.482 Y89.243 E56.7024 F2400
G0 X145.482 Y89.808 F5400
G1 X137.584 Y81.911 E57.0738 F2400
G0 X137.018 Y81.911 F5400
G1 X145.482 Y90.374 E57.4719 F2400
G0 X145.482 Y90.940 F5400
G1 X136.453 Y81.911 E57.8967 F2400
G0 X135.887 Y81.911 F5400
G1 X145.482 Y91.505 E58.3480 F2400
G0 X145.482 Y92.071 F5400
G1 X135.321 Y81.911 E58.8259 F2400
G0 X134.756 Y81.911 F5400
G1 X145.482 Y92.637 E59.3304 F2400
G0 X145.482 Y93.203 F5400
G1 X134.703 Y82.424 E59.8374 F2400
G0 X134.703 Y82.989 F5400
G1 X145.482 Y93.768 E60.3444 F2400
G0 F3000 E59.3444
G0 X202.601 Y105.066 F5400
G0 F3000 E60.3444
G1 X191.822 Y94.287 E60.8515 F2400
;segType:Perimeter
G0 X192.045 Y94.267 F5400
G1 X192.045 Y93.467 E60.8781 F1440
G1 X192.045 Y80.827 E61.2985
G1 X204.344 Y80.827 E61.7075
G1 X204.344 Y105.827 E62.5390
G1 X191.644 Y105.827 E62.9614
G1 X191.644 Y118.526 E63.3838
G1 X179.345 Y118.526 E63.7929
G1 X179.345 Y93.527 E64.6244
G1 X191.985 Y93.527 E65.0448
G0 X192.785 Y93.527 F5400
;segType:Loop
G0 X192.445 Y92.427
G1 X192.445 Y81.227 E65.4173 F2400
G1 X203.944 Y81.227 E65.7998
G1 X203.944 Y105.427 E66.6046
G1 X191.244 Y105.427 E67.0270
G1 X191.244 Y118.126 E67.4494
G1 X179.745 Y118.126 E67.8319
G1 X179.745 Y93.927 E68.6368
G1 X192.445 Y93.927 E69.0592
G1 X192.445 Y92.627 E69.1024
;segType:HShell
G0 X192.387 Y94.287 F5400
G1 X203.166 Y105.066 E69.6094 F2400
G0 X203.584 Y104.918 F5400
G1 X192.805 Y94.139 E70.1165 F2400
G0 X192.805 Y93.574 F5400
G1 X203.584 Y104.352 E70.6235 F2400
G0 X203.584 Y103.787 F5400
G1 X192.805 Y93.008 E71.1305 F2400
G0 X192.805 Y92.442 F5400
G1 X203.584 Y103.221 E71.6375 F2400
G0 X203.584 Y102.655 F5400
G1 X192.805 Y91.876 E72.1445 F2400
G0 X192.805 Y91.311 F5400
G1 X203.584 Y102.090 E72.6515 F2400
G0 X203.584 Y101.524 F5400
G1 X192.805 Y90.745 E73.1585 F2400
G0 X192.805 Y90.179 F5400
G1 X203.584 Y100.958 E73.6655 F2400
G0 X203.584 Y100.393 F5400
G1 X192.805 Y89.614 E74.1725 F2400
G0 X192.805 Y89.048 F5400
G1 X203.584 Y99.827 E74.6795 F2400
G0 X203.584 Y99.261 F5400
G1 X192.805 Y88.482 E75.1865 F2400
G0 X192.805 Y87.917 F5400
G1 X203.584 Y98.696 E75.6935 F2400
G0 X203.584 Y98.130 F5400
G1 X192.805 Y87.351 E76.2005 F2400
G0 X192.805 Y86.785 F5400
G1 X203.584 Y97.564 E76.7075 F2400
G0 X203.584 Y96.998 F5400
G1 X192.805 Y86.220 E77.2145 F2400
G0 X192.805 Y85.654 F5400
G1 X203.584 Y96.433 E77.7215 F2400
G0 X203.584 Y95.867 F5400
G1 X192.805 Y85.088 E78.2285 F2400
G0 X192.805 Y84.523 F5400
G1 X203.584 Y95.301 E78.7355 F2400
G0 X203.584 Y94.736 F5400
G1 X192.805 Y83.957 E79.2425 F2400
G0 X192.805 Y83.391 F5400
G1 X203.584 Y94.170 E79.7495 F2400
G0 X203.584 Y93.604 F5400
G1 X192.805 Y82.826 E80.2565 F2400
G0 X192.805 Y82.260 F5400
G1 X203.584 Y93.039 E80.7635 F2400
G0 X203.584 Y92.473 F5400
G1 X192.805 Y81.694 E81.2705 F2400
G0 X193.264 Y81.587 F5400
G1 X203.584 Y91.907 E81.7560 F2400
G0 X203.584 Y91.342 F5400
G1 X193.830 Y81.587 E82.2148 F2400
G0 X194.395 Y81.587 F5400
G1 X203.584 Y90.776 E82.6470 F2400
G0 X203.584 Y90.210 F5400
G1 X194.961 Y81.587 E83.0526 F2400
G0 X195.527 Y81.587 F5400
G1 X203.584 Y89.645 E83.4315 F2400
G0 X203.584 Y89.079 F5400
G1 X196.092 Y81.587 E83.7839 F2400
G0 X196.658 Y81.587 F5400
G1 X203.584 Y88.513 E84.1097 F2400
G0 X203.584 Y87.948 F5400
G1 X197.224 Y81.587 E84.4088 F2400
G0 X197.789 Y81.587 F5400
G1 X203.584 Y87.382 E84.6814 F2400
G0 X203.584 Y86.816 F5400
G1 X198.355 Y81.587 E84.9273 F2400
G0 X198.921 Y81.587 F5400
G1 X203.584 Y86.250 E85.1467 F2400
G0 X203.584 Y85.685 F5400
G1 X199.486 Y81.587 E85.3394 F2400
G0 X200.052 Y81.587 F5400
G1 X203.584 Y85.119 E85.5055 F2400
G0 X203.584 Y84.553 F5400
G1 X200.618 Y81.587 E85.6450 F2400
G0 X201.183 Y81.587 F5400
G1 X203.584 Y83.988 E85.7579 F2400
G0 X203.584 Y83.422 F5400
G1 X201.749 Y81.587 E85.8442 F2400
G0 X202.315 Y81.587 F5400
G1 X203.584 Y82.856 E85.9039 F2400
G0 X203.584 Y82.291 F5400
G1 X202.881 Y81.587 E85.9370 F2400
G0 X202.035 Y105.066 F5400
G1 X191.256 Y94.287 E86.4440 F2400
G0 X190.690 Y94.287 F5400
G1 X201.469 Y105.066 E86.9510 F2400
G0 X200.904 Y105.066 F5400
G1 X190.125 Y94.287 E87.4581 F2400
G0 X189.559 Y94.287 F5400
G1 X200.338 Y105.066 E87.9651 F2400
G0 X199.772 Y105.066 F5400
G1 X188.993 Y94.287 E88.4721 F2400
G0 X188.428 Y94.287 F5400
G1 X199.207 Y105.066 E88.9791 F2400
G0 X198.641 Y105.066 F5400
G1 X187.862 Y94.287 E89.4861 F2400
G0 X187.296 Y94.287 F5400
G1 X198.075 Y105.066 E89.9932 F2400
G0 X197.510 Y105.066 F5400
G1 X186.730 Y94.287 E90.5002 F2400
G0 X186.165 Y94.287 F5400
G1 X196.944 Y105.066 E91.0072 F2400
G0 X196.378 Y105.066 F5400
G1 X185.599 Y94.287 E91.5142 F2400
G0 X185.033 Y94.287 F5400
G1 X195.813 Y105.066 E92.0212 F2400
G0 X195.247 Y105.066 F5400
G1 X184.468 Y94.287 E92.5282 F2400
G0 X183.902 Y94.287 F5400
G1 X194.681 Y105.066 E93.0353 F2400
G0 X194.115 Y105.066 F5400
G1 X183.336 Y94.287 E93.5423 F2400
G0 X182.771 Y94.287 F5400
G1 X193.550 Y105.066 E94.0493 F2400
G0 X192.984 Y105.066 F5400
G1 X182.205 Y94.287 E94.5563 F2400
G0 X181.639 Y94.287 F5400
G1 X192.418 Y105.066 E95.0633 F2400
G0 X191.853 Y105.066 F5400
G1 X181.074 Y94.287 E95.5704 F2400
G0 X180.508 Y94.287 F5400
G1 X191.287 Y105.066 E96.0774 F2400
G0 X190.884 Y105.229 F5400
G1 X180.105 Y94.450 E96.5844 F2400
G0 X180.105 Y95.016 F5400
G1 X190.884 Y105.795 E97.0914 F2400
G0 X190.884 Y106.360 F5400
G1 X180.105 Y95.581 E97.5984 F2400
G0 X180.105 Y96.147 F5400
G1 X190.884 Y106.926 E98.1055 F2400
G0 X190.884 Y107.492 F5400
G1 X180.105 Y96.713 E98.6125 F2400
G0 X180.105 Y97.278 F5400
G1 X190.884 Y108.057 E99.1195 F2400
G0 X190.884 Y108.623 F5400
G1 X180.105 Y97.844 E99.6265 F2400
G0 X180.105 Y98.410 F5400
G1 X190.884 Y109.189 E100.1335 F2400
G0 X190.884 Y109.754 F5400
G1 X180.105 Y98.975 E100.6406 F2400
G0 X180.105 Y99.541 F5400
G1 X190.884 Y110.320 E101.1476 F2400
G0 X190.884 Y110.886 F5400
G1 X180.105 Y100.107 E101.6546 F2400
G0 X180.105 Y100.672 F5400
G1 X190.884 Y111.451 E102.1616 F2400
G0 X190.884 Y112.017 F5400
G1 X180.105 Y101.238 E102.6686 F2400
G0 X180.105 Y101.804 F5400
G1 X190.884 Y112.583 E103.1756 F2400
G0 X190.884 Y113.149 F5400
G1 X180.105 Y102.369 E103.6827 F2400
G0 X180.105 Y102.935 F5400
G1 X190.884 Y113.714 E104.1897 F2400
G0 X190.884 Y114.280 F5400
G1 X180.105 Y103.501 E104.6967 F2400
G0 X180.105 Y104.066 F5400
G1 X190.884 Y114.846 E105.2037 F2400
G0 X190.884 Y115.411 F5400
G1 X180.105 Y104.632 E105.7107 F2400
G0 X180.105 Y105.198 F5400
G1 X190.884 Y115.977 E106.2178 F2400
G0 X190.884 Y116.543 F5400
G1 X180.105 Y105.764 E106.7248 F2400
G0 X180.105 Y106.329 F5400
G1 X190.884 Y117.108 E107.2318 F2400
G0 X190.884 Y117.674 F5400
G1 X180.105 Y106.895 E107.7388 F2400
G0 X180.105 Y107.461 F5400
G1 X190.410 Y117.766 E108.2236 F2400
G0 X189.845 Y117.766 F5400
G1 X180.105 Y108.026 E108.6817 F2400
G0 X180.105 Y108.592 F5400
G1 X189.279 Y117.766 E109.1132 F2400
G0 X188.713 Y117.766 F5400
G1 X180.105 Y109.158 E109.5182 F2400
G0 X180.105 Y109.723 F5400
G1 X188.148 Y117.766 E109.8965 F2400
G0 X187.582 Y117.766 F5400
G1 X180.105 Y110.289 E110.2482 F2400
G0 X180.105 Y110.855 F5400
G1 X187.016 Y117.766 E110.5733 F2400
G0 X186.451 Y117.766 F5400
G1 X180.105 Y111.420 E110.8718 F2400
G0 X180.105 Y111.986 F5400
G1 X185.885 Y117.766 E111.1437 F2400
G0 X185.319 Y117.766 F5400
G1 X180.105 Y112.552 E111.3890 F2400
G0 X180.105 Y113.117 F5400
G1 X184.754 Y117.766 E111.6076 F2400
G0 X184.188 Y117.766 F5400
G1 X180.105 Y113.683 E111.7997 F2400
G0 X180.105 Y114.249 F5400
G1 X183.622 Y117.766 E111.9651 F2400
G0 X183.057 Y117.766 F5400
G1 X180.105 Y114.815 E112.1040 F2400
G0 X180.105 Y115.380 F5400
G1 X182.491 Y117.766 E112.2162 F2400
G0 X181.925 Y117.766 F5400
G1 X180.105 Y115.946 E112.3018 F2400
G0 X180.105 Y116.512 F5400
G1 X181.360 Y117.766 E112.3609 F2400
G0 X180.794 Y117.766 F5400
G1 X180.105 Y117.077 E112.3933 F2400
; ------------------------------------
; Layer #1
; ------------------------------------
M106 S0 ;turn off fan
G92 E0 ;reset extr
G0 F3000 E-1.0000
G0 F1200 Z0.400
G0 X160.988 Y111.792 F7200
G0 X158.599 Y111.131
G0 X144.261 Y107.167
G0 X141.872 Y106.506
G0 X139.482 Y105.846
G0 X134.703 Y104.524
G0 F3000 E0.0000
;segType:HShell
G1 X145.482 Y93.745 E0.5070 F3600
;segType:Perimeter
G0 X145.502 Y93.850 F7200
G1 X146.302 Y93.850 E0.5336 F2160
G1 X158.942 Y93.850 E0.9540
G1 X158.942 Y118.850 E1.7855
G1 X146.643 Y118.850 E2.1946
G1 X146.643 Y106.150 E2.6170
G1 X133.943 Y106.150 E3.0394
G1 X133.943 Y81.150 E3.8709
G1 X146.242 Y81.150 E4.2799
G1 X146.242 Y93.790 E4.7003
G0 X146.242 Y94.590 F7200
;segType:Loop
G0 X147.342 Y94.250
G1 X158.542 Y94.250 E5.0729 F3600
G1 X158.542 Y118.450 E5.8777
G1 X147.043 Y118.450 E6.2602
G1 X147.043 Y105.750 E6.6826
G1 X134.343 Y105.750 E7.1050
G1 X134.343 Y81.550 E7.9099
G1 X145.842 Y81.550 E8.2923
G1 X145.842 Y94.250 E8.7147
G1 X147.142 Y94.250 E8.7580
;segType:HShell
G0 X145.482 Y94.311 F7200
G1 X134.703 Y105.090 E9.2650 F3600
G0 X134.969 Y105.390 F7200
G1 X145.748 Y94.610 E9.7720 F3600
G0 X146.314 Y94.610 F7200
G1 X135.535 Y105.390 E10.2790 F3600
G0 X136.101 Y105.390 F7200
G1 X146.880 Y94.610 E10.7860 F3600
G0 X147.445 Y94.610 F7200
G1 X136.666 Y105.390 E11.2930 F3600
G0 X137.232 Y105.390 F7200
G1 X148.011 Y94.610 E11.8001 F3600
G0 X148.577 Y94.610 F7200
G1 X137.798 Y105.390 E12.3071 F3600
G0 X138.363 Y105.390 F7200
G1 X149.142 Y94.610 E12.8141 F3600
G0 X149.708 Y94.610 F7200
G1 X138.929 Y105.390 E13.3211 F3600
G0 X139.495 Y105.390 F7200
G1 X150.274 Y94.610 E13.8281 F3600
G0 X150.839 Y94.610 F7200
G1 X140.060 Y105.390 E14.3351 F3600
G0 X140.626 Y105.390 F7200
G1 X151.405 Y94.610 E14.8422 F3600
G0 X151.971 Y94.610 F7200
G1 X141.192 Y105.390 E15.3492 F3600
G0 X141.757 Y105.390 F7200
G1 X152.536 Y94.610 E15.8562 F3600
G0 X153.102 Y94.610 F7200
G1 X142.323 Y105.390 E16.3632 F3600
G0 X142.889 Y105.390 F7200
G1 X153.668 Y94.610 E16.8702 F3600
G0 X154.234 Y94.610 F7200
G1 X143.454 Y105.390 E17.3772 F3600
G0 X144.020 Y105.390 F7200
G1 X154.799 Y94.610 E17.8843 F3600
G0 X155.365 Y94.610 F7200
G1 X144.586 Y105.390 E18.3913 F3600
G0 X145.151 Y105.390 F7200
G1 X155.931 Y94.610 E18.8983 F3600
G0 X156.496 Y94.610 F7200
G1 X145.717 Y105.390 E19.4053 F3600
G0 X146.283 Y105.390 F7200
G1 X157.062 Y94.610 E19.9123 F3600
G0 X157.628 Y94.610 F7200
G1 X146.849 Y105.390 E20.4193 F3600
G0 X147.403 Y105.401 F7200
G1 X158.182 Y94.622 E20.9263 F3600
G0 X158.182 Y95.187 F7200
G1 X147.403 Y105.966 E21.4334 F3600
G0 X147.403 Y106.532 F7200
G1 X158.182 Y95.753 E21.9404 F3600
G0 X158.182 Y96.319 F7200
G1 X147.403 Y107.098 E22.4474 F3600
G0 X147.403 Y107.663 F7200
G1 X158.182 Y96.884 E22.9544 F3600
G0 X158.182 Y97.450 F7200
G1 X147.403 Y108.229 E23.4614 F3600
G0 X147.403 Y108.795 F7200
G1 X158.182 Y98.016 E23.9684 F3600
G0 X158.182 Y98.581 F7200
G1 X147.403 Y109.360 E24.4755 F3600
G0 X147.403 Y109.926 F7200
G1 X158.182 Y99.147 E24.9825 F3600
G0 X158.182 Y99.713 F7200
G1 X147.403 Y110.492 E25.4895 F3600
G0 X147.403 Y111.058 F7200
G1 X158.182 Y100.278 E25.9965 F3600
G0 X158.182 Y100.844 F7200
G1 X147.403 Y111.623 E26.5035 F3600
G0 X147.403 Y112.189 F7200
G1 X158.182 Y101.410 E27.0105 F3600
G0 X158.182 Y101.975 F7200
G1 X147.403 Y112.755 E27.5176 F3600
G0 X147.403 Y113.320 F7200
G1 X158.182 Y102.541 E28.0246 F3600
G0 X158.182 Y103.107 F7200
G1 X147.403 Y113.886 E28.5316 F3600
G0 X147.403 Y114.452 F7200
G1 X158.182 Y103.673 E29.0386 F3600
G0 X158.182 Y104.238 F7200
G1 X147.403 Y115.017 E29.5456 F3600
G0 X147.403 Y115.583 F7200
G1 X158.182 Y104.804 E30.0526 F3600
G0 X158.182 Y105.370 F7200
G1 X147.403 Y116.149 E30.5597 F3600
G0 X147.403 Y116.714 F7200
G1 X158.182 Y105.935 E31.0667 F3600
G0 X158.182 Y106.501 F7200
G1 X147.403 Y117.280 E31.5737 F3600
G0 X147.403 Y117.846 F7200
G1 X158.182 Y107.067 E32.0807 F3600
G0 X158.182 Y107.632 F7200
G1 X147.725 Y118.089 E32.5726 F3600
G0 X148.291 Y118.089 F7200
G1 X158.182 Y108.198 E33.0378 F3600
G0 X158.182 Y108.764 F7200
G1 X148.856 Y118.089 E33.4765 F3600
G0 X149.422 Y118.089 F7200
G1 X158.182 Y109.329 E33.8885 F3600
G0 X158.182 Y109.895 F7200
G1 X149.988 Y118.089 E34.2740 F3600
G0 X150.553 Y118.089 F7200
G1 X158.182 Y110.461 E34.6328 F3600
G0 X158.182 Y111.026 F7200
G1 X151.119 Y118.089 E34.9650 F3600
G0 X151.685 Y118.089 F7200
G1 X158.182 Y111.592 E35.2706 F3600
G0 X158.182 Y112.158 F7200
G1 X152.251 Y118.089 E35.5496 F3600
G0 X152.816 Y118.089 F7200
G1 X158.182 Y112.723 E35.8020 F3600
G0 X158.182 Y113.289 F7200
G1 X153.382 Y118.089 E36.0278 F3600
G0 X153.948 Y118.089 F7200
G1 X158.182 Y113.855 E36.2270 F3600
G0 X158.182 Y114.421 F7200
G1 X154.513 Y118.089 E36.3996 F3600
G0 X155.079 Y118.089 F7200
G1 X158.182 Y114.986 E36.5456 F3600
G0 X158.182 Y115.552 F7200
G1 X155.645 Y118.089 E36.6649 F3600
G0 X156.210 Y118.089 F7200
G1 X158.182 Y116.118 E36.7577 F3600
G0 X158.182 Y116.683 F7200
G1 X156.776 Y118.089 E36.8238 F3600
G0 X157.342 Y118.089 F7200
G1 X158.182 Y117.249 E36.8633 F3600
G0 X147.043 Y110.944 F7200
G0 X147.043 Y105.750
G0 X137.868 Y105.750
G0 X137.868 Y105.750
G0 X134.692 Y103.952
G0 X134.703 Y103.958
G1 X145.482 Y93.180 E37.3704 F3600
G0 X145.482 Y92.614 F7200
G1 X134.703 Y103.393 E37.8774 F3600
G0 X134.703 Y102.827 F7200
G1 X145.482 Y92.048 E38.3844 F3600
G0 X145.482 Y91.483 F7200
G1 X134.703 Y102.261 E38.8914 F3600
G0 X134.703 Y101.696 F7200
G1 X145.482 Y90.917 E39.3984 F3600
G0 X145.482 Y90.351 F7200
G1 X134.703 Y101.130 E39.9054 F3600
G0 X134.703 Y100.564 F7200
G1 X145.482 Y89.785 E40.4124 F3600
G0 X145.482 Y89.220 F7200
G1 X134.703 Y99.999 E40.9194 F3600
G0 X134.703 Y99.433 F7200
G1 X145.482 Y88.654 E41.4264 F3600
G0 X145.482 Y88.088 F7200
G1 X134.703 Y98.867 E41.9334 F3600
G0 X134.703 Y98.302 F7200
G1 X145.482 Y87.523 E42.4404 F3600
G0 X145.482 Y86.957 F7200
G1 X134.703 Y97.736 E42.9474 F3600
G0 X134.703 Y97.170 F7200
G1 X145.482 Y86.391 E43.4544 F3600
G0 X145.482 Y85.826 F7200
G1 X134.703 Y96.605 E43.9614 F3600
G0 X134.703 Y96.039 F7200
G1 X145.482 Y85.260 E44.4684 F3600
G0 X145.482 Y84.694 F7200
G1 X134.703 Y95.473 E44.9754 F3600
G0 X134.703 Y94.907 F7200
G1 X145.482 Y84.129 E45.4824 F3600
G0 X145.482 Y83.563 F7200
G1 X134.703 Y94.342 E45.9894 F3600
G0 X134.703 Y93.776 F7200
G1 X145.482 Y82.997 E46.4964 F3600
G0 X145.482 Y82.432 F7200
G1 X134.703 Y93.210 E47.0034 F3600
G0 X134.703 Y92.645 F7200
G1 X145.437 Y81.911 E47.5083 F3600
G0 X144.872 Y81.911 F7200
G1 X134.703 Y92.079 E47.9866 F3600
G0 X134.703 Y91.513 F7200
G1 X144.306 Y81.911 E48.4383 F3600
G0 X143.740 Y81.911 F7200
G1 X134.703 Y90.948 E48.8634 F3600
G0 X134.703 Y90.382 F7200
G1 X143.175 Y81.911 E49.2619 F3600
G0 X142.609 Y81.911 F7200
G1 X134.703 Y89.816 E49.6337 F3600
G0 X134.703 Y89.251 F7200
G1 X142.043 Y81.911 E49.9790 F3600
G0 X141.478 Y81.911 F7200
G1 X134.703 Y88.685 E50.2976 F3600
G0 X134.703 Y88.119 F7200
G1 X140.912 Y81.911 E50.5897 F3600
G0 X140.346 Y81.911 F7200
G1 X134.703 Y87.554 E50.8551 F3600
G0 X134.703 Y86.988 F7200
G1 X139.781 Y81.911 E51.0939 F3600
G0 X139.215 Y81.911 F7200
G1 X134.703 Y86.422 E51.3061 F3600
G0 X134.703 Y85.856 F7200
G1 X138.649 Y81.911 E51.4917 F3600
G0 X138.083 Y81.911 F7200
G1 X134.703 Y85.291 E51.6507 F3600
G0 X134.703 Y84.725 F7200
G1 X137.518 Y81.911 E51.7831 F3600
G0 X136.952 Y81.911 F7200
G1 X134.703 Y84.159 E51.8889 F3600
G0 X134.703 Y83.594 F7200
G1 X136.386 Y81.911 E51.9681 F3600
G0 X135.821 Y81.911 F7200
G1 X134.703 Y83.028 E52.0207 F3600
G0 X134.703 Y82.462 F7200
G1 X135.255 Y81.911 E52.0466 F3600
G0 F3000 E51.0466
G0 X180.105 Y106.074 F7200
G0 F3000 E52.0466
G1 X191.892 Y94.287 E52.6011 F3600
;segType:Perimeter
G0 X192.045 Y94.267 F7200
G1 X192.045 Y93.467 E52.6277 F2160
G1 X192.045 Y80.827 E53.0481
G1 X204.344 Y80.827 E53.4571
G1 X204.344 Y105.827 E54.2886
G1 X191.644 Y105.827 E54.7110
G1 X191.644 Y118.526 E55.1334
G1 X179.345 Y118.526 E55.5425
G1 X179.345 Y93.527 E56.3740
G1 X191.985 Y93.527 E56.7944
G0 X192.785 Y93.527 F7200
;segType:Loop
G0 X192.445 Y92.427
G1 X192.445 Y81.227 E57.1669 F3600
G1 X203.944 Y81.227 E57.5494
G1 X203.944 Y105.427 E58.3542
G1 X191.244 Y105.427 E58.7766
G1 X191.244 Y118.126 E59.1990
G1 X179.745 Y118.126 E59.5815
G1 X179.745 Y93.927 E60.3864
G1 X192.445 Y93.927 E60.8088
G1 X192.445 Y92.627 E60.8520
;segType:HShell
G0 X192.458 Y94.287 F7200
G1 X180.105 Y106.640 E61.4331 F3600
G0 X180.578 Y94.287 F7200
G1 X180.105 Y94.761 E61.4553 F3600
G0 X180.105 Y95.326 F7200
G1 X181.144 Y94.287 E61.5042 F3600
G0 X181.710 Y94.287 F7200
G1 X180.105 Y95.892 E61.5797 F3600
G0 X180.105 Y96.458 F7200
G1 X182.275 Y94.287 E61.6818 F3600
G0 X182.841 Y94.287 F7200
G1 X180.105 Y97.023 E61.8105 F3600
G0 X180.105 Y97.589 F7200
G1 X183.407 Y94.287 E61.9658 F3600
G0 X183.972 Y94.287 F7200
G1 X180.105 Y98.155 E62.1477 F3600
G0 X180.105 Y98.721 F7200
G1 X184.538 Y94.287 E62.3562 F3600
G0 X185.104 Y94.287 F7200
G1 X180.105 Y99.286 E62.5914 F3600
G0 X180.105 Y99.852 F7200
G1 X185.669 Y94.287 E62.8531 F3600
G0 X186.235 Y94.287 F7200
G1 X180.105 Y100.418 E63.1415 F3600
G0 X180.105 Y100.983 F7200
G1 X186.801 Y94.287 E63.4564 F3600
G0 X187.366 Y94.287 F7200
G1 X180.105 Y101.549 E63.7980 F3600
G0 X180.105 Y102.115 F7200
G1 X187.932 Y94.287 E64.1661 F3600
G0 X188.498 Y94.287 F7200
G1 X180.105 Y102.680 E64.5609 F3600
G0 X180.105 Y103.246 F7200
G1 X189.063 Y94.287 E64.9823 F3600
G0 X189.629 Y94.287 F7200
G1 X180.105 Y103.812 E65.4303 F3600
G0 X180.105 Y104.377 F7200
G1 X190.195 Y94.287 E65.9049 F3600
G0 X190.761 Y94.287 F7200
G1 X180.105 Y104.943 E66.4061 F3600
G0 X180.105 Y105.509 F7200
G1 X191.326 Y94.287 E66.9340 F3600
G0 X190.884 Y105.478 F7200
G1 X180.105 Y116.257 E67.4410 F3600
G0 X180.105 Y116.822 F7200
G1 X190.884 Y106.043 E67.9480 F3600
G0 X190.884 Y106.609 F7200
G1 X180.105 Y117.388 E68.4550 F3600
G0 X180.292 Y117.766 F7200
G1 X190.884 Y107.175 E68.9532 F3600
G0 X190.884 Y107.740 F7200
G1 X180.858 Y117.766 E69.4248 F3600
G0 X181.424 Y117.766 F7200
G1 X190.884 Y108.306 E69.8698 F3600
G0 X190.884 Y108.872 F7200
G1 X181.989 Y117.766 E70.2882 F3600
G0 X182.555 Y117.766 F7200
G1 X190.884 Y109.437 E70.6799 F3600
G0 X190.884 Y110.003 F7200
G1 X183.121 Y117.766 E71.0451 F3600
G0 X183.686 Y117.766 F7200
G1 X190.884 Y110.569 E71.3836 F3600
G0 X190.884 Y111.135 F7200
G1 X184.252 Y117.766 E71.6956 F3600
G0 X184.818 Y117.766 F7200
G1 X190.884 Y111.700 E71.9809 F3600
G0 X190.884 Y112.266 F7200
G1 X185.383 Y117.766 E72.2396 F3600
G0 X185.949 Y117.766 F7200
G1 X190.884 Y112.832 E72.4717 F3600
G0 X190.884 Y113.397 F7200
G1 X186.515 Y117.766 E72.6772 F3600
G0 X187.080 Y117.766 F7200
G1 X190.884 Y113.963 E72.8562 F3600
G0 X190.884 Y114.529 F7200
G1 X187.646 Y117.766 E73.0084 F3600
G0 X188.212 Y117.766 F7200
G1 X190.884 Y115.094 E73.1341 F3600
G0 X190.884 Y115.660 F7200
G1 X188.778 Y117.766 E73.2332 F3600
G0 X189.343 Y117.766 F7200
G1 X190.884 Y116.226 E73.3057 F3600
G0 X190.884 Y116.791 F7200
G1 X189.909 Y117.766 E73.3515 F3600
G0 X190.475 Y117.766 F7200
G1 X190.884 Y117.357 E73.3708 F3600
G0 X191.244 Y116.997 F7200
G0 X191.244 Y105.427
G0 X202.814 Y105.427
G0 X202.814 Y105.427
G0 X203.593 Y104.648
G0 X203.584 Y104.657
G1 X203.175 Y105.066 E73.3900 F3600
G0 X202.609 Y105.066 F7200
G1 X203.584 Y104.091 E73.4359 F3600
G0 X203.584 Y103.526 F7200
G1 X202.043 Y105.066 E73.5084 F3600
G0 X201.477 Y105.066 F7200
G1 X203.584 Y102.960 E73.6074 F3600
G0 X203.584 Y102.394 F7200
G1 X200.912 Y105.066 E73.7331 F3600
G0 X200.346 Y105.066 F7200
G1 X203.584 Y101.829 E73.8854 F3600
G0 X203.584 Y101.263 F7200
G1 X199.780 Y105.066 E74.0643 F3600
G0 X199.215 Y105.066 F7200
G1 X203.584 Y100.697 E74.2698 F3600
G0 X203.584 Y100.132 F7200
G1 X198.649 Y105.066 E74.5019 F3600
G0 X198.083 Y105.066 F7200
G1 X203.584 Y99.566 E74.7607 F3600
G0 X203.584 Y99.000 F7200
G1 X197.518 Y105.066 E75.0460 F3600
G0 X196.952 Y105.066 F7200
G1 X203.584 Y98.435 E75.3580 F3600
G0 X203.584 Y97.869 F7200
G1 X196.386 Y105.066 E75.6965 F3600
G0 X195.821 Y105.066 F7200
G1 X203.584 Y97.303 E76.0617 F3600
G0 X203.584 Y96.737 F7200
G1 X195.255 Y105.066 E76.4534 F3600
G0 X194.689 Y105.066 F7200
G1 X203.584 Y96.172 E76.8718 F3600
G0 X203.584 Y95.606 F7200
G1 X194.124 Y105.066 E77.3168 F3600
G0 X193.558 Y105.066 F7200
G1 X203.584 Y95.040 E77.7884 F3600
G0 X203.584 Y94.475 F7200
G1 X192.992 Y105.066 E78.2866 F3600
G0 X192.427 Y105.066 F7200
G1 X203.584 Y93.909 E78.8114 F3600
G0 X203.584 Y93.343 F7200
G1 X191.861 Y105.066 E79.3628 F3600
G0 X191.295 Y105.066 F7200
G1 X203.584 Y92.778 E79.9408 F3600
G0 X203.584 Y92.212 F7200
G1 X180.105 Y115.691 E81.0452 F3600
G0 X180.105 Y115.125 F7200
G1 X203.584 Y91.646 E82.1496 F3600
G0 X203.584 Y91.081 F7200
G1 X180.105 Y114.560 E83.2540 F3600
G0 X180.105 Y113.994 F7200
G1 X203.584 Y90.515 E84.3584 F3600
G0 X203.584 Y89.949 F7200
G1 X180.105 Y113.428 E85.4627 F3600
G0 X180.105 Y112.863 F7200
G1 X203.584 Y89.384 E86.5671 F3600
G0 X203.584 Y88.818 F7200
G1 X180.105 Y112.297 E87.6715 F3600
G0 X180.105 Y111.731 F7200
G1 X203.584 Y88.252 E88.7759 F3600
G0 X203.584 Y87.687 F7200
G1 X180.105 Y111.166 E89.8803 F3600
G0 X180.105 Y110.600 F7200
G1 X203.584 Y87.121 E90.9847 F3600
G0 X203.584 Y86.555 F7200
G1 X180.105 Y110.034 E92.0891 F3600
G0 X180.105 Y109.469 F7200
G1 X203.584 Y85.990 E93.1934 F3600
G0 X203.584 Y85.424 F7200
G1 X180.105 Y108.903 E94.2978 F3600
G0 X180.105 Y108.337 F7200
G1 X203.584 Y84.858 E95.4022 F3600
G0 X203.584 Y84.292 F7200
G1 X180.105 Y107.771 E96.5066 F3600
G0 X180.105 Y107.206 F7200
G1 X203.584 Y83.727 E97.6110 F3600
G0 X203.584 Y83.161 F7200
G1 X192.805 Y93.940 E98.1180 F3600
G0 X192.805 Y93.374 F7200
G1 X203.584 Y82.595 E98.6250 F3600
G0 X203.584 Y82.030 F7200
G1 X192.805 Y92.809 E99.1320 F3600
G0 X192.805 Y92.243 F7200
G1 X203.460 Y81.587 E99.6332 F3600
G0 X202.895 Y81.587 F7200
G1 X192.805 Y91.677 E100.1078 F3600
G0 X192.805 Y91.111 F7200
G1 X202.329 Y81.587 E100.5558 F3600
G0 X201.763 Y81.587 F7200
G1 X192.805 Y90.546 E100.9771 F3600
G0 X192.805 Y89.980 F7200
G1 X201.198 Y81.587 E101.3719 F3600
G0 X200.632 Y81.587 F7200
G1 X192.805 Y89.414 E101.7401 F3600
G0 X192.805 Y88.849 F7200
G1 X200.066 Y81.587 E102.0816 F3600
G0 X199.501 Y81.587 F7200
G1 X192.805 Y88.283 E102.3965 F3600
G0 X192.805 Y87.717 F7200
G1 X198.935 Y81.587 E102.6849 F3600
G0 X198.369 Y81.587 F7200
G1 X192.805 Y87.152 E102.9466 F3600
G0 X192.805 Y86.586 F7200
G1 X197.804 Y81.587 E103.1817 F3600
G0 X197.238 Y81.587 F7200
G1 X192.805 Y86.020 E103.3902 F3600
G0 X192.805 Y85.455 F7200
G1 X196.672 Y81.587 E103.5722 F3600
G0 X196.107 Y81.587 F7200
G1 X192.805 Y84.889 E103.7275 F3600
G0 X192.805 Y84.323 F7200
G1 X195.541 Y81.587 E103.8561 F3600
G0 X194.975 Y81.587 F7200
G1 X192.805 Y83.758 E103.9582 F3600
G0 X192.805 Y83.192 F7200
G1 X194.409 Y81.587 E104.0337 F3600
G0 X193.844 Y81.587 F7200
G1 X192.805 Y82.626 E104.0826 F3600
G0 X192.805 Y82.061 F7200
G1 X193.278 Y81.587 E104.1048 F3600
; ------------------------------------
; Layer #2
; ------------------------------------
M106 S0 ;turn off fan
G92 E0 ;reset extr
;segType:HShell
G0 F3000 E-1.0000
G0 F1200 Z0.600
G0 X203.166 Y105.066 F7200
G0 F3000 E0.0000
G1 X192.387 Y94.287 E0.5070 F3600
;segType:Perimeter
G0 X192.045 Y94.267 F7200
G1 X192.045 Y93.467 E0.5336 F2160
G1 X192.045 Y80.827 E0.9540
G1 X204.344 Y80.827 E1.3631
G1 X204.344 Y105.827 E2.1946
G1 X191.644 Y105.827 E2.6170
G1 X191.644 Y118.526 E3.0394
G1 X179.345 Y118.526 E3.4485
G1 X179.345 Y93.527 E4.2799
G1 X191.985 Y93.527 E4.7004
G0 X192.785 Y93.527 F7200
;segType:Loop
G0 X192.445 Y92.427
G1 X192.445 Y81.227 E5.0729 F3600
G1 X203.944 Y81.227 E5.4553
G1 X203.944 Y105.427 E6.2602
G1 X191.244 Y105.427 E6.6826
G1 X191.244 Y118.126 E7.1050
G1 X179.745 Y118.126 E7.4875
G1 X179.745 Y93.927 E8.2923
G1 X192.445 Y93.927 E8.7147
G1 X192.445 Y92.627 E8.7580
;segType:HShell
G0 X192.805 Y94.139 F7200
G1 X203.584 Y104.918 E9.2650 F3600
G0 X203.584 Y104.352 F7200
G1 X192.805 Y93.574 E9.7720 F3600
G0 X192.805 Y93.008 F7200
G1 X203.584 Y103.787 E10.2790 F3600
G0 X203.584 Y103.221 F7200
G1 X192.805 Y92.442 E10.7860 F3600
G0 X192.805 Y91.876 F7200
G1 X203.584 Y102.655 E11.2930 F3600
G0 X203.584 Y102.090 F7200
G1 X192.805 Y91.311 E11.8000 F3600
G0 X192.805 Y90.745 F7200
G1 X203.584 Y101.524 E12.3070 F3600
G0 X203.584 Y100.958 F7200
G1 X192.805 Y90.179 E12.8140 F3600
G0 X192.805 Y89.614 F7200
G1 X203.584 Y100.393 E13.3210 F3600
G0 X203.584 Y99.827 F7200
G1 X192.805 Y89.048 E13.8280 F3600
G0 X192.805 Y88.482 F7200
G1 X203.584 Y99.261 E14.3350 F3600
G0 X203.584 Y98.696 F7200
G1 X192.805 Y87.917 E14.8420 F3600
G0 X192.805 Y87.351 F7200
G1 X203.584 Y98.130 E15.3490 F3600
G0 X203.584 Y97.564 F7200
G1 X192.805 Y86.785 E15.8561 F3600
G0 X192.805 Y86.220 F7200
G1 X203.584 Y96.998 E16.3631 F3600
G0 X203.584 Y96.433 F7200
G1 X192.805 Y85.654 E16.8701 F3600
G0 X192.805 Y85.088 F7200
G1 X203.584 Y95.867 E17.3771 F3600
G0 X203.584 Y95.301 F7200
G1 X192.805 Y84.523 E17.8841 F3600
G0 X192.805 Y83.957 F7200
G1 X203.584 Y94.736 E18.3911 F3600
G0 X203.584 Y94.170 F7200
G1 X192.805 Y83.391 E18.8981 F3600
G0 X192.805 Y82.826 F7200
G1 X203.584 Y93.604 E19.4051 F3600
G0 X203.584 Y93.039 F7200
G1 X192.805 Y82.260 E19.9121 F3600
G0 X192.805 Y81.694 F7200
G1 X203.584 Y92.473 E20.4191 F3600
G0 X203.584 Y91.907 F7200
G1 X193.264 Y81.587 E20.9045 F3600
G0 X193.830 Y81.587 F7200
G1 X203.584 Y91.342 E21.3633 F3600
G0 X203.584 Y90.776 F7200
G1 X194.395 Y81.587 E21.7955 F3600
G0 X194.961 Y81.587 F7200
G1 X203.584 Y90.210 E22.2011 F3600
G0 X203.584 Y89.645 F7200
G1 X195.527 Y81.587 E22.5801 F3600
G0 X196.092 Y81.587 F7200
G1 X203.584 Y89.079 E22.9325 F3600
G0 X203.584 Y88.513 F7200
G1 X196.658 Y81.587 E23.2582 F3600
G0 X197.224 Y81.587 F7200
G1 X203.584 Y87.948 E23.5574 F3600
G0 X203.584 Y87.382 F7200
G1 X197.789 Y81.587 E23.8300 F3600
G0 X198.355 Y81.587 F7200
G1 X203.584 Y86.816 E24.0759 F3600
G0 X203.584 Y86.250 F7200
G1 X198.921 Y81.587 E24.2952 F3600
G0 X199.486 Y81.587 F7200
G1 X203.584 Y85.685 E24.4880 F3600
G0 X203.584 Y85.119 F7200
G1 X200.052 Y81.587 E24.6541 F3600
G0 X200.618 Y81.587 F7200
G1 X203.584 Y84.553 E24.7936 F3600
G0 X203.584 Y83.988 F7200
G1 X201.183 Y81.587 E24.9065 F3600
G0 X201.749 Y81.587 F7200
G1 X203.584 Y83.422 E24.9928 F3600
G0 X203.584 Y82.856 F7200
G1 X202.315 Y81.587 E25.0525 F3600
G0 X202.881 Y81.587 F7200
G1 X203.584 Y82.291 E25.0856 F3600
G0 X202.601 Y105.066 F7200
G1 X191.822 Y94.287 E25.5926 F3600
G0 X191.256 Y94.287 F7200
G1 X202.035 Y105.066 E26.0996 F3600
G0 X201.469 Y105.066 F7200
G1 X190.690 Y94.287 E26.6066 F3600
G0 X190.125 Y94.287 F7200
G1 X200.904 Y105.066 E27.1136 F3600
G0 X200.338 Y105.066 F7200
G1 X189.559 Y94.287 E27.6206 F3600
G0 X188.993 Y94.287 F7200
G1 X199.772 Y105.066 E28.1277 F3600
G0 X199.207 Y105.066 F7200
G1 X188.428 Y94.287 E28.6347 F3600
G0 X187.862 Y94.287 F7200
G1 X198.641 Y105.066 E29.1417 F3600
G0 X198.075 Y105.066 F7200
G1 X187.296 Y94.287 E29.6487 F3600
G0 X186.730 Y94.287 F7200
G1 X197.510 Y105.066 E30.1557 F3600
G0 X196.944 Y105.066 F7200
G1 X186.165 Y94.287 E30.6627 F3600
G0 X185.599 Y94.287 F7200
G1 X196.378 Y105.066 E31.1698 F3600
G0 X195.813 Y105.066 F7200
G1 X185.033 Y94.287 E31.6768 F3600
G0 X184.468 Y94.287 F7200
G1 X195.247 Y105.066 E32.1838 F3600
G0 X194.681 Y105.066 F7200
G1 X183.902 Y94.287 E32.6908 F3600
G0 X183.336 Y94.287 F7200
G1 X194.115 Y105.066 E33.1978 F3600
G0 X193.550 Y105.066 F7200
G1 X182.771 Y94.287 E33.7048 F3600
G0 X182.205 Y94.287 F7200
G1 X192.984 Y105.066 E34.2118 F3600
G0 X192.418 Y105.066 F7200
G1 X181.639 Y94.287 E34.7189 F3600
G0 X181.074 Y94.287 F7200
G1 X191.853 Y105.066 E35.2259 F3600
G0 X191.287 Y105.066 F7200
G1 X180.508 Y94.287 E35.7329 F3600
G0 X180.105 Y94.450 F7200
G1 X190.884 Y105.229 E36.2399 F3600
G0 X190.884 Y105.795 F7200
G1 X180.105 Y95.016 E36.7469 F3600
G0 X180.105 Y95.581 F7200
G1 X190.884 Y106.360 E37.2539 F3600
G0 X190.884 Y106.926 F7200
G1 X180.105 Y96.147 E37.7610 F3600
G0 X180.105 Y96.713 F7200
G1 X190.884 Y107.492 E38.2680 F3600
G0 X190.884 Y108.057 F7200
G1 X180.105 Y97.278 E38.7750 F3600
G0 X180.105 Y97.844 F7200
G1 X190.884 Y108.623 E39.2820 F3600
G0 X190.884 Y109.189 F7200
G1 X180.105 Y98.410 E39.7890 F3600
G0 X180.105 Y98.975 F7200
G1 X190.884 Y109.754 E40.2960 F3600
G0 X190.884 Y110.320 F7200
G1 X180.105 Y99.541 E40.8030 F3600
G0 X180.105 Y100.107 F7200
G1 X190.884 Y110.886 E41.3101 F3600
G0 X190.884 Y111.451 F7200
G1 X180.105 Y100.672 E41.8171 F3600
G0 X180.105 Y101.238 F7200
G1 X190.884 Y112.017 E42.3241 F3600
G0 X190.884 Y112.583 F7200
G1 X180.105 Y101.804 E42.8311 F3600
G0 X180.105 Y102.369 F7200
G1 X190.884 Y113.149 E43.3381 F3600
G0 X190.884 Y113.714 F7200
G1 X180.105 Y102.935 E43.8451 F3600
G0 X180.105 Y103.501 F7200
G1 X190.884 Y114.280 E44.3522 F3600
G0 X190.884 Y114.846 F7200
G1 X180.105 Y104.066 E44.8592 F3600
G0 X180.105 Y104.632 F7200
G1 X190.884 Y115.411 E45.3662 F3600
G0 X190.884 Y115.977 F7200
G1 X180.105 Y105.198 E45.8732 F3600
G0 X180.105 Y105.764 F7200
G1 X190.884 Y116.543 E46.3802 F3600
G0 X190.884 Y117.108 F7200
G1 X180.105 Y106.329 E46.8872 F3600
G0 X180.105 Y106.895 F7200
G1 X190.884 Y117.674 E47.3942 F3600
G0 X190.410 Y117.766 F7200
G1 X180.105 Y107.461 E47.8790 F3600
G0 X180.105 Y108.026 F7200
G1 X189.845 Y117.766 E48.3371 F3600
G0 X189.279 Y117.766 F7200
G1 X180.105 Y108.592 E48.7687 F3600
G0 X180.105 Y109.158 F7200
G1 X188.713 Y117.766 E49.1736 F3600
G0 X188.148 Y117.766 F7200
G1 X180.105 Y109.723 E49.5519 F3600
G0 X180.105 Y110.289 F7200
G1 X187.582 Y117.766 E49.9036 F3600
G0 X187.016 Y117.766 F7200
G1 X180.105 Y110.855 E50.2287 F3600
G0 X180.105 Y111.420 F7200
G1 X186.451 Y117.766 E50.5272 F3600
G0 X185.885 Y117.766 F7200
G1 X180.105 Y111.986 E50.7991 F3600
G0 X180.105 Y112.552 F7200
G1 X185.319 Y117.766 E51.0444 F3600
G0 X184.754 Y117.766 F7200
G1 X180.105 Y113.117 E51.2630 F3600
G0 X180.105 Y113.683 F7200
G1 X184.188 Y117.766 E51.4551 F3600
G0 X183.622 Y117.766 F7200
G1 X180.105 Y114.249 E51.6206 F3600
G0 X180.105 Y114.815 F7200
G1 X183.057 Y117.766 E51.7594 F3600
G0 X182.491 Y117.766 F7200
G1 X180.105 Y115.380 E51.8716 F3600
G0 X180.105 Y115.946 F7200
G1 X181.925 Y117.766 E51.9573 F3600
G0 X181.360 Y117.766 F7200
G1 X180.105 Y116.512 E52.0163 F3600
G0 X180.105 Y117.077 F7200
G1 X180.794 Y117.766 E52.0487 F3600
G0 F3000 E51.0487
G0 X134.703 Y82.989 F7200
G0 F3000 E52.0487
G1 X145.482 Y93.768 E52.5557 F3600
;segType:Perimeter
G0 X145.502 Y93.850 F7200
G1 X146.302 Y93.850 E52.5823 F2160
G1 X158.942 Y93.850 E53.0027
G1 X158.942 Y118.850 E53.8342
G1 X146.643 Y118.850 E54.2433
G1 X146.643 Y106.150 E54.6657
G1 X133.943 Y106.150 E55.0881
G1 X133.943 Y81.150 E55.9196
G1 X146.242 Y81.150 E56.3286
G1 X146.242 Y93.790 E56.7490
G0 X146.242 Y94.590 F7200
;segType:Loop
G0 X147.342 Y94.250
G1 X158.542 Y94.250 E57.1216 F3600
G1 X158.542 Y118.450 E57.9264
G1 X147.043 Y118.450 E58.3089
G1 X147.043 Y105.750 E58.7313
G1 X134.343 Y105.750 E59.1537
G1 X134.343 Y81.550 E59.9586
G1 X145.842 Y81.550 E60.3410
G1 X145.842 Y94.250 E60.7634
G1 X147.142 Y94.250 E60.8067
G0 X147.142 Y94.250 F7200
G0 X145.842 Y94.250
G0 X145.842 Y93.430
G0 X145.842 Y93.430
G0 X145.471 Y93.196
;segType:HShell
G0 X145.482 Y93.203
G1 X134.703 Y82.424 E61.3137 F3600
G0 X134.756 Y81.911 F7200
G1 X145.482 Y92.637 E61.8182 F3600
G0 X145.482 Y92.071 F7200
G1 X135.321 Y81.911 E62.2961 F3600
G0 X135.887 Y81.911 F7200
G1 X145.482 Y91.506 E62.7475 F3600
G0 X145.482 Y90.940 F7200
G1 X136.453 Y81.911 E63.1722 F3600
G0 X137.018 Y81.911 F7200
G1 X145.482 Y90.374 E63.5703 F3600
G0 X145.482 Y89.808 F7200
G1 X137.584 Y81.911 E63.9418 F3600
G0 X138.150 Y81.911 F7200
G1 X145.482 Y89.243 E64.2866 F3600
G0 X145.482 Y88.677 F7200
G1 X138.715 Y81.911 E64.6049 F3600
G0 X139.281 Y81.911 F7200
G1 X145.482 Y88.111 E64.8966 F3600
G0 X145.482 Y87.546 F7200
G1 X139.847 Y81.911 E65.1617 F3600
G0 X140.413 Y81.911 F7200
G1 X145.482 Y86.980 E65.4001 F3600
G0 X145.482 Y86.414 F7200
G1 X140.978 Y81.911 E65.6120 F3600
G0 X141.544 Y81.911 F7200
G1 X145.482 Y85.849 E65.7972 F3600
G0 X145.482 Y85.283 F7200
G1 X142.110 Y81.911 E65.9558 F3600
G0 X142.675 Y81.911 F7200
G1 X145.482 Y84.717 E66.0878 F3600
G0 X145.482 Y84.152 F7200
G1 X143.241 Y81.911 E66.1933 F3600
G0 X143.807 Y81.911 F7200
G1 X145.482 Y83.586 E66.2721 F3600
G0 X145.482 Y83.020 F7200
G1 X144.372 Y81.911 E66.3243 F3600
G0 X144.938 Y81.911 F7200
G1 X145.482 Y82.455 E66.3498 F3600
G0 X134.703 Y83.555 F7200
G1 X145.482 Y94.334 E66.8569 F3600
G0 X135.042 Y105.390 F7200
G1 X134.703 Y105.051 E66.8728 F3600
G0 X134.703 Y104.485 F7200
G1 X135.607 Y105.390 E66.9153 F3600
G0 X136.173 Y105.390 F7200
G1 X134.703 Y103.920 E66.9844 F3600
G0 X134.703 Y103.354 F7200
G1 X136.739 Y105.390 E67.0802 F3600
G0 X137.304 Y105.390 F7200
G1 X134.703 Y102.788 E67.2025 F3600
G0 X134.703 Y102.223 F7200
G1 X137.870 Y105.390 E67.3515 F3600
G0 X138.436 Y105.390 F7200
G1 X134.703 Y101.657 E67.5270 F3600
G0 X134.703 Y101.091 F7200
G1 X139.001 Y105.390 E67.7292 F3600
G0 X139.567 Y105.390 F7200
G1 X134.703 Y100.526 E67.9580 F3600
G0 X134.703 Y99.960 F7200
G1 X140.133 Y105.390 E68.2134 F3600
G0 X140.698 Y105.390 F7200
G1 X134.703 Y99.394 E68.4954 F3600
G0 X134.703 Y98.829 F7200
G1 X141.264 Y105.390 E68.8040 F3600
G0 X141.830 Y105.390 F7200
G1 X134.703 Y98.263 E69.1392 F3600
G0 X134.703 Y97.697 F7200
G1 X142.396 Y105.390 E69.5010 F3600
G0 X142.961 Y105.390 F7200
G1 X134.703 Y97.132 E69.8895 F3600
G0 X134.703 Y96.566 F7200
G1 X143.527 Y105.390 E70.3045 F3600
G0 X144.093 Y105.390 F7200
G1 X134.703 Y96.000 E70.7462 F3600
G0 X134.703 Y95.434 F7200
G1 X144.658 Y105.390 E71.2144 F3600
G0 X145.224 Y105.390 F7200
G1 X134.703 Y94.869 E71.7093 F3600
G0 X134.703 Y94.303 F7200
G1 X145.790 Y105.390 E72.2308 F3600
G0 X146.355 Y105.390 F7200
G1 X134.703 Y93.737 E72.7788 F3600
G0 X134.703 Y93.172 F7200
G1 X146.921 Y105.390 E73.3535 F3600
G0 X147.742 Y118.089 F7200
G1 X147.403 Y117.751 E73.3695 F3600
G0 X147.403 Y117.185 F7200
G1 X148.307 Y118.089 E73.4120 F3600
G0 X148.873 Y118.089 F7200
G1 X147.403 Y116.620 E73.4811 F3600
G0 X147.403 Y116.054 F7200
G1 X149.439 Y118.089 E73.5769 F3600
G0 X150.004 Y118.089 F7200
G1 X147.403 Y115.488 E73.6992 F3600
G0 X147.403 Y114.923 F7200
G1 X150.570 Y118.089 E73.8482 F3600
G0 X151.136 Y118.089 F7200
G1 X147.403 Y114.357 E74.0237 F3600
G0 X147.403 Y113.791 F7200
G1 X151.701 Y118.089 E74.2259 F3600
G0 X152.267 Y118.089 F7200
G1 X147.403 Y113.226 E74.4547 F3600
G0 X147.403 Y112.660 F7200
G1 X152.833 Y118.089 E74.7101 F3600
G0 X153.398 Y118.089 F7200
G1 X147.403 Y112.094 E74.9921 F3600
G0 X147.403 Y111.528 F7200
G1 X153.964 Y118.089 E75.3007 F3600
G0 X154.530 Y118.089 F7200
G1 X147.403 Y110.963 E75.6359 F3600
G0 X147.403 Y110.397 F7200
G1 X155.095 Y118.089 E75.9977 F3600
G0 X155.661 Y118.089 F7200
G1 X147.403 Y109.831 E76.3862 F3600
G0 X147.403 Y109.266 F7200
G1 X156.227 Y118.089 E76.8012 F3600
G0 X156.793 Y118.089 F7200
G1 X147.403 Y108.700 E77.2429 F3600
G0 X147.403 Y108.134 F7200
G1 X157.358 Y118.089 E77.7111 F3600
G0 X157.924 Y118.089 F7200
G1 X147.403 Y107.569 E78.2060 F3600
G0 X147.403 Y107.003 F7200
G1 X158.182 Y117.782 E78.7130 F3600
G0 X158.182 Y117.216 F7200
G1 X147.403 Y106.437 E79.2200 F3600
G0 X147.403 Y105.872 F7200
G1 X158.182 Y116.651 E79.7270 F3600
G0 X158.182 Y116.085 F7200
G1 X134.703 Y92.606 E80.8314 F3600
G0 X134.703 Y92.040 F7200
G1 X158.182 Y115.519 E81.9358 F3600
G0 X158.182 Y114.954 F7200
G1 X134.703 Y91.475 E83.0402 F3600
G0 X134.703 Y90.909 F7200
G1 X158.182 Y114.388 E84.1445 F3600
G0 X158.182 Y113.822 F7200
G1 X134.703 Y90.343 E85.2489 F3600
G0 X134.703 Y89.778 F7200
G1 X158.182 Y113.257 E86.3533 F3600
G0 X158.182 Y112.691 F7200
G1 X134.703 Y89.212 E87.4577 F3600
G0 X134.703 Y88.646 F7200
G1 X158.182 Y112.125 E88.5621 F3600
G0 X158.182 Y111.560 F7200
G1 X134.703 Y88.081 E89.6664 F3600
G0 X134.703 Y87.515 F7200
G1 X158.182 Y110.994 E90.7708 F3600
G0 X158.182 Y110.428 F7200
G1 X134.703 Y86.949 E91.8752 F3600
G0 X134.703 Y86.384 F7200
G1 X158.182 Y109.863 E92.9796 F3600
G0 X158.182 Y109.297 F7200
G1 X134.703 Y85.818 E94.0839 F3600
G0 X134.703 Y85.252 F7200
G1 X158.182 Y108.731 E95.1883 F3600
G0 X158.182 Y108.165 F7200
G1 X134.703 Y84.686 E96.2927 F3600
G0 X134.703 Y84.121 F7200
G1 X158.182 Y107.600 E97.3971 F3600
G0 X158.182 Y107.034 F7200
G1 X145.759 Y94.610 E97.9815 F3600
G0 X146.324 Y94.610 F7200
G1 X158.182 Y106.468 E98.5392 F3600
G0 X158.182 Y105.903 F7200
G1 X146.890 Y94.610 E99.0704 F3600
G0 X147.456 Y94.610 F7200
G1 X158.182 Y105.337 E99.5749 F3600
G0 X158.182 Y104.771 F7200
G1 X148.021 Y94.610 E100.0529 F3600
G0 X148.587 Y94.610 F7200
G1 X158.182 Y104.206 E100.5042 F3600
G0 X158.182 Y103.640 F7200
G1 X149.153 Y94.610 E100.9289 F3600
G0 X149.718 Y94.610 F7200
G1 X158.182 Y103.074 E101.3270 F3600
G0 X158.182 Y102.509 F7200
G1 X150.284 Y94.610 E101.6985 F3600
G0 X150.850 Y94.610 F7200
G1 X158.182 Y101.943 E102.0434 F3600
G0 X158.182 Y101.377 F7200
G1 X151.415 Y94.610 E102.3617 F3600
G0 X151.981 Y94.610 F7200
G1 X158.182 Y100.812 E102.6534 F3600
G0 X158.182 Y100.246 F7200
G1 X152.547 Y94.610 E102.9185 F3600
G0 X153.112 Y94.610 F7200
G1 X158.182 Y99.680 E103.1569 F3600
G0 X158.182 Y99.114 F7200
G1 X153.678 Y94.610 E103.3688 F3600
G0 X154.244 Y94.610 F7200
G1 X158.182 Y98.549 E103.5540 F3600
G0 X158.182 Y97.983 F7200
G1 X154.810 Y94.610 E103.7127 F3600
G0 X155.375 Y94.610 F7200
G1 X158.182 Y97.417 E103.8447 F3600
G0 X158.182 Y96.852 F7200
G1 X155.941 Y94.610 E103.9501 F3600
G0 X156.507 Y94.610 F7200
G1 X158.182 Y96.286 E104.0289 F3600
G0 X158.182 Y95.720 F7200
G1 X157.072 Y94.610 E104.0812 F3600
G0 X157.638 Y94.610 F7200
G1 X158.182 Y95.155 E104.1068 F3600
; ------------------------------------
; Layer #3
; ------------------------------------
M106 S255 ;set fan speed
G92 E0 ;reset extr
;segType:HShell
G0 F3000 E-1.0000
G0 F1200 Z0.800
G0 X134.703 Y105.090 F7200
G0 F3000 E0.0000
G1 X145.482 Y94.311 E0.5070 F3600
;segType:Perimeter
G0 X145.502 Y93.850 F7200
G1 X146.302 Y93.850 E0.5336 F2160
G1 X158.942 Y93.850 E0.9540
G1 X158.942 Y118.850 E1.7855
G1 X146.643 Y118.850 E2.1946
G1 X146.643 Y106.150 E2.6170
G1 X133.943 Y106.150 E3.0394
G1 X133.943 Y81.150 E3.8709
G1 X146.242 Y81.150 E4.2799
G1 X146.242 Y93.790 E4.7003
G0 X146.242 Y94.590 F7200
;segType:Loop
G0 X147.342 Y94.250
G1 X158.542 Y94.250 E5.0729 F3600
G1 X158.542 Y118.450 E5.8777
G1 X147.043 Y118.450 E6.2602
G1 X147.043 Y105.750 E6.6826
G1 X134.343 Y105.750 E7.1050
G1 X134.343 Y81.550 E7.9099
G1 X145.842 Y81.550 E8.2923
G1 X145.842 Y94.250 E8.7147
G1 X147.142 Y94.250 E8.7580
;segType:HShell
G0 X145.748 Y94.610 F7200
G1 X134.969 Y105.390 E9.2650 F3600
G0 X135.535 Y105.390 F7200
G1 X146.314 Y94.610 E9.7720 F3600
G0 X146.880 Y94.610 F7200
G1 X136.101 Y105.390 E10.2790 F3600
G0 X136.666 Y105.390 F7200
G1 X147.445 Y94.610 E10.7860 F3600
G0 X148.011 Y94.610 F7200
G1 X137.232 Y105.390 E11.2931 F3600
G0 X137.798 Y105.390 F7200
G1 X148.577 Y94.610 E11.8001 F3600
G0 X149.142 Y94.610 F7200
G1 X138.363 Y105.390 E12.3071 F3600
G0 X138.929 Y105.390 F7200
G1 X149.708 Y94.610 E12.8141 F3600
G0 X150.274 Y94.610 F7200
G1 X139.495 Y105.390 E13.3211 F3600
G0 X140.060 Y105.390 F7200
G1 X150.839 Y94.610 E13.8281 F3600
G0 X151.405 Y94.610 F7200
G1 X140.626 Y105.390 E14.3351 F3600
G0 X141.192 Y105.390 F7200
G1 X151.971 Y94.610 E14.8422 F3600
G0 X152.536 Y94.610 F7200
G1 X141.757 Y105.390 E15.3492 F3600
G0 X142.323 Y105.390 F7200
G1 X153.102 Y94.610 E15.8562 F3600
G0 X153.668 Y94.610 F7200
G1 X142.889 Y105.390 E16.3632 F3600
G0 X143.454 Y105.390 F7200
G1 X154.234 Y94.610 E16.8702 F3600
G0 X154.799 Y94.610 F7200
G1 X144.020 Y105.390 E17.3772 F3600
G0 X144.586 Y105.390 F7200
G1 X155.365 Y94.610 E17.8843 F3600
G0 X155.931 Y94.610 F7200
G1 X145.151 Y105.390 E18.3913 F3600
G0 X145.717 Y105.390 F7200
G1 X156.496 Y94.610 E18.8983 F3600
G0 X157.062 Y94.610 F7200
G1 X146.283 Y105.390 E19.4053 F3600
G0 X146.849 Y105.390 F7200
G1 X157.628 Y94.610 E19.9123 F3600
G0 X158.182 Y94.622 F7200
G1 X147.403 Y105.401 E20.4193 F3600
G0 X147.403 Y105.966 F7200
G1 X158.182 Y95.187 E20.9264 F3600
G0 X158.182 Y95.753 F7200
G1 X147.403 Y106.532 E21.4334 F3600
G0 X147.403 Y107.098 F7200
G1 X158.182 Y96.319 E21.9404 F3600
G0 X158.182 Y96.884 F7200
G1 X147.403 Y107.663 E22.4474 F3600
G0 X147.403 Y108.229 F7200
G1 X158.182 Y97.450 E22.9544 F3600
G0 X158.182 Y98.016 F7200
G1 X147.403 Y108.795 E23.4614 F3600
G0 X147.403 Y109.360 F7200
G1 X158.182 Y98.581 E23.9684 F3600
G0 X158.182 Y99.147 F7200
G1 X147.403 Y109.926 E24.4755 F3600
G0 X147.403 Y110.492 F7200
G1 X158.182 Y99.713 E24.9825 F3600
G0 X158.182 Y100.278 F7200
G1 X147.403 Y111.058 E25.4895 F3600
G0 X147.403 Y111.623 F7200
G1 X158.182 Y100.844 E25.9965 F3600
G0 X158.182 Y101.410 F7200
G1 X147.403 Y112.189 E26.5035 F3600
G0 X147.403 Y112.755 F7200
G1 X158.182 Y101.975 E27.0105 F3600
G0 X158.182 Y102.541 F7200
G1 X147.403 Y113.320 E27.5176 F3600
G0 X147.403 Y113.886 F7200
G1 X158.182 Y103.107 E28.0246 F3600
G0 X158.182 Y103.673 F7200
G1 X147.403 Y114.452 E28.5316 F3600
G0 X147.403 Y115.017 F7200
G1 X158.182 Y104.238 E29.0386 F3600
G0 X158.182 Y104.804 F7200
G1 X147.403 Y115.583 E29.5456 F3600
G0 X147.403 Y116.149 F7200
G1 X158.182 Y105.370 E30.0526 F3600
G0 X158.182 Y105.935 F7200
G1 X147.403 Y116.714 E30.5597 F3600
G0 X147.403 Y117.280 F7200
G1 X158.182 Y106.501 E31.0667 F3600
G0 X158.182 Y107.067 F7200
G1 X147.403 Y117.846 E31.5737 F3600
G0 X147.725 Y118.089 F7200
G1 X158.182 Y107.632 E32.0656 F3600
G0 X158.182 Y108.198 F7200
G1 X148.291 Y118.089 E32.5308 F3600
G0 X148.856 Y118.089 F7200
G1 X158.182 Y108.764 E32.9695 F3600
G0 X158.182 Y109.329 F7200
G1 X149.422 Y118.089 E33.3815 F3600
G0 X149.988 Y118.089 F7200
G1 X158.182 Y109.895 E33.7670 F3600
G0 X158.182 Y110.461 F7200
G1 X150.553 Y118.089 E34.1258 F3600
G0 X151.119 Y118.089 F7200
G1 X158.182 Y111.026 E34.4580 F3600
G0 X158.182 Y111.592 F7200
G1 X151.685 Y118.089 E34.7636 F3600
G0 X152.251 Y118.089 F7200
G1 X158.182 Y112.158 E35.0426 F3600
G0 X158.182 Y112.723 F7200
G1 X152.816 Y118.089 E35.2950 F3600
G0 X153.382 Y118.089 F7200
G1 X158.182 Y113.289 E35.5208 F3600
G0 X158.182 Y113.855 F7200
G1 X153.948 Y118.089 E35.7200 F3600
G0 X154.513 Y118.089 F7200
G1 X158.182 Y114.421 E35.8926 F3600
G0 X158.182 Y114.986 F7200
G1 X155.079 Y118.089 E36.0386 F3600
G0 X155.645 Y118.089 F7200
G1 X158.182 Y115.552 E36.1579 F3600
G0 X158.182 Y116.118 F7200
G1 X156.210 Y118.089 E36.2507 F3600
G0 X156.776 Y118.089 F7200
G1 X158.182 Y116.683 E36.3168 F3600
G0 X158.182 Y117.249 F7200
G1 X157.342 Y118.089 E36.3564 F3600
G0 X147.043 Y111.918 F7200
G0 X147.043 Y105.750
G0 X136.748 Y105.750
G0 X136.748 Y105.750
G0 X134.692 Y104.518
G0 X134.703 Y104.524
G1 X145.482 Y93.745 E36.8634 F3600
G0 X145.482 Y93.180 F7200
G1 X134.703 Y103.958 E37.3704 F3600
G0 X134.703 Y103.393 F7200
G1 X145.482 Y92.614 E37.8774 F3600
G0 X145.482 Y92.048 F7200
G1 X134.703 Y102.827 E38.3844 F3600
G0 X134.703 Y102.261 F7200
G1 X145.482 Y91.483 E38.8914 F3600
G0 X145.482 Y90.917 F7200
G1 X134.703 Y101.696 E39.3984 F3600
G0 X134.703 Y101.130 F7200
G1 X145.482 Y90.351 E39.9054 F3600
G0 X145.482 Y89.785 F7200
G1 X134.703 Y100.564 E40.4124 F3600
G0 X134.703 Y99.999 F7200
G1 X145.482 Y89.220 E40.9194 F3600
G0 X145.482 Y88.654 F7200
G1 X134.703 Y99.433 E41.4264 F3600
G0 X134.703 Y98.867 F7200
G1 X145.482 Y88.088 E41.9334 F3600
G0 X145.482 Y87.523 F7200
G1 X134.703 Y98.302 E42.4404 F3600
G0 X134.703 Y97.736 F7200
G1 X145.482 Y86.957 E42.9474 F3600
G0 X145.482 Y86.391 F7200
G1 X134.703 Y97.170 E43.4544 F3600
G0 X134.703 Y96.605 F7200
G1 X145.482 Y85.826 E43.9614 F3600
G0 X145.482 Y85.260 F7200
G1 X134.703 Y96.039 E44.4684 F3600
G0 X134.703 Y95.473 F7200
G1 X145.482 Y84.694 E44.9754 F3600
G0 X145.482 Y84.129 F7200
G1 X134.703 Y94.907 E45.4824 F3600
G0 X134.703 Y94.342 F7200
G1 X145.482 Y83.563 E45.9894 F3600
G0 X145.482 Y82.997 F7200
G1 X134.703 Y93.776 E46.4964 F3600
G0 X134.703 Y93.210 F7200
G1 X145.482 Y82.432 E47.0034 F3600
G0 X145.437 Y81.911 F7200
G1 X134.703 Y92.645 E47.5083 F3600
G0 X134.703 Y92.079 F7200
G1 X144.872 Y81.911 E47.9866 F3600
G0 X144.306 Y81.911 F7200
G1 X134.703 Y91.513 E48.4383 F3600
G0 X134.703 Y90.948 F7200
G1 X143.740 Y81.911 E48.8634 F3600
G0 X143.175 Y81.911 F7200
G1 X134.703 Y90.382 E49.2619 F3600
G0 X134.703 Y89.816 F7200
G1 X142.609 Y81.911 E49.6337 F3600
G0 X142.043 Y81.911 F7200
G1 X134.703 Y89.251 E49.9790 F3600
G0 X134.703 Y88.685 F7200
G1 X141.478 Y81.911 E50.2976 F3600
G0 X140.912 Y81.911 F7200
G1 X134.703 Y88.119 E50.5897 F3600
G0 X134.703 Y87.554 F7200
G1 X140.346 Y81.911 E50.8551 F3600
G0 X139.781 Y81.911 F7200
G1 X134.703 Y86.988 E51.0939 F3600
G0 X134.703 Y86.422 F7200
G1 X139.215 Y81.911 E51.3061 F3600
G0 X138.649 Y81.911 F7200
G1 X134.703 Y85.856 E51.4917 F3600
G0 X134.703 Y85.291 F7200
G1 X138.083 Y81.911 E51.6507 F3600
G0 X137.518 Y81.911 F7200
G1 X134.703 Y84.725 E51.7831 F3600
G0 X134.703 Y84.159 F7200
G1 X136.952 Y81.911 E51.8889 F3600
G0 X136.386 Y81.911 F7200
G1 X134.703 Y83.594 E51.9681 F3600
G0 X134.703 Y83.028 F7200
G1 X135.821 Y81.911 E52.0207 F3600
G0 X135.255 Y81.911 F7200
G1 X134.703 Y82.462 E52.0466 F3600
G0 F3000 E51.0466
G0 X180.105 Y106.640 F7200
G0 F3000 E52.0466
G1 X192.458 Y94.287 E52.6277 F3600
;segType:Perimeter
G0 X192.045 Y94.267 F7200
G1 X192.045 Y93.467 E52.6543 F2160
G1 X192.045 Y80.827 E53.0747
G1 X204.344 Y80.827 E53.4837
G1 X204.344 Y105.827 E54.3152
G1 X191.644 Y105.827 E54.7376
G1 X191.644 Y118.526 E55.1600
G1 X179.345 Y118.526 E55.5691
G1 X179.345 Y93.527 E56.4006
G1 X191.985 Y93.527 E56.8210
G0 X192.785 Y93.527 F7200
;segType:Loop
G0 X192.445 Y92.427
G1 X192.445 Y81.227 E57.1935 F3600
G1 X203.944 Y81.227 E57.5760
G1 X203.944 Y105.427 E58.3808
G1 X191.244 Y105.427 E58.8032
G1 X191.244 Y118.126 E59.2256
G1 X179.745 Y118.126 E59.6081
G1 X179.745 Y93.927 E60.4130
G1 X192.445 Y93.927 E60.8354
G1 X192.445 Y92.627 E60.8786
;segType:HShell
G0 X192.805 Y93.940 F7200
G1 X203.584 Y83.161 E61.3856 F3600
G0 X203.584 Y82.595 F7200
G1 X192.805 Y93.374 E61.8926 F3600
G0 X192.805 Y92.809 F7200
G1 X203.584 Y82.030 E62.3996 F3600
G0 X203.460 Y81.587 F7200
G1 X192.805 Y92.243 E62.9008 F3600
G0 X192.805 Y91.677 F7200
G1 X202.895 Y81.587 E63.3754 F3600
G0 X202.329 Y81.587 F7200
G1 X192.805 Y91.112 E63.8234 F3600
G0 X192.805 Y90.546 F7200
G1 X201.763 Y81.587 E64.2448 F3600
G0 X201.198 Y81.587 F7200
G1 X192.805 Y89.980 E64.6395 F3600
G0 X192.805 Y89.414 F7200
G1 X200.632 Y81.587 E65.0077 F3600
G0 X200.066 Y81.587 F7200
G1 X192.805 Y88.849 E65.3493 F3600
G0 X192.805 Y88.283 F7200
G1 X199.501 Y81.587 E65.6642 F3600
G0 X198.935 Y81.587 F7200
G1 X192.805 Y87.717 E65.9525 F3600
G0 X192.805 Y87.152 F7200
G1 X198.369 Y81.587 E66.2143 F3600
G0 X197.804 Y81.587 F7200
G1 X192.805 Y86.586 E66.4494 F3600
G0 X192.805 Y86.020 F7200
G1 X197.238 Y81.587 E66.6579 F3600
G0 X196.672 Y81.587 F7200
G1 X192.805 Y85.455 E66.8398 F3600
G0 X192.805 Y84.889 F7200
G1 X196.107 Y81.587 E66.9951 F3600
G0 X195.541 Y81.587 F7200
G1 X192.805 Y84.323 E67.1238 F3600
G0 X192.805 Y83.758 F7200
G1 X194.975 Y81.587 E67.2259 F3600
G0 X194.410 Y81.587 F7200
G1 X192.805 Y83.192 E67.3014 F3600
G0 X192.805 Y82.626 F7200
G1 X193.844 Y81.587 E67.3502 F3600
G0 X193.278 Y81.587 F7200
G1 X192.805 Y82.061 E67.3725 F3600
G0 X203.175 Y105.066 F7200
G1 X203.584 Y104.657 E67.3917 F3600
G0 X203.584 Y104.091 F7200
G1 X202.609 Y105.066 E67.4376 F3600
G0 X202.043 Y105.066 F7200
G1 X203.584 Y103.526 E67.5101 F3600
G0 X203.584 Y102.960 F7200
G1 X201.477 Y105.066 E67.6091 F3600
G0 X200.912 Y105.066 F7200
G1 X203.584 Y102.394 E67.7348 F3600
G0 X203.584 Y101.829 F7200
G1 X200.346 Y105.066 E67.8871 F3600
G0 X199.780 Y105.066 F7200
G1 X203.584 Y101.263 E68.0660 F3600
G0 X203.584 Y100.697 F7200
G1 X199.215 Y105.066 E68.2715 F3600
G0 X198.649 Y105.066 F7200
G1 X203.584 Y100.132 E68.5036 F3600
G0 X203.584 Y99.566 F7200
G1 X198.083 Y105.066 E68.7624 F3600
G0 X197.518 Y105.066 F7200
G1 X203.584 Y99.000 E69.0477 F3600
G0 X203.584 Y98.435 F7200
G1 X196.952 Y105.066 E69.3596 F3600
G0 X196.386 Y105.066 F7200
G1 X203.584 Y97.869 E69.6982 F3600
G0 X203.584 Y97.303 F7200
G1 X195.821 Y105.066 E70.0633 F3600
G0 X195.255 Y105.066 F7200
G1 X203.584 Y96.738 E70.4551 F3600
G0 X203.584 Y96.172 F7200
G1 X194.689 Y105.066 E70.8735 F3600
G0 X194.124 Y105.066 F7200
G1 X203.584 Y95.606 E71.3185 F3600
G0 X203.584 Y95.041 F7200
G1 X193.558 Y105.066 E71.7900 F3600
G0 X192.992 Y105.066 F7200
G1 X203.584 Y94.475 E72.2882 F3600
G0 X203.584 Y93.909 F7200
G1 X192.426 Y105.066 E72.8131 F3600
G0 X191.861 Y105.066 F7200
G1 X203.584 Y93.343 E73.3645 F3600
G0 X203.584 Y92.778 F7200
G1 X191.295 Y105.066 E73.9425 F3600
G0 X190.475 Y117.766 F7200
G1 X190.884 Y117.357 E73.9617 F3600
G0 X190.884 Y116.791 F7200
G1 X189.909 Y117.766 E74.0076 F3600
G0 X189.343 Y117.766 F7200
G1 X190.884 Y116.226 E74.0801 F3600
G0 X190.884 Y115.660 F7200
G1 X188.778 Y117.766 E74.1791 F3600
G0 X188.212 Y117.766 F7200
G1 X190.884 Y115.094 E74.3048 F3600
G0 X190.884 Y114.529 F7200
G1 X187.646 Y117.766 E74.4571 F3600
G0 X187.080 Y117.766 F7200
G1 X190.884 Y113.963 E74.6360 F3600
G0 X190.884 Y113.397 F7200
G1 X186.515 Y117.766 E74.8415 F3600
G0 X185.949 Y117.766 F7200
G1 X190.884 Y112.832 E75.0736 F3600
G0 X190.884 Y112.266 F7200
G1 X185.383 Y117.766 E75.3324 F3600
G0 X184.818 Y117.766 F7200
G1 X190.884 Y111.700 E75.6177 F3600
G0 X190.884 Y111.134 F7200
G1 X184.252 Y117.766 E75.9296 F3600
G0 X183.686 Y117.766 F7200
G1 X190.884 Y110.569 E76.2682 F3600
G0 X190.884 Y110.003 F7200
G1 X183.121 Y117.766 E76.6333 F3600
G0 X182.555 Y117.766 F7200
G1 X190.884 Y109.437 E77.0251 F3600
G0 X190.884 Y108.872 F7200
G1 X181.989 Y117.766 E77.4435 F3600
G0 X181.424 Y117.766 F7200
G1 X190.884 Y108.306 E77.8885 F3600
G0 X190.884 Y107.740 F7200
G1 X180.858 Y117.766 E78.3600 F3600
G0 X180.292 Y117.766 F7200
G1 X190.884 Y107.175 E78.8582 F3600
G0 X190.884 Y106.609 F7200
G1 X180.105 Y117.388 E79.3653 F3600
G0 X180.105 Y116.822 F7200
G1 X190.884 Y106.043 E79.8723 F3600
G0 X190.884 Y105.478 F7200
G1 X180.105 Y116.257 E80.3793 F3600
G0 X180.105 Y115.691 F7200
G1 X203.584 Y92.212 E81.4837 F3600
G0 X203.584 Y91.646 F7200
G1 X180.105 Y115.125 E82.5881 F3600
G0 X180.105 Y114.560 F7200
G1 X203.584 Y91.081 E83.6924 F3600
G0 X203.584 Y90.515 F7200
G1 X180.105 Y113.994 E84.7968 F3600
G0 X180.105 Y113.428 F7200
G1 X203.584 Y89.949 E85.9012 F3600
G0 X203.584 Y89.384 F7200
G1 X180.105 Y112.863 E87.0056 F3600
G0 X180.105 Y112.297 F7200
G1 X203.584 Y88.818 E88.1100 F3600
G0 X203.584 Y88.252 F7200
G1 X180.105 Y111.731 E89.2143 F3600
G0 X180.105 Y111.166 F7200
G1 X203.584 Y87.687 E90.3187 F3600
G0 X203.584 Y87.121 F7200
G1 X180.105 Y110.600 E91.4231 F3600
G0 X180.105 Y110.034 F7200
G1 X203.584 Y86.555 E92.5275 F3600
G0 X203.584 Y85.990 F7200
G1 X180.105 Y109.469 E93.6318 F3600
G0 X180.105 Y108.903 F7200
G1 X203.584 Y85.424 E94.7362 F3600
G0 X203.584 Y84.858 F7200
G1 X180.105 Y108.337 E95.8406 F3600
G0 X180.105 Y107.771 F7200
G1 X203.584 Y84.293 E96.9450 F3600
G0 X203.584 Y83.727 F7200
G1 X180.105 Y107.206 E98.0494 F3600
G0 X180.105 Y94.761 F7200
G1 X180.578 Y94.287 E98.0716 F3600
G0 X181.144 Y94.287 F7200
G1 X180.105 Y95.326 E98.1205 F3600
G0 X180.105 Y95.892 F7200
G1 X181.710 Y94.287 E98.1960 F3600
G0 X182.275 Y94.287 F7200
G1 X180.105 Y96.458 E98.2981 F3600
G0 X180.105 Y97.023 F7200
G1 X182.841 Y94.287 E98.4268 F3600
G0 X183.407 Y94.287 F7200
G1 X180.105 Y97.589 E98.5821 F3600
G0 X180.105 Y98.155 F7200
G1 X183.972 Y94.287 E98.7640 F3600
G0 X184.538 Y94.287 F7200
G1 X180.105 Y98.721 E98.9725 F3600
G0 X180.105 Y99.286 F7200
G1 X185.104 Y94.287 E99.2076 F3600
G0 X185.669 Y94.287 F7200
G1 X180.105 Y99.852 E99.4694 F3600
G0 X180.105 Y100.418 F7200
G1 X186.235 Y94.287 E99.7577 F3600
G0 X186.801 Y94.287 F7200
G1 X180.105 Y100.983 E100.0727 F3600
G0 X180.105 Y101.549 F7200
G1 X187.366 Y94.287 E100.4143 F3600
G0 X187.932 Y94.287 F7200
G1 X180.105 Y102.115 E100.7824 F3600
G0 X180.105 Y102.680 F7200
G1 X188.498 Y94.287 E101.1772 F3600
G0 X189.063 Y94.287 F7200
G1 X180.105 Y103.246 E101.5986 F3600
G0 X180.105 Y103.812 F7200
G1 X189.629 Y94.287 E102.0466 F3600
G0 X190.195 Y94.287 F7200
G1 X180.105 Y104.377 E102.5212 F3600
G0 X180.105 Y104.943 F7200
G1 X190.761 Y94.287 E103.0224 F3600
G0 X191.326 Y94.287 F7200
G1 X180.105 Y105.509 E103.5502 F3600
G0 X180.105 Y106.074 F7200
G1 X191.892 Y94.287 E104.1047 F3600
; ------------------------------------
; Layer #4
; ------------------------------------
G92 E0 ;reset extr
G0 F3000 E-1.0000
G0 F1200 Z1.000
G0 X179.594 Y91.597 F7200
G0 X147.619 Y84.601
G0 X145.160 Y84.063
G0 X135.321 Y81.911
G0 F3000 E0.0000
;segType:Infill
G1 X145.482 Y92.071 E0.5735 F4500
;segType:Perimeter
G0 X145.502 Y93.850 F7200
G1 X146.302 Y93.850 E0.6001 F2160
G1 X158.942 Y93.850 E1.0205
G1 X158.942 Y118.850 E1.8520
G1 X146.643 Y118.850 E2.2611
G1 X146.643 Y106.150 E2.6835
G1 X133.943 Y106.150 E3.1059
G1 X133.943 Y81.150 E3.9374
G1 X146.242 Y81.150 E4.3464
G1 X146.242 Y93.790 E4.7668
G0 X146.242 Y94.590 F7200
;segType:Loop
G0 X147.342 Y94.250
G1 X158.542 Y94.250 E5.1394 F3600
G1 X158.542 Y118.450 E5.9442
G1 X147.043 Y118.450 E6.3267
G1 X147.043 Y105.750 E6.7491
G1 X134.343 Y105.750 E7.1715
G1 X134.343 Y81.550 E7.9764
G1 X145.842 Y81.550 E8.3588
G1 X145.842 Y94.250 E8.7812
G1 X147.142 Y94.250 E8.8245
;segType:Infill
G0 X148.021 Y94.610 F7200
G1 X158.182 Y104.771 E9.3980 F4500
G0 X158.182 Y95.720 F7200
G1 X157.072 Y94.610 E9.4607 F4500
G0 X152.547 Y94.610 F7200
G1 X158.182 Y100.246 E9.7787 F4500
G0 X158.182 Y109.297 F7200
G1 X134.703 Y85.818 E11.1040 F4500
G0 X134.703 Y90.343 F7200
G1 X158.182 Y113.822 E12.4293 F4500
G0 X153.398 Y118.089 F7200
G1 X147.403 Y112.094 E12.7677 F4500
G0 X147.403 Y116.620 F7200
G1 X148.873 Y118.089 E12.8506 F4500
G0 X157.924 Y118.089 F7200
G1 X147.403 Y107.569 E13.4445 F4500
G0 X147.043 Y107.499 F7200
G0 X147.043 Y105.750
G0 X138.029 Y105.750
G0 X138.029 Y105.750
G0 X136.161 Y105.387
G0 X136.173 Y105.390
G1 X134.703 Y103.920 E13.5274 F4500
G0 X134.703 Y99.394 F7200
G1 X140.698 Y105.390 E13.8658 F4500
G0 X145.224 Y105.390 F7200
G1 X134.703 Y94.869 E14.4597 F4500
G0 X145.482 Y87.546 F7200
G1 X139.847 Y81.911 E14.7777 F4500
G0 X144.372 Y81.911 F7200
G1 X145.482 Y83.020 E14.8404 F4500
G0 F3000 E13.8404
G0 X203.584 Y104.918 F7200
G0 F3000 E14.8404
G1 X192.805 Y94.139 E15.4488 F4500
;segType:Perimeter
G0 X192.045 Y94.267 F7200
G1 X192.045 Y93.467 E15.4754 F2160
G1 X192.045 Y80.827 E15.8958
G1 X204.344 Y80.827 E16.3049
G1 X204.344 Y105.827 E17.1363
G1 X191.644 Y105.827 E17.5587
G1 X191.644 Y118.526 E17.9811
G1 X179.345 Y118.526 E18.3902
G1 X179.345 Y93.527 E19.2217
G1 X191.985 Y93.527 E19.6421
G0 X192.785 Y93.527 F7200
;segType:Loop
G0 X192.445 Y92.427
G1 X192.445 Y81.227 E20.0146 F3600
G1 X203.944 Y81.227 E20.3971
G1 X203.944 Y105.427 E21.2020
G1 X191.244 Y105.427 E21.6244
G1 X191.244 Y118.126 E22.0468
G1 X179.745 Y118.126 E22.4292
G1 X179.745 Y93.927 E23.2341
G1 X192.445 Y93.927 E23.6565
G1 X192.445 Y92.627 E23.6997
G0 X192.445 Y92.627 F7200
G0 X192.445 Y93.927
G0 X189.299 Y93.927
G0 X189.299 Y93.927
G0 X188.416 Y94.292
;segType:Infill
G0 X188.428 Y94.287
G1 X199.207 Y105.066 E24.3082 F4500
G0 X198.900 Y105.427 F7200
G0 X191.244 Y105.427
G0 X191.244 Y114.422
G0 X191.244 Y114.422
G0 X190.876 Y114.855
G0 X190.884 Y114.846
G1 X180.105 Y104.066 E24.9166 F4500
G0 X180.105 Y108.592 F7200
G1 X189.279 Y117.766 E25.4344 F4500
G0 X184.754 Y117.766 F7200
G1 X180.105 Y113.117 E25.6968 F4500
G0 X180.105 Y99.541 F7200
G1 X190.884 Y110.320 E26.3052 F4500
G0 X190.884 Y105.795 F7200
G1 X180.105 Y95.016 E26.9137 F4500
G0 X183.902 Y94.287 F7200
G1 X194.681 Y105.066 E27.5221 F4500
G0 X203.584 Y100.393 F7200
G1 X192.805 Y89.614 E28.1305 F4500
G0 X192.805 Y85.088 F7200
G1 X203.584 Y95.867 E28.7389 F4500
G0 X203.584 Y91.342 F7200
G1 X193.830 Y81.587 E29.2895 F4500
G0 X203.584 Y82.291 F7200
G1 X202.881 Y81.587 E29.3292 F4500
G0 X198.355 Y81.587 F7200
G1 X203.584 Y86.816 E29.6243 F4500
; ------------------------------------
; Layer #5
; ------------------------------------
G92 E0 ;reset extr
G0 F3000 E-1.0000
G0 F1200 Z1.200
G0 X181.444 Y92.508 F7200
G0 X159.303 Y98.200
G0 X156.843 Y98.832
G0 X134.703 Y104.524
G0 F3000 E0.0000
;segType:Infill
G1 X145.482 Y93.745 E0.6084 F4500
;segType:Perimeter
G0 X145.502 Y93.850 F7200
G1 X146.302 Y93.850 E0.6350 F2160
G1 X158.942 Y93.850 E1.0554
G1 X158.942 Y118.850 E1.8869
G1 X146.643 Y118.850 E2.2960
G1 X146.643 Y106.150 E2.7184
G1 X133.943 Y106.150 E3.1408
G1 X133.943 Y81.150 E3.9723
G1 X146.242 Y81.150 E4.3813
G1 X146.242 Y93.790 E4.8017
G0 X146.242 Y94.590 F7200
;segType:Loop
G0 X147.342 Y94.250
G1 X158.542 Y94.250 E5.1743 F3600
G1 X158.542 Y118.450 E5.9791
G1 X147.043 Y118.450 E6.3616
G1 X147.043 Y105.750 E6.7840
G1 X134.343 Y105.750 E7.2064
G1 X134.343 Y81.550 E8.0113
G1 X145.842 Y81.550 E8.3937
G1 X145.842 Y94.250 E8.8161
G1 X147.142 Y94.250 E8.8594
;segType:Infill
G0 X149.142 Y94.610 F7200
G1 X138.363 Y105.390 E9.4678 F4500
G0 X134.703 Y99.999 F7200
G1 X145.482 Y89.220 E10.0762 F4500
G0 X139.215 Y81.911 F7200
G1 X134.703 Y86.422 E10.3309 F4500
G0 X134.703 Y90.948 F7200
G1 X143.740 Y81.911 E10.8410 F4500
G0 X145.482 Y84.694 F7200
G1 X134.703 Y95.473 E11.4494 F4500
G0 X147.403 Y105.401 F7200
G1 X158.182 Y94.622 E12.0578 F4500
G0 X158.182 Y108.198 F7200
G1 X148.291 Y118.089 E12.6161 F4500
G0 X152.816 Y118.089 F7200
G1 X158.182 Y112.723 E12.9190 F4500
G0 X157.342 Y118.089 F7200
G1 X158.182 Y117.249 E12.9664 F4500
G0 X147.403 Y114.452 F7200
G1 X158.182 Y103.673 E13.5748 F4500
G0 X158.182 Y99.147 F7200
G1 X147.403 Y109.926 E14.1833 F4500
G0 X147.043 Y109.564 F7200
G0 X147.043 Y105.750
G0 X143.247 Y105.750
G0 X143.247 Y105.750
G0 X142.880 Y105.381
G0 X142.889 Y105.390
G1 X153.668 Y94.610 E14.7917 F4500
G0 F3000 E13.7917
G0 X180.105 Y104.377 F7200
G0 F3000 E14.7917
G1 X190.195 Y94.287 E15.3612 F4500
;segType:Perimeter
G0 X192.045 Y94.267 F7200
G1 X192.045 Y93.467 E15.3878 F2160
G1 X192.045 Y80.827 E15.8082
G1 X204.344 Y80.827 E16.2173
G1 X204.344 Y105.827 E17.0488
G1 X191.644 Y105.827 E17.4712
G1 X191.644 Y118.526 E17.8936
G1 X179.345 Y118.526 E18.3026
G1 X179.345 Y93.527 E19.1341
G1 X191.985 Y93.527 E19.5545
G0 X192.785 Y93.527 F7200
;segType:Loop
G0 X192.445 Y92.427
G1 X192.445 Y81.227 E19.9271 F3600
G1 X203.944 Y81.227 E20.3095
G1 X203.944 Y105.427 E21.1144
G1 X191.244 Y105.427 E21.5368
G1 X191.244 Y118.126 E21.9592
G1 X179.745 Y118.126 E22.3417
G1 X179.745 Y93.927 E23.1465
G1 X192.445 Y93.927 E23.5689
G1 X192.445 Y92.627 E23.6122
;segType:Infill
G0 X192.805 Y91.677 F7200
G1 X202.895 Y81.587 E24.1817 F4500
G0 X198.369 Y81.587 F7200
G1 X192.805 Y87.152 E24.4958 F4500
G0 X193.844 Y81.587 F7200
G1 X192.805 Y82.626 E24.5544 F4500
G0 X192.445 Y83.215 F7200
G0 X192.445 Y93.927
G0 X185.890 Y93.927
G0 X185.890 Y93.927
G0 X185.663 Y94.298
G0 X185.669 Y94.287
G1 X180.105 Y99.852 E24.8685 F4500
G0 X180.105 Y95.326 F7200
G1 X181.144 Y94.287 E24.9271 F4500
G0 X190.884 Y116.226 F7200
G1 X189.343 Y117.766 E25.0141 F4500
G0 X190.884 Y111.700 F7200
G1 X184.818 Y117.766 E25.3565 F4500
G0 X180.105 Y108.903 F7200
G1 X203.584 Y85.424 E26.6818 F4500
G0 X203.584 Y89.949 F7200
G1 X180.105 Y113.428 E28.0070 F4500
G0 X180.292 Y117.766 F7200
G1 X190.884 Y107.175 E28.6049 F4500
G0 X191.244 Y106.815 F7200
G0 X191.244 Y105.427
G0 X192.632 Y105.427
G0 X192.632 Y105.427
G0 X193.001 Y105.057
G0 X192.992 Y105.066
G1 X203.584 Y94.475 E29.2027 F4500
G0 X203.584 Y103.526 F7200
G1 X202.043 Y105.066 E29.2896 F4500
G0 X197.518 Y105.066 F7200
G1 X203.584 Y99.000 E29.6320 F4500
; ------------------------------------
; Layer #6
; ------------------------------------
G92 E0 ;reset extr
;segType:Infill
G0 F3000 E-1.0000
G0 F1200 Z1.400
G0 X203.584 Y104.918 F7200
G0 F3000 E0.0000
G1 X192.805 Y94.139 E0.6084 F4500
;segType:Perimeter
G0 X192.045 Y94.267 F7200
G1 X192.045 Y93.467 E0.6350 F2160
G1 X192.045 Y80.827 E1.0554
G1 X204.344 Y80.827 E1.4645
G1 X204.344 Y105.827 E2.2960
G1 X191.644 Y105.827 E2.7184
G1 X191.644 Y118.526 E3.1408
G1 X179.345 Y118.526 E3.5498
G1 X179.345 Y93.527 E4.3813
G1 X191.985 Y93.527 E4.8017
G0 X192.785 Y93.527 F7200
;segType:Loop
G0 X192.445 Y92.427
G1 X192.445 Y81.227 E5.1743 F3600
G1 X203.944 Y81.227 E5.5567
G1 X203.944 Y105.427 E6.3616
G1 X191.244 Y105.427 E6.7840
G1 X191.244 Y118.126 E7.2064
G1 X179.745 Y118.126 E7.5889
G1 X179.745 Y93.927 E8.3937
G1 X192.445 Y93.927 E8.8161
G1 X192.445 Y92.627 E8.8594
;segType:Infill
G0 X192.805 Y89.614 F7200
G1 X203.584 Y100.393 E9.4678 F4500
G0 X202.881 Y81.587 F7200
G1 X203.584 Y82.291 E9.5075 F4500
G0 X203.584 Y86.816 F7200
G1 X198.355 Y81.587 E9.8026 F4500
G0 X193.830 Y81.587 F7200
G1 X203.584 Y91.342 E10.3532 F4500
G0 X203.584 Y95.867 F7200
G1 X192.805 Y85.088 E10.9616 F4500
G0 X192.445 Y85.460 F7200
G0 X192.445 Y93.927
G0 X184.251 Y93.927
G0 X184.251 Y93.927
G0 X183.893 Y94.296
G0 X183.902 Y94.287
G1 X194.681 Y105.066 E11.5700 F4500
G0 X190.884 Y105.795 F7200
G1 X180.105 Y95.016 E12.1784 F4500
G0 X180.105 Y99.541 F7200
G1 X190.884 Y110.320 E12.7868 F4500
G0 X180.105 Y113.117 F7200
G1 X184.754 Y117.766 E13.0493 F4500
G0 X189.279 Y117.766 F7200
G1 X180.105 Y108.592 E13.5671 F4500
G0 X180.105 Y104.066 F7200
G1 X190.884 Y114.846 E14.1755 F4500
G0 X191.244 Y114.422 F7200
G0 X191.244 Y105.427
G0 X198.900 Y105.427
G0 X198.900 Y105.427
G0 X199.215 Y105.057
G0 X199.207 Y105.066
G1 X188.428 Y94.287 E14.7839 F4500
G0 F3000 E13.7839
G0 X135.321 Y81.911 F7200
G0 F3000 E14.7839
G1 X145.482 Y92.071 E15.3574 F4500
;segType:Perimeter
G0 X145.502 Y93.850 F7200
G1 X146.302 Y93.850 E15.3840 F2160
G1 X158.942 Y93.850 E15.8045
G1 X158.942 Y118.850 E16.6359
G1 X146.643 Y118.850 E17.0450
G1 X146.643 Y106.150 E17.4674
G1 X133.943 Y106.150 E17.8898
G1 X133.943 Y81.150 E18.7213
G1 X146.242 Y81.150 E19.1304
G1 X146.242 Y93.790 E19.5508
G0 X146.242 Y94.590 F7200
;segType:Loop
G0 X147.342 Y94.250
G1 X158.542 Y94.250 E19.9233 F3600
G1 X158.542 Y118.450 E20.7282
G1 X147.043 Y118.450 E21.1106
G1 X147.043 Y105.750 E21.5330
G1 X134.343 Y105.750 E21.9554
G1 X134.343 Y81.550 E22.7603
G1 X145.842 Y81.550 E23.1428
G1 X145.842 Y94.250 E23.5652
G1 X147.142 Y94.250 E23.6084
;segType:Infill
G0 X148.021 Y94.610 F7200
G1 X158.182 Y104.771 E24.1819 F4500
G0 X157.072 Y94.610 F7200
G1 X158.182 Y95.720 E24.2446 F4500
G0 X158.182 Y100.246 F7200
G1 X152.547 Y94.610 E24.5627 F4500
G0 X152.327 Y94.250 F7200
G0 X145.842 Y94.250
G0 X145.842 Y83.611
G0 X145.842 Y83.611
G0 X145.475 Y83.009
G0 X145.482 Y83.020
G1 X144.372 Y81.911 E24.6253 F4500
G0 X145.482 Y87.546 F7200
G1 X139.847 Y81.911 E24.9434 F4500
G0 X134.703 Y85.818 F7200
G1 X158.182 Y109.297 E26.2686 F4500
G0 X153.398 Y118.089 F7200
G1 X147.403 Y112.094 E26.6070 F4500
G0 X148.873 Y118.089 F7200
G1 X147.403 Y116.620 E26.6900 F4500
G0 X147.043 Y116.260 F7200
G0 X147.043 Y105.750
G0 X136.533 Y105.750
G0 X136.533 Y105.750
G0 X136.164 Y105.381
G0 X136.173 Y105.390
G1 X134.703 Y103.920 E26.7730 F4500
G0 X140.698 Y105.390 F7200
G1 X134.703 Y99.394 E27.1114 F4500
G0 X134.703 Y94.869 F7200
G1 X145.224 Y105.390 E27.7052 F4500
G0 X145.584 Y105.750 F7200
G0 X147.043 Y105.750
G0 X147.043 Y107.209
G0 X147.043 Y107.209
G0 X147.412 Y107.578
G0 X147.403 Y107.569
G1 X157.924 Y118.089 E28.2990 F4500
G0 X158.182 Y113.822 F7200
G1 X134.703 Y90.343 E29.6243 F4500
; ------------------------------------
; Layer #7
; ------------------------------------
G92 E0 ;reset extr
;segType:Infill
G0 F3000 E-1.0000
G0 F1200 Z1.600
G0 X134.703 Y104.524 F7200
G0 F3000 E0.0000
G1 X145.482 Y93.745 E0.6084 F4500
;segType:Perimeter
G0 X145.502 Y93.850 F7200
G1 X146.302 Y93.850 E0.6350 F2160
G1 X158.942 Y93.850 E1.0554
G1 X158.942 Y118.850 E1.8869
G1 X146.643 Y118.850 E2.2960
G1 X146.643 Y106.150 E2.7184
G1 X133.943 Y106.150 E3.1408
G1 X133.943 Y81.150 E3.9723
G1 X146.242 Y81.150 E4.3813
G1 X146.242 Y93.790 E4.8017
G0 X146.242 Y94.590 F7200
;segType:Loop
G0 X147.342 Y94.250
G1 X158.542 Y94.250 E5.1743 F3600
G1 X158.542 Y118.450 E5.9791
G1 X147.043 Y118.450 E6.3616
G1 X147.043 Y105.750 E6.7840
G1 X134.343 Y105.750 E7.2064
G1 X134.343 Y81.550 E8.0113
G1 X145.842 Y81.550 E8.3937
G1 X145.842 Y94.250 E8.8161
G1 X147.142 Y94.250 E8.8594
;segType:Infill
G0 X158.182 Y103.673 F7200
G1 X147.403 Y114.452 E9.4678 F4500
G0 X148.291 Y118.089 F7200
G1 X158.182 Y108.198 E10.0261 F4500
G0 X158.182 Y112.723 F7200
G1 X152.816 Y118.089 E10.3290 F4500
G0 X158.182 Y117.249 F7200
G1 X157.342 Y118.089 E10.3764 F4500
G0 X147.403 Y109.926 F7200
G1 X158.182 Y99.147 E10.9848 F4500
G0 X158.182 Y94.622 F7200
G1 X147.403 Y105.401 E11.5933 F4500
G0 X142.889 Y105.390 F7200
G1 X153.668 Y94.610 E12.2017 F4500
G0 X149.142 Y94.610 F7200
G1 X138.363 Y105.390 E12.8101 F4500
G0 X134.703 Y99.999 F7200
G1 X145.482 Y89.220 E13.4185 F4500
G0 X145.482 Y84.694 F7200
G1 X134.703 Y95.473 E14.0269 F4500
G0 X134.703 Y90.948 F7200
G1 X143.740 Y81.911 E14.5370 F4500
G0 X139.215 Y81.911 F7200
G1 X134.703 Y86.422 E14.7917 F4500
G0 F3000 E13.7917
G0 X180.105 Y104.377 F7200
G0 F3000 E14.7917
G1 X190.195 Y94.287 E15.3612 F4500
;segType:Perimeter
G0 X192.045 Y94.267 F7200
G1 X192.045 Y93.467 E15.3878 F2160
G1 X192.045 Y80.827 E15.8082
G1 X204.344 Y80.827 E16.2173
G1 X204.344 Y105.827 E17.0488
G1 X191.644 Y105.827 E17.4712
G1 X191.644 Y118.526 E17.8936
G1 X179.345 Y118.526 E18.3026
G1 X179.345 Y93.527 E19.1341
G1 X191.985 Y93.527 E19.5545
G0 X192.785 Y93.527 F7200
;segType:Loop
G0 X192.445 Y92.427
G1 X192.445 Y81.227 E19.9270 F3600
G1 X203.944 Y81.227 E20.3095
G1 X203.944 Y105.427 E21.1144
G1 X191.244 Y105.427 E21.5368
G1 X191.244 Y118.126 E21.9592
G1 X179.745 Y118.126 E22.3416
G1 X179.745 Y93.927 E23.1465
G1 X192.445 Y93.927 E23.5689
G1 X192.445 Y92.627 E23.6122
;segType:Infill
G0 X192.805 Y91.677 F7200
G1 X202.895 Y81.587 E24.1817 F4500
G0 X203.584 Y85.424 F7200
G1 X180.105 Y108.903 E25.5069 F4500
G0 X180.105 Y113.428 F7200
G1 X203.584 Y89.949 E26.8322 F4500
G0 X203.584 Y94.475 F7200
G1 X192.992 Y105.066 E27.4300 F4500
G0 X197.518 Y105.066 F7200
G1 X203.584 Y99.000 E27.7724 F4500
G0 X203.584 Y103.526 F7200
G1 X202.043 Y105.066 E27.8594 F4500
G0 X201.683 Y105.427 F7200
G0 X191.244 Y105.427
G0 X191.244 Y115.866
G0 X191.244 Y115.866
G0 X190.875 Y116.235
G0 X190.884 Y116.226
G1 X189.343 Y117.766 E27.9463 F4500
G0 X190.884 Y111.700 F7200
G1 X184.818 Y117.766 E28.2887 F4500
G0 X180.292 Y117.766 F7200
G1 X190.884 Y107.175 E28.8866 F4500
G0 X180.105 Y99.852 F7200
G1 X185.669 Y94.287 E29.2007 F4500
G0 X180.105 Y95.326 F7200
G1 X181.144 Y94.287 E29.2593 F4500
G0 X181.504 Y93.927 F7200
G0 X192.445 Y93.927
G0 X192.445 Y82.986
G0 X192.445 Y82.986
G0 X192.814 Y82.617
G0 X192.805 Y82.626
G1 X193.844 Y81.587 E29.3180 F4500
G0 X198.369 Y81.587 F7200
G1 X192.805 Y87.152 E29.6320 F4500
; ------------------------------------
; Layer #8
; ------------------------------------
G92 E0 ;reset extr
G0 F3000 E-1.0000
G0 F1200 Z1.800
G0 X147.818 Y83.050 F7200
G0 X145.319 Y82.822
G0 X135.321 Y81.911
G0 F3000 E0.0000
;segType:Infill
G1 X145.482 Y92.071 E0.5735 F4500
;segType:Perimeter
G0 X145.502 Y93.850 F7200
G1 X146.302 Y93.850 E0.6001 F2160
G1 X158.942 Y93.850 E1.0205
G1 X158.942 Y118.850 E1.8520
G1 X146.643 Y118.850 E2.2611
G1 X146.643 Y106.150 E2.6835
G1 X133.943 Y106.150 E3.1059
G1 X133.943 Y81.150 E3.9374
G1 X146.242 Y81.150 E4.3464
G1 X146.242 Y93.790 E4.7668
G0 X146.242 Y94.590 F7200
;segType:Loop
G0 X147.342 Y94.250
G1 X158.542 Y94.250 E5.1394 F3600
G1 X158.542 Y118.450 E5.9442
G1 X147.043 Y118.450 E6.3267
G1 X147.043 Y105.750 E6.7491
G1 X134.343 Y105.750 E7.1715
G1 X134.343 Y81.550 E7.9764
G1 X145.842 Y81.550 E8.3588
G1 X145.842 Y94.250 E8.7812
G1 X147.142 Y94.250 E8.8245
;segType:Infill
G0 X148.021 Y94.610 F7200
G1 X158.182 Y104.771 E9.3980 F4500
G0 X158.182 Y95.720 F7200
G1 X157.072 Y94.610 E9.4607 F4500
G0 X152.547 Y94.610 F7200
G1 X158.182 Y100.246 E9.7787 F4500
G0 X158.182 Y109.297 F7200
G1 X134.703 Y85.818 E11.1040 F4500
G0 X134.703 Y90.343 F7200
G1 X158.182 Y113.822 E12.4293 F4500
G0 X153.398 Y118.089 F7200
G1 X147.403 Y112.094 E12.7677 F4500
G0 X147.403 Y116.620 F7200
G1 X148.873 Y118.089 E12.8506 F4500
G0 X157.924 Y118.089 F7200
G1 X147.403 Y107.569 E13.4445 F4500
G0 X147.043 Y107.499 F7200
G0 X147.043 Y105.750
G0 X138.029 Y105.750
G0 X138.029 Y105.750
G0 X136.161 Y105.387
G0 X136.173 Y105.390
G1 X134.703 Y103.920 E13.5274 F4500
G0 X134.703 Y99.394 F7200
G1 X140.698 Y105.390 E13.8658 F4500
G0 X145.224 Y105.390 F7200
G1 X134.703 Y94.869 E14.4597 F4500
G0 X145.482 Y87.546 F7200
G1 X139.847 Y81.911 E14.7777 F4500
G0 X144.372 Y81.911 F7200
G1 X145.482 Y83.020 E14.8404 F4500
G0 F3000 E13.8404
G0 X203.584 Y104.918 F7200
G0 F3000 E14.8404
G1 X192.805 Y94.139 E15.4488 F4500
;segType:Perimeter
G0 X192.045 Y94.267 F7200
G1 X192.045 Y93.467 E15.4754 F2160
G1 X192.045 Y80.827 E15.8958
G1 X204.344 Y80.827 E16.3049
G1 X204.344 Y105.827 E17.1363
G1 X191.644 Y105.827 E17.5587
G1 X191.644 Y118.526 E17.9811
G1 X179.345 Y118.526 E18.3902
G1 X179.345 Y93.527 E19.2217
G1 X191.985 Y93.527 E19.6421
G0 X192.785 Y93.527 F7200
;segType:Loop
G0 X192.445 Y92.427
G1 X192.445 Y81.227 E20.0146 F3600
G1 X203.944 Y81.227 E20.3971
G1 X203.944 Y105.427 E21.2020
G1 X191.244 Y105.427 E21.6244
G1 X191.244 Y118.126 E22.0468
G1 X179.745 Y118.126 E22.4292
G1 X179.745 Y93.927 E23.2341
G1 X192.445 Y93.927 E23.6565
G1 X192.445 Y92.627 E23.6998
G0 X192.445 Y92.627 F7200
G0 X192.445 Y93.927
G0 X189.299 Y93.927
G0 X189.299 Y93.927
G0 X188.416 Y94.292
;segType:Infill
G0 X188.428 Y94.287
G1 X199.207 Y105.066 E24.3082 F4500
G0 X198.900 Y105.427 F7200
G0 X191.244 Y105.427
G0 X191.244 Y114.422
G0 X191.244 Y114.422
G0 X190.876 Y114.855
G0 X190.884 Y114.846
G1 X180.105 Y104.066 E24.9166 F4500
G0 X180.105 Y108.592 F7200
G1 X189.279 Y117.766 E25.4344 F4500
G0 X184.754 Y117.766 F7200
G1 X180.105 Y113.117 E25.6968 F4500
G0 X180.105 Y99.541 F7200
G1 X190.884 Y110.320 E26.3053 F4500
G0 X190.884 Y105.795 F7200
G1 X180.105 Y95.016 E26.9137 F4500
G0 X183.902 Y94.287 F7200
G1 X194.681 Y105.066 E27.5221 F4500
G0 X203.584 Y100.393 F7200
G1 X192.805 Y89.614 E28.1305 F4500
G0 X192.805 Y85.088 F7200
G1 X203.584 Y95.867 E28.7389 F4500
G0 X203.584 Y91.342 F7200
G1 X193.830 Y81.587 E29.2895 F4500
G0 X203.584 Y82.291 F7200
G1 X202.881 Y81.587 E29.3292 F4500
G0 X198.355 Y81.587 F7200
G1 X203.584 Y86.816 E29.6243 F4500
; ------------------------------------
; Layer #9
; ------------------------------------
G92 E0 ;reset extr
G0 F3000 E-1.0000
G0 F1200 Z2.000
G0 X181.444 Y92.508 F7200
G0 X159.303 Y98.200
G0 X156.843 Y98.832
G0 X134.703 Y104.524
G0 F3000 E0.0000
;segType:Infill
G1 X145.482 Y93.745 E0.6084 F4500
;segType:Perimeter
G0 X145.502 Y93.850 F7200
G1 X146.302 Y93.850 E0.6350 F2160
G1 X158.942 Y93.850 E1.0554
G1 X158.942 Y118.850 E1.8869
G1 X146.643 Y118.850 E2.2960
G1 X146.643 Y106.150 E2.7184
G1 X133.943 Y106.150 E3.1408
G1 X133.943 Y81.150 E3.9723
G1 X146.242 Y81.150 E4.3813
G1 X146.242 Y93.790 E4.8017
G0 X146.242 Y94.590 F7200
;segType:Loop
G0 X147.342 Y94.250
G1 X158.542 Y94.250 E5.1743 F3600
G1 X158.542 Y118.450 E5.9791
G1 X147.043 Y118.450 E6.3616
G1 X147.043 Y105.750 E6.7840
G1 X134.343 Y105.750 E7.2064
G1 X134.343 Y81.550 E8.0113
G1 X145.842 Y81.550 E8.3937
G1 X145.842 Y94.250 E8.8161
G1 X147.142 Y94.250 E8.8594
;segType:Infill
G0 X149.142 Y94.610 F7200
G1 X138.363 Y105.390 E9.4678 F4500
G0 X134.703 Y99.999 F7200
G1 X145.482 Y89.220 E10.0762 F4500
G0 X139.215 Y81.911 F7200
G1 X134.703 Y86.422 E10.3309 F4500
G0 X134.703 Y90.948 F7200
G1 X143.740 Y81.911 E10.8409 F4500
G0 X145.482 Y84.694 F7200
G1 X134.703 Y95.473 E11.4494 F4500
G0 X147.403 Y105.401 F7200
G1 X158.182 Y94.622 E12.0578 F4500
G0 X158.182 Y108.198 F7200
G1 X148.291 Y118.089 E12.6161 F4500
G0 X152.816 Y118.089 F7200
G1 X158.182 Y112.723 E12.9190 F4500
G0 X157.342 Y118.089 F7200
G1 X158.182 Y117.249 E12.9664 F4500
G0 X147.403 Y114.452 F7200
G1 X158.182 Y103.673 E13.5748 F4500
G0 X158.182 Y99.147 F7200
G1 X147.403 Y109.926 E14.1832 F4500
G0 X147.043 Y109.564 F7200
G0 X147.043 Y105.750
G0 X143.247 Y105.750
G0 X143.247 Y105.750
G0 X142.880 Y105.381
G0 X142.889 Y105.390
G1 X153.668 Y94.610 E14.7917 F4500
G0 F3000 E13.7917
G0 X180.105 Y104.377 F7200
G0 F3000 E14.7917
G1 X190.195 Y94.287 E15.3612 F4500
;segType:Perimeter
G0 X192.045 Y94.267 F7200
G1 X192.045 Y93.467 E15.3878 F2160
G1 X192.045 Y80.827 E15.8082
G1 X204.344 Y80.827 E16.2173
G1 X204.344 Y105.827 E17.0488
G1 X191.644 Y105.827 E17.4712
G1 X191.644 Y118.526 E17.8936
G1 X179.345 Y118.526 E18.3026
G1 X179.345 Y93.527 E19.1341
G1 X191.985 Y93.527 E19.5545
G0 X192.785 Y93.527 F7200
;segType:Loop
G0 X192.445 Y92.427
G1 X192.445 Y81.227 E19.9270 F3600
G1 X203.944 Y81.227 E20.3095
G1 X203.944 Y105.427 E21.1144
G1 X191.244 Y105.427 E21.5368
G1 X191.244 Y118.126 E21.9592
G1 X179.745 Y118.126 E22.3416
G1 X179.745 Y93.927 E23.1465
G1 X192.445 Y93.927 E23.5689
G1 X192.445 Y92.627 E23.6122
;segType:Infill
G0 X192.805 Y91.677 F7200
G1 X202.895 Y81.587 E24.1817 F4500
G0 X198.369 Y81.587 F7200
G1 X192.805 Y87.152 E24.4958 F4500
G0 X193.844 Y81.587 F7200
G1 X192.805 Y82.626 E24.5544 F4500
G0 X192.445 Y83.215 F7200
G0 X192.445 Y93.927
G0 X185.890 Y93.927
G0 X185.890 Y93.927
G0 X185.663 Y94.298
G0 X185.669 Y94.287
G1 X180.105 Y99.852 E24.8685 F4500
G0 X180.105 Y95.326 F7200
G1 X181.144 Y94.287 E24.9271 F4500
G0 X190.884 Y116.226 F7200
G1 X189.343 Y117.766 E25.0141 F4500
G0 X190.884 Y111.700 F7200
G1 X184.818 Y117.766 E25.3565 F4500
G0 X180.105 Y108.903 F7200
G1 X203.584 Y85.424 E26.6818 F4500
G0 X203.584 Y89.949 F7200
G1 X180.105 Y113.428 E28.0070 F4500
G0 X180.292 Y117.766 F7200
G1 X190.884 Y107.175 E28.6048 F4500
G0 X191.244 Y106.815 F7200
G0 X191.244 Y105.427
G0 X192.632 Y105.427
G0 X192.632 Y105.427
G0 X193.001 Y105.057
G0 X192.992 Y105.066
G1 X203.584 Y94.475 E29.2027 F4500
G0 X203.584 Y103.526 F7200
G1 X202.043 Y105.066 E29.2896 F4500
G0 X197.518 Y105.066 F7200
G1 X203.584 Y99.000 E29.6320 F4500
; ------------------------------------
; Layer #10
; ------------------------------------
G92 E0 ;reset extr
;segType:Infill
G0 F3000 E-1.0000
G0 F1200 Z2.200
G0 X203.584 Y104.918 F7200
G0 F3000 E0.0000
G1 X192.805 Y94.139 E0.6084 F4500
;segType:Perimeter
G0 X192.045 Y94.267 F7200
G1 X192.045 Y93.467 E0.6350 F2160
G1 X192.045 Y80.827 E1.0554
G1 X204.344 Y80.827 E1.4645
G1 X204.344 Y105.827 E2.2960
G1 X191.644 Y105.827 E2.7184
G1 X191.644 Y118.526 E3.1408
G1 X179.345 Y118.526 E3.5498
G1 X179.345 Y93.527 E4.3813
G1 X191.985 Y93.527 E4.8017
G0 X192.785 Y93.527 F7200
;segType:Loop
G0 X192.445 Y92.427
G1 X192.445 Y81.227 E5.1743 F3600
G1 X203.944 Y81.227 E5.5567
G1 X203.944 Y105.427 E6.3616
G1 X191.244 Y105.427 E6.7840
G1 X191.244 Y118.126 E7.2064
G1 X179.745 Y118.126 E7.5889
G1 X179.745 Y93.927 E8.3937
G1 X192.445 Y93.927 E8.8161
G1 X192.445 Y92.627 E8.8594
;segType:Infill
G0 X192.805 Y89.614 F7200
G1 X203.584 Y100.393 E9.4678 F4500
G0 X202.881 Y81.587 F7200
G1 X203.584 Y82.291 E9.5075 F4500
G0 X203.584 Y86.816 F7200
G1 X198.355 Y81.587 E9.8026 F4500
G0 X193.830 Y81.587 F7200
G1 X203.584 Y91.342 E10.3532 F4500
G0 X203.584 Y95.867 F7200
G1 X192.805 Y85.088 E10.9616 F4500
G0 X192.445 Y85.460 F7200
G0 X192.445 Y93.927
G0 X184.251 Y93.927
G0 X184.251 Y93.927
G0 X183.893 Y94.296
G0 X183.902 Y94.287
G1 X194.681 Y105.066 E11.5700 F4500
G0 X190.884 Y105.795 F7200
G1 X180.105 Y95.015 E12.1784 F4500
G0 X180.105 Y99.541 F7200
G1 X190.884 Y110.320 E12.7868 F4500
G0 X180.105 Y113.117 F7200
G1 X184.754 Y117.766 E13.0492 F4500
G0 X189.279 Y117.766 F7200
G1 X180.105 Y108.592 E13.5671 F4500
G0 X180.105 Y104.066 F7200
G1 X190.884 Y114.846 E14.1755 F4500
G0 X191.244 Y114.422 F7200
G0 X191.244 Y105.427
G0 X198.900 Y105.427
G0 X198.900 Y105.427
G0 X199.215 Y105.057
G0 X199.207 Y105.066
G1 X188.428 Y94.287 E14.7839 F4500
G0 F3000 E13.7839
G0 X135.321 Y81.911 F7200
G0 F3000 E14.7839
G1 X137.674 Y84.263 E14.9167 F4500
G0 X139.847 Y81.911 F7200
G1 X141.727 Y83.791 E15.0228 F4500
G0 X143.606 Y85.669 F7200
G1 X145.482 Y87.546 E15.1287 F4500
G0 X143.125 Y89.714 F7200
G1 X145.482 Y92.071 E15.2618 F4500
;segType:Perimeter
G0 X145.502 Y93.850 F7200
G1 X146.302 Y93.850 E15.2884 F2160
G1 X158.942 Y93.850 E15.7088
G1 X158.942 Y118.850 E16.5403
G1 X146.643 Y118.850 E16.9494
G1 X146.643 Y106.150 E17.3718
G1 X133.943 Y106.150 E17.7942
G1 X133.943 Y81.150 E18.6257
G1 X146.242 Y81.150 E19.0347
G1 X146.242 Y93.790 E19.4551
G0 X146.242 Y94.590 F7200
;segType:Loop
G0 X147.342 Y94.250
G1 X158.542 Y94.250 E19.8276 F3600
G1 X158.542 Y118.450 E20.6325
G1 X147.043 Y118.450 E21.0150
G1 X147.043 Y105.750 E21.4374
G1 X134.343 Y105.750 E21.8598
G1 X134.343 Y81.550 E22.6647
G1 X145.842 Y81.550 E23.0471
G1 X145.842 Y94.250 E23.4695
G1 X147.142 Y94.250 E23.5128
;segType:Infill
G0 X148.021 Y94.610 F7200
G1 X150.374 Y96.963 E23.6455 F4500
G0 X148.920 Y100.034 F7200
G1 X140.056 Y91.171 E24.1458 F4500
G0 X136.220 Y87.334 F7200
G1 X134.703 Y85.818 E24.2314 F4500
G0 X144.372 Y81.911 F7200
G1 X145.482 Y83.020 E24.2940 F4500
G0 X140.510 Y96.151 F7200
G1 X134.703 Y90.343 E24.6218 F4500
G0 X134.703 Y94.869 F7200
G1 X137.223 Y97.389 E24.7641 F4500
G0 X134.703 Y99.394 F7200
G1 X136.359 Y101.050 E24.8575 F4500
G0 X134.703 Y103.920 F7200
G1 X136.173 Y105.390 E24.9405 F4500
G0 X139.044 Y103.735 F7200
G1 X140.698 Y105.390 E25.0339 F4500
G0 X145.224 Y105.390 F7200
G1 X142.702 Y102.868 E25.1762 F4500
G0 X143.942 Y99.582 F7200
G1 X153.210 Y108.850 E25.6994 F4500
G0 X147.403 Y107.569 F7200
G1 X149.923 Y110.088 E25.8416 F4500
G0 X147.403 Y112.094 F7200
G1 X149.059 Y113.750 E25.9351 F4500
G0 X147.403 Y116.620 F7200
G1 X148.873 Y118.089 E26.0180 F4500
G0 X151.744 Y116.435 F7200
G1 X153.398 Y118.089 E26.1114 F4500
G0 X155.403 Y115.568 F7200
G1 X157.924 Y118.089 E26.2537 F4500
G0 X158.182 Y113.822 F7200
G1 X156.642 Y112.282 E26.3407 F4500
G0 X158.182 Y109.297 F7200
G1 X152.757 Y103.871 E26.6469 F4500
G0 X155.825 Y102.414 F7200
G1 X158.182 Y104.771 E26.7800 F4500
G0 X158.182 Y100.246 F7200
G1 X156.306 Y98.369 E26.8859 F4500
G0 X158.182 Y95.720 F7200
G1 X157.072 Y94.610 E26.9486 F4500
G0 X154.427 Y96.491 F7200
G1 X152.547 Y94.610 E27.0547 F4500
;segType:HShell
G0 X149.203 Y101.449 F7200
G1 X151.350 Y103.596 E27.1557 F3600
G0 X152.134 Y103.815 F7200
G1 X148.974 Y100.654 E27.3043 F3600
G0 X148.920 Y100.034 F7200
G1 X152.757 Y103.871 E27.4848 F3600
G0 X153.293 Y103.842 F7200
G1 X148.954 Y99.503 E27.6889 F3600
G0 X149.043 Y99.026 F7200
G1 X153.775 Y103.758 E27.9115 F3600
G0 X154.193 Y103.611 F7200
G1 X149.175 Y98.593 E28.1475 F3600
G0 X149.359 Y98.211 F7200
G1 X154.582 Y103.434 E28.3932 F3600
G0 X154.945 Y103.231 F7200
G1 X149.566 Y97.853 E28.6462 F3600
G0 X149.807 Y97.527 F7200
G1 X155.261 Y102.982 E28.9028 F3600
G0 X155.560 Y102.715 F7200
G1 X150.082 Y97.236 E29.1605 F3600
G0 X150.374 Y96.963 F7200
G1 X155.825 Y102.414 E29.4169 F3600
G0 X156.057 Y102.081 F7200
G1 X150.711 Y96.735 E29.6684 F3600
G0 X151.072 Y96.530 F7200
G1 X156.270 Y101.728 E29.9129 F3600
G0 X156.432 Y101.324 F7200
G1 X151.462 Y96.354 E30.1467 F3600
G0 X151.905 Y96.231 F7200
G1 X156.561 Y100.888 E30.3657 F3600
G0 X156.650 Y100.410 F7200
G1 X152.389 Y96.149 E30.5661 F3600
G0 X152.932 Y96.127 F7200
G1 X156.673 Y99.868 E30.7421 F3600
G0 X156.596 Y99.225 F7200
G1 X153.574 Y96.203 E30.8842 F3600
G0 X154.427 Y96.491 F7200
G1 X156.306 Y98.369 E30.9726 F3600
G0 X155.949 Y110.457 F7200
G1 X155.034 Y109.543 E31.0156 F3600
G0 X153.919 Y108.993 F7200
G1 X156.495 Y111.569 E31.1368 F3600
G0 X156.642 Y112.282 F7200
G1 X153.210 Y108.850 E31.2982 F3600
G0 X152.624 Y108.829 F7200
G1 X156.660 Y112.866 E31.4880 F3600
G0 X156.606 Y113.378 F7200
G1 X152.107 Y108.878 E31.6997 F3600
G0 X151.658 Y108.995 F7200
G1 X156.505 Y113.842 E31.9277 F3600
G0 X156.343 Y114.246 F7200
G1 X151.247 Y109.150 E32.1673 F3600
G0 X150.863 Y109.332 F7200
G1 X156.155 Y114.623 E32.4162 F3600
G0 X155.939 Y114.973 F7200
G1 X150.526 Y109.560 E32.6708 F3600
G0 X150.212 Y109.812 F7200
G1 X155.679 Y115.279 E32.9280 F3600
G0 X155.403 Y115.568 F7200
G1 X149.923 Y110.088 E33.1858 F3600
G0 X149.675 Y110.406 F7200
G1 X155.089 Y115.821 E33.4405 F3600
G0 X154.746 Y116.043 F7200
G1 X149.445 Y110.742 E33.6898 F3600
G0 X149.255 Y111.118 F7200
G1 X154.381 Y116.244 E33.9309 F3600
G0 X153.964 Y116.392 F7200
G1 X149.102 Y111.531 E34.1596 F3600
G0 X148.983 Y111.977 F7200
G1 X153.510 Y116.504 E34.3726 F3600
G0 X153.011 Y116.571 F7200
G1 X148.918 Y112.478 E34.5651 F3600
G0 X148.933 Y113.059 F7200
G1 X152.442 Y116.567 E34.7301 F3600
G0 X151.744 Y116.435 F7200
G1 X149.059 Y113.750 E34.8564 F3600
G0 X149.534 Y114.791 F7200
G1 X150.719 Y115.975 E34.9121 F3600
G0 X147.043 Y112.300 F7200
G0 X147.043 Y105.750
G0 X140.493 Y105.750
G0 X140.493 Y105.750
G0 X138.010 Y103.267
G0 X138.019 Y103.276
G1 X136.834 Y102.091 E34.9679 F3600
G0 X136.359 Y101.050 F7200
G1 X139.044 Y103.735 E35.0941 F3600
G0 X139.742 Y103.868 F7200
G1 X136.233 Y100.359 E35.2592 F3600
G0 X136.218 Y99.778 F7200
G1 X140.311 Y103.871 E35.4517 F3600
G0 X140.810 Y103.804 F7200
G1 X136.283 Y99.277 E35.6647 F3600
G0 X136.402 Y98.831 F7200
G1 X141.263 Y103.692 E35.8933 F3600
G0 X141.682 Y103.544 F7200
G1 X136.555 Y98.418 E36.1345 F3600
G0 X136.745 Y98.042 F7200
G1 X142.046 Y103.343 E36.3838 F3600
G0 X142.390 Y103.121 F7200
G1 X136.975 Y97.706 E36.6385 F3600
G0 X137.223 Y97.389 F7200
G1 X142.702 Y102.868 E36.8962 F3600
G0 X142.979 Y102.579 F7200
G1 X137.512 Y97.112 E37.1534 F3600
G0 X137.826 Y96.860 F7200
G1 X143.239 Y102.273 E37.4080 F3600
G0 X143.455 Y101.923 F7200
G1 X138.163 Y96.632 E37.6569 F3600
G0 X138.547 Y96.450 F7200
G1 X143.643 Y101.546 E37.8966 F3600
G0 X143.805 Y101.142 F7200
G1 X138.958 Y96.295 E38.1246 F3600
G0 X139.407 Y96.178 F7200
G1 X143.906 Y100.678 E38.3363 F3600
G0 X143.960 Y100.166 F7200
G1 X139.924 Y96.129 E38.5261 F3600
G0 X140.510 Y96.151 F7200
G1 X143.942 Y99.582 E38.6875 F3600
G0 X143.795 Y98.869 F7200
G1 X141.219 Y96.293 E38.8087 F3600
G0 X142.333 Y96.842 F7200
G1 X143.249 Y97.758 E38.8517 F3600
G0 X136.503 Y88.749 F7200
G1 X138.650 Y90.896 E38.9527 F3600
G0 X139.434 Y91.115 F7200
G1 X136.274 Y87.954 E39.1014 F3600
G0 X136.220 Y87.334 F7200
G1 X140.056 Y91.171 E39.2818 F3600
G0 X140.593 Y91.142 F7200
G1 X136.254 Y86.803 E39.4859 F3600
G0 X136.343 Y86.326 F7200
G1 X141.075 Y91.058 E39.7086 F3600
G0 X141.493 Y90.911 F7200
G1 X136.475 Y85.893 E39.9446 F3600
G0 X136.659 Y85.511 F7200
G1 X141.882 Y90.734 E40.1903 F3600
G0 X142.245 Y90.532 F7200
G1 X136.866 Y85.152 E40.4433 F3600
G0 X137.107 Y84.827 F7200
G1 X142.561 Y90.282 E40.6998 F3600
G0 X142.860 Y90.015 F7200
G1 X137.382 Y84.537 E40.9575 F3600
G0 X137.674 Y84.263 F7200
G1 X143.125 Y89.714 E41.2139 F3600
G0 X143.357 Y89.381 F7200
G1 X138.011 Y84.035 E41.4654 F3600
G0 X138.372 Y83.830 F7200
G1 X143.570 Y89.028 E41.7099 F3600
G0 X143.732 Y88.624 F7200
G1 X138.761 Y83.654 E41.9437 F3600
G0 X139.205 Y83.531 F7200
G1 X143.861 Y88.188 E42.1627 F3600
G0 X143.950 Y87.710 F7200
G1 X139.689 Y83.449 E42.3632 F3600
G0 X140.232 Y83.427 F7200
G1 X143.973 Y87.168 E42.5391 F3600
G0 X143.896 Y86.525 F7200
G1 X140.874 Y83.503 E42.6813 F3600
G0 X141.727 Y83.791 F7200
G1 X143.606 Y85.669 E42.7696 F3600
; ------------------------------------
; Layer #11
; ------------------------------------
G92 E0 ;reset extr
G0 F3000 E-1.0000
G0 F1200 Z2.400
G0 X144.990 Y87.905 F7200
G0 X146.374 Y90.140
G0 X147.758 Y92.375
G0 X149.142 Y94.610
G0 F3000 E0.0000
;segType:Infill
G1 X143.968 Y99.785 E0.2921 F4500
G0 X142.364 Y96.863 F7200
G1 X145.482 Y93.745 E0.4681 F4500
;segType:Perimeter
G0 X145.502 Y93.850 F7200
G1 X146.302 Y93.850 E0.4947 F2160
G1 X158.942 Y93.850 E0.9151
G1 X158.942 Y118.850 E1.7466
G1 X146.643 Y118.850 E2.1556
G1 X146.643 Y106.150 E2.5780
G1 X133.943 Y106.150 E3.0004
G1 X133.943 Y81.150 E3.8319
G1 X146.242 Y81.150 E4.2410
G1 X146.242 Y93.790 E4.6614
G0 X146.242 Y94.590 F7200
;segType:Loop
G0 X147.342 Y94.250
G1 X158.542 Y94.250 E5.0339 F3600
G1 X158.542 Y118.450 E5.8388
G1 X147.043 Y118.450 E6.2213
G1 X147.043 Y105.750 E6.6437
G1 X134.343 Y105.750 E7.0661
G1 X134.343 Y81.550 E7.8709
G1 X145.842 Y81.550 E8.2534
G1 X145.842 Y94.250 E8.6758
G1 X147.142 Y94.250 E8.7190
;segType:Infill
G0 X152.097 Y96.181 F7200
G1 X153.668 Y94.610 E8.8077 F4500
G0 X158.182 Y94.622 F7200
G1 X155.536 Y97.268 E8.9570 F4500
G0 X158.182 Y99.147 F7200
G1 X156.594 Y100.735 E9.0467 F4500
G0 X158.182 Y103.673 F7200
G1 X153.020 Y108.834 E9.3380 F4500
G0 X155.938 Y110.443 F7200
G1 X158.182 Y108.198 E9.4647 F4500
G0 X158.182 Y112.723 F7200
G1 X155.949 Y114.956 E9.5908 F4500
G0 X158.182 Y117.249 F7200
G1 X157.342 Y118.089 E9.6382 F4500
G0 X155.066 Y115.839 F7200
G1 X152.816 Y118.089 E9.7652 F4500
G0 X150.531 Y115.849 F7200
G1 X148.291 Y118.089 E9.8917 F4500
G0 X147.403 Y114.452 F7200
G1 X148.928 Y112.927 E9.9777 F4500
G0 X147.403 Y109.926 F7200
G1 X153.528 Y103.801 E10.3234 F4500
G0 X150.055 Y102.749 F7200
G1 X147.403 Y105.401 E10.4731 F4500
G0 X148.980 Y99.298 F7200
G1 X142.889 Y105.390 E10.8169 F4500
G0 X139.882 Y103.871 F7200
G1 X138.363 Y105.390 E10.9026 F4500
G0 X134.703 Y104.524 F7200
G1 X136.949 Y102.278 E11.0294 F4500
G0 X134.703 Y99.999 F7200
G1 X136.914 Y97.787 E11.1542 F4500
G0 X134.703 Y95.473 F7200
G1 X139.116 Y91.060 E11.4033 F4500
G0 X134.703 Y90.948 F7200
G1 X136.617 Y89.034 E11.5114 F4500
G0 X134.703 Y86.422 F7200
G1 X139.215 Y81.911 E11.7660 F4500
G0 X141.819 Y83.832 F7200
G1 X143.740 Y81.911 E11.8745 F4500
G0 X145.482 Y84.694 F7200
G1 X143.845 Y86.332 E11.9669 F4500
G0 X145.482 Y89.220 F7200
G1 X137.876 Y96.826 E12.3962 F4500
;segType:HShell
G0 X151.274 Y96.438 F7200
G1 X149.215 Y98.498 E12.4931 F3600
G0 X148.980 Y99.298 F7200
G1 X152.097 Y96.181 E12.6397 F3600
G0 X152.723 Y96.121 F7200
G1 X148.915 Y99.929 E12.8189 F3600
G0 X148.938 Y100.471 F7200
G1 X153.255 Y96.154 E13.0219 F3600
G0 X153.731 Y96.244 F7200
G1 X149.035 Y100.940 E13.2428 F3600
G0 X149.171 Y101.370 F7200
G1 X154.168 Y96.373 E13.4778 F3600
G0 X154.557 Y96.549 F7200
G1 X149.337 Y101.770 E13.7234 F3600
G0 X149.552 Y102.120 F7200
G1 X154.912 Y96.760 E13.9755 F3600
G0 X155.247 Y96.991 F7200
G1 X149.790 Y102.448 E14.2322 F3600
G0 X150.055 Y102.749 F7200
G1 X155.536 Y97.268 E14.4900 F3600
G0 X155.806 Y97.564 F7200
G1 X150.359 Y103.010 E14.7462 F3600
G0 X150.681 Y103.254 F7200
G1 X156.046 Y97.889 E14.9985 F3600
G0 X156.247 Y98.254 F7200
G1 X151.044 Y103.457 E15.2433 F3600
G0 X151.439 Y103.627 F7200
G1 X156.425 Y98.641 E15.4778 F3600
G0 X156.558 Y99.075 F7200
G1 X151.864 Y103.768 E15.6986 F3600
G0 X152.347 Y103.851 F7200
G1 X156.639 Y99.559 E15.9005 F3600
G0 X156.663 Y100.101 F7200
G1 X152.892 Y103.871 E16.0778 F3600
G0 X153.528 Y103.801 F7200
G1 X156.594 Y100.735 E16.2220 F3600
G0 X156.339 Y101.556 F7200
G1 X154.334 Y103.561 E16.3164 F3600
G0 X155.066 Y115.839 F7200
G1 X155.949 Y114.956 E16.3579 F3600
G0 X156.509 Y113.831 F7200
G1 X153.940 Y116.400 E16.4787 F3600
G0 X153.220 Y116.554 F7200
G1 X156.649 Y113.125 E16.6400 F3600
G0 X156.674 Y112.535 F7200
G1 X152.638 Y116.571 E16.8299 F3600
G0 X152.129 Y116.514 F7200
G1 X156.610 Y112.033 E17.0406 F3600
G0 X156.498 Y111.579 F7200
G1 X151.669 Y116.408 E17.2678 F3600
G0 X151.251 Y116.261 F7200
G1 X156.351 Y111.160 E17.5077 F3600
G0 X156.162 Y110.784 F7200
G1 X150.880 Y116.066 E17.7561 F3600
G0 X150.531 Y115.849 F7200
G1 X155.938 Y110.443 E18.0104 F3600
G0 X155.695 Y110.120 F7200
G1 X150.218 Y115.597 E18.2680 F3600
G0 X149.936 Y115.313 F7200
G1 X155.406 Y109.843 E18.5253 F3600
G0 X155.097 Y109.586 F7200
G1 X149.671 Y115.012 E18.7806 F3600
G0 X149.455 Y114.662 F7200
G1 X154.760 Y109.358 E19.0301 F3600
G0 X154.382 Y109.170 F7200
G1 X149.260 Y114.291 E19.2710 F3600
G0 X149.098 Y113.888 F7200
G1 X153.978 Y109.008 E19.5005 F3600
G0 X153.529 Y108.892 F7200
G1 X148.990 Y113.430 E19.7140 F3600
G0 X148.928 Y112.927 F7200
G1 X153.020 Y108.834 E19.9065 F3600
G0 X152.444 Y108.845 F7200
G1 X148.934 Y112.355 E20.0716 F3600
G0 X149.062 Y111.661 F7200
G1 X151.753 Y108.971 E20.1982 F3600
G0 X150.748 Y109.410 F7200
G1 X149.474 Y110.683 E20.2581 F3600
G0 X147.043 Y108.209 F7200
G0 X147.043 Y105.750
G0 X144.626 Y105.750
G0 X144.626 Y105.750
G0 X142.175 Y103.257
G0 X142.184 Y103.266
G1 X143.339 Y102.111 E20.3124 F3600
G0 X143.824 Y101.060 F7200
G1 X141.154 Y103.731 E20.4380 F3600
G0 X140.453 Y103.866 F7200
G1 X143.952 Y100.367 E20.6026 F3600
G0 X143.968 Y99.785 F7200
G1 X139.882 Y103.871 E20.7948 F3600
G0 X139.382 Y103.806 F7200
G1 X143.903 Y99.284 E21.0075 F3600
G0 X143.785 Y98.837 F7200
G1 X138.928 Y103.694 E21.2359 F3600
G0 X138.509 Y103.546 F7200
G1 X143.633 Y98.423 E21.4769 F3600
G0 X143.443 Y98.047 F7200
G1 X138.144 Y103.346 E21.7261 F3600
G0 X137.800 Y103.124 F7200
G1 X143.214 Y97.710 E21.9808 F3600
G0 X142.966 Y97.392 F7200
G1 X137.487 Y102.871 E22.2385 F3600
G0 X137.210 Y102.583 F7200
G1 X142.678 Y97.115 E22.4957 F3600
G0 X142.364 Y96.863 F7200
G1 X136.949 Y102.278 E22.7504 F3600
G0 X136.734 Y101.928 F7200
G1 X142.027 Y96.635 E22.9994 F3600
G0 X141.643 Y96.453 F7200
G1 X136.544 Y101.552 E23.2392 F3600
G0 X136.382 Y101.148 F7200
G1 X141.233 Y96.297 E23.4674 F3600
G0 X140.785 Y96.180 F7200
G1 X136.280 Y100.684 E23.6793 F3600
G0 X136.225 Y100.173 F7200
G1 X140.269 Y96.130 E23.8695 F3600
G0 X139.683 Y96.150 F7200
G1 X136.242 Y99.591 E24.0313 F3600
G0 X136.387 Y98.880 F7200
G1 X138.977 Y96.290 E24.1531 F3600
G0 X137.876 Y96.826 F7200
G1 X136.914 Y97.787 E24.1983 F3600
G0 X138.473 Y83.784 F7200
G1 X136.572 Y85.685 E24.2878 F3600
G0 X136.288 Y86.534 F7200
G1 X139.322 Y83.501 E24.4305 F3600
G0 X139.962 Y83.426 F7200
G1 X136.213 Y87.175 E24.6068 F3600
G0 X136.236 Y87.718 F7200
G1 X140.504 Y83.450 E24.8075 F3600
G0 X140.987 Y83.533 F7200
G1 X136.325 Y88.194 E25.0268 F3600
G0 X136.455 Y88.630 F7200
G1 X141.429 Y83.656 E25.2608 F3600
G0 X141.819 Y83.832 F7200
G1 X136.617 Y89.034 E25.5054 F3600
G0 X136.831 Y89.386 F7200
G1 X142.179 Y84.038 E25.7570 F3600
G0 X142.516 Y84.266 F7200
G1 X137.064 Y89.718 E26.0134 F3600
G0 X137.329 Y90.019 F7200
G1 X142.808 Y84.540 E26.2711 F3600
G0 X143.082 Y84.832 F7200
G1 X137.628 Y90.285 E26.5277 F3600
G0 X137.945 Y90.534 F7200
G1 X143.322 Y85.157 E26.7806 F3600
G0 X143.529 Y85.516 F7200
G1 X138.308 Y90.737 E27.0262 F3600
G0 X138.698 Y90.913 F7200
G1 X143.712 Y85.899 E27.2620 F3600
G0 X143.845 Y86.332 F7200
G1 X139.116 Y91.060 E27.4844 F3600
G0 X139.599 Y91.143 F7200
G1 X143.932 Y86.810 E27.6882 F3600
G0 X143.965 Y87.342 F7200
G1 X140.137 Y91.171 E27.8683 F3600
G0 X140.760 Y91.113 F7200
G1 X143.909 Y87.964 E28.0164 F3600
G0 X143.677 Y88.762 F7200
G1 X141.548 Y90.891 E28.1166 F3600
;segType:Infill
G0 F3000 E27.1166
G0 X180.105 Y104.377 F7200
G0 F3000 E28.1166
G1 X190.195 Y94.287 E28.6861 F4500
;segType:Perimeter
G0 X192.045 Y94.267 F7200
G1 X192.045 Y93.467 E28.7127 F2160
G1 X192.045 Y80.827 E29.1331
G1 X204.344 Y80.827 E29.5422
G1 X204.344 Y105.827 E30.3737
G1 X191.644 Y105.827 E30.7961
G1 X191.644 Y118.526 E31.2185
G1 X179.345 Y118.526 E31.6275
G1 X179.345 Y93.527 E32.4590
G1 X191.985 Y93.527 E32.8794
G0 X192.785 Y93.527 F7200
;segType:Loop
G0 X192.445 Y92.427
G1 X192.445 Y81.227 E33.2520 F3600
G1 X203.944 Y81.227 E33.6344
G1 X203.944 Y105.427 E34.4393
G1 X191.244 Y105.427 E34.8617
G1 X191.244 Y118.126 E35.2841
G1 X179.745 Y118.126 E35.6666
G1 X179.745 Y93.927 E36.4714
G1 X192.445 Y93.927 E36.8938
G1 X192.445 Y92.627 E36.9371
;segType:Infill
G0 X192.805 Y91.677 F7200
G1 X202.895 Y81.587 E37.5066 F4500
G0 X203.584 Y85.424 F7200
G1 X180.105 Y108.903 E38.8318 F4500
G0 X180.105 Y113.428 F7200
G1 X203.584 Y89.949 E40.1571 F4500
G0 X203.584 Y94.475 F7200
G1 X192.992 Y105.066 E40.7549 F4500
G0 X197.518 Y105.066 F7200
G1 X203.584 Y99.000 E41.0973 F4500
G0 X203.584 Y103.526 F7200
G1 X202.043 Y105.066 E41.1843 F4500
G0 X201.683 Y105.427 F7200
G0 X191.244 Y105.427
G0 X191.244 Y115.866
G0 X191.244 Y115.866
G0 X190.875 Y116.235
G0 X190.884 Y116.226
G1 X189.343 Y117.766 E41.2713 F4500
G0 X190.884 Y111.700 F7200
G1 X184.818 Y117.766 E41.6137 F4500
G0 X180.292 Y117.766 F7200
G1 X190.884 Y107.175 E42.2115 F4500
G0 X180.105 Y99.852 F7200
G1 X185.669 Y94.287 E42.5256 F4500
G0 X180.105 Y95.326 F7200
G1 X181.144 Y94.287 E42.5842 F4500
G0 X181.504 Y93.927 F7200
G0 X192.445 Y93.927
G0 X192.445 Y82.986
G0 X192.445 Y82.986
G0 X192.814 Y82.617
G0 X192.805 Y82.626
G1 X193.844 Y81.587 E42.6429 F4500
G0 X198.369 Y81.587 F7200
G1 X192.805 Y87.152 E42.9569 F4500
; ------------------------------------
; Layer #12
; ------------------------------------
G92 E0 ;reset extr
;segType:Infill
G0 F3000 E-1.0000
G0 F1200 Z2.600
G0 X203.584 Y104.918 F7200
G0 F3000 E0.0000
G1 X192.805 Y94.139 E0.6084 F4500
;segType:Perimeter
G0 X192.045 Y94.267 F7200
G1 X192.045 Y93.467 E0.6350 F2160
G1 X192.045 Y80.827 E1.0554
G1 X204.344 Y80.827 E1.4645
G1 X204.344 Y105.827 E2.2960
G1 X191.644 Y105.827 E2.7184
G1 X191.644 Y118.526 E3.1408
G1 X179.345 Y118.526 E3.5498
