; GCode generated by CraftWare

G28 X0 Y0
G28 Z0


M104 S215 ;set head temp (no wait)
M190 S60 ;set bed temp (wait)
M109 S215 ;set head temp (wait)
; ------------------------------------
; Layer #0
; ------------------------------------
M106 S0 ;turn off fan
G21 ; mm
G90 ; abs
G92 E0 ;reset extr
G0 F1200 Z0.200
;segType:Skirt
G0 F3000 E-1.0000
G0 X139.211 Y119.236 F5400
G0 F3000 E0.0000
G1 X139.022 Y118.922 E0.0122 F2400
G1 X139.022 Y93.860 E0.8457
G1 X139.461 Y93.296 E0.8695
G1 X142.218 Y90.539 E0.9992
G1 X142.594 Y90.413 E1.0124
G1 X151.617 Y90.413 E1.3125
G1 X151.679 Y89.474 E1.3438
G1 X151.679 Y81.454 E1.6105
G1 X151.993 Y80.764 E1.6357
G1 X155.000 Y77.757 E1.7772
G1 X167.531 Y77.757 E2.1940
G1 X170.789 Y81.015 E2.3472
G1 X170.852 Y81.955 E2.3786
G1 X170.852 Y106.015 E3.1788
G1 X170.539 Y106.704 E3.2040
G1 X167.782 Y109.461 E3.3337
G1 X167.406 Y109.587 E3.3468
G1 X158.383 Y109.587 E3.6469
G1 X158.196 Y109.649 E3.6535
G1 X158.196 Y118.672 E3.9536
G1 X157.882 Y119.361 E3.9788
G1 X155.125 Y122.118 E4.1085
G1 X154.373 Y122.369 E4.1348
G1 X142.469 Y122.369 E4.5308
G1 X142.218 Y122.243 E4.5401
G1 X139.211 Y119.236 E4.6816
G0 X138.709 Y119.110 F5400
G1 X138.646 Y118.170 E4.7129 F2400
G1 X138.646 Y94.110 E5.5131
G1 X138.709 Y93.671 E5.5279
G1 X142.218 Y90.163 E5.6929
G1 X142.594 Y90.037 E5.7061
G1 X150.614 Y90.037 E5.9729
G1 X151.303 Y89.975 E5.9959
G1 X151.303 Y81.454 E6.2793
G1 X151.617 Y80.764 E6.3045
G1 X154.875 Y77.506 E6.4577
G1 X155.251 Y77.381 E6.4709
G1 X167.281 Y77.381 E6.8710
G1 X167.657 Y77.506 E6.8842
G1 X171.165 Y81.015 E7.0492
G1 X171.228 Y81.955 E7.0806
G1 X171.228 Y106.015 E7.8808
G1 X170.941 Y106.648 E7.9039
;segType:HShell
G0 F3000 E6.9039
G0 X144.047 Y107.858 F5400
G0 F3000 E7.9039
G1 X153.253 Y117.065 E8.3370 F2400
;segType:Perimeter
G0 X153.918 Y117.578 F5400
G1 X153.654 Y118.063 E8.3554 F1440
G1 X143.602 Y118.063 E8.6897
G1 X143.410 Y118.001 E8.6964
G1 X143.287 Y117.764 E8.7053
G1 X143.287 Y94.952 E9.4641
G1 X143.349 Y94.759 E9.4708
G1 X143.594 Y94.636 E9.4799
G1 X153.738 Y94.636 E9.8173
G1 X154.083 Y94.609 E9.8288
G1 X154.427 Y94.527 E9.8406
G1 X154.755 Y94.391 E9.8524
G1 X155.057 Y94.206 E9.8641
G1 X155.326 Y93.976 E9.8759
G1 X155.556 Y93.707 E9.8877
G1 X155.741 Y93.405 E9.8995
G1 X155.877 Y93.077 E9.9113
G1 X155.959 Y92.733 E9.9230
G1 X155.987 Y92.388 E9.9346
G1 X155.987 Y82.252 E10.2717
G1 X156.049 Y82.060 E10.2784
G1 X156.279 Y81.937 E10.2871
G1 X166.398 Y81.937 E10.6237
G1 X166.590 Y81.999 E10.6304
G1 X166.713 Y82.221 E10.6388
G1 X166.713 Y105.048 E11.3980
G1 X166.651 Y105.241 E11.4048
G1 X166.501 Y105.350 E11.4110
G1 X166.414 Y105.364 E11.4139
G1 X156.262 Y105.364 E11.7515
G1 X155.917 Y105.391 E11.7630
G1 X155.573 Y105.473 E11.7748
G1 X155.245 Y105.609 E11.7866
G1 X154.943 Y105.794 E11.7984
G1 X154.674 Y106.024 E11.8102
G1 X154.444 Y106.293 E11.8219
G1 X154.259 Y106.595 E11.8337
G1 X154.123 Y106.923 E11.8455
G1 X154.041 Y107.267 E11.8573
G1 X154.013 Y107.612 E11.8688
G1 X154.013 Y117.748 E12.2059
G1 X153.755 Y118.020 E12.2184
G0 X152.983 Y117.813 F5400
;segType:Loop
G0 X152.614 Y117.663
G1 X143.708 Y117.663 E12.5146 F2400
G1 X143.687 Y117.536 E12.5189
G1 X143.687 Y95.021 E13.2677
G1 X143.822 Y95.036 E13.2723
G1 X153.753 Y95.036 E13.6026
G1 X154.146 Y95.006 E13.6157
G1 X154.551 Y94.908 E13.6296
G1 X154.937 Y94.749 E13.6434
G1 X155.292 Y94.531 E13.6573
G1 X155.610 Y94.260 E13.6712
G1 X155.881 Y93.942 E13.6851
G1 X156.099 Y93.587 E13.6989
G1 X156.258 Y93.201 E13.7128
G1 X156.356 Y92.796 E13.7267
G1 X156.387 Y92.403 E13.7398
G1 X156.387 Y82.336 E14.0746
G1 X156.508 Y82.337 E14.0787
G1 X166.222 Y82.337 E14.4018
G1 X166.313 Y82.450 E14.4066
G1 X166.313 Y104.850 E15.1516
G1 X166.222 Y104.964 E15.1565
G1 X156.246 Y104.964 E15.4883
G1 X155.854 Y104.994 E15.5014
G1 X155.449 Y105.092 E15.5152
G1 X155.063 Y105.251 E15.5291
G1 X154.707 Y105.469 E15.5430
G1 X154.390 Y105.740 E15.5569
G1 X154.119 Y106.058 E15.5707
G1 X153.901 Y106.413 E15.5846
G1 X153.742 Y106.799 E15.5985
G1 X153.644 Y107.204 E15.6124
G1 X153.613 Y107.597 E15.6255
G1 X153.613 Y117.589 E15.9578
G1 X153.542 Y117.663 E15.9612
G1 X152.814 Y117.663 E15.9854
;segType:HShell
G0 X153.253 Y116.499 F5400
G1 X144.047 Y107.293 E16.4185 F2400
G0 X144.047 Y106.727 F5400
G1 X153.253 Y115.933 E16.8515 F2400
G0 X153.253 Y115.368 F5400
G1 X144.047 Y106.161 E17.2846 F2400
G0 X144.047 Y105.596 F5400
G1 X153.253 Y114.802 E17.7176 F2400
G0 X153.253 Y114.236 F5400
G1 X144.047 Y105.030 E18.1507 F2400
G0 X144.047 Y104.464 F5400
G1 X153.253 Y113.671 E18.5837 F2400
G0 X153.253 Y113.105 F5400
G1 X144.047 Y103.898 E19.0168 F2400
G0 X144.047 Y103.333 F5400
G1 X153.253 Y112.539 E19.4498 F2400
G0 X153.253 Y111.974 F5400
G1 X144.047 Y102.767 E19.8829 F2400
G0 X144.047 Y102.201 F5400
G1 X153.253 Y111.408 E20.3159 F2400
G0 X153.253 Y110.842 F5400
G1 X144.047 Y101.636 E20.7490 F2400
G0 X144.047 Y101.070 F5400
G1 X153.253 Y110.277 E21.1820 F2400
G0 X153.253 Y109.711 F5400
G1 X144.047 Y100.504 E21.6151 F2400
G0 X144.047 Y99.939 F5400
G1 X153.253 Y109.145 E22.0481 F2400
G0 X153.253 Y108.580 F5400
G1 X144.047 Y99.373 E22.4812 F2400
G0 X144.047 Y98.807 F5400
G1 X153.253 Y108.014 E22.9142 F2400
G0 X153.263 Y107.458 F5400
G1 X144.047 Y98.242 E23.3477 F2400
G0 X144.047 Y97.676 F5400
G1 X153.332 Y106.961 E23.7845 F2400
G0 X153.464 Y106.528 F5400
G1 X144.047 Y97.110 E24.2274 F2400
G0 X144.047 Y96.545 F5400
G1 X153.645 Y106.143 E24.6789 F2400
G0 X153.867 Y105.799 F5400
G1 X144.047 Y95.979 E25.1408 F2400
G0 X144.047 Y95.413 F5400
G1 X154.127 Y105.494 E25.6149 F2400
G0 X154.431 Y105.232 F5400
G1 X144.596 Y95.397 E26.0776 F2400
G0 X145.162 Y95.397 F5400
G1 X154.772 Y105.007 E26.5296 F2400
G0 X155.154 Y104.824 F5400
G1 X145.727 Y95.397 E26.9730 F2400
G0 X146.293 Y95.397 F5400
G1 X155.585 Y104.689 E27.4101 F2400
G0 X156.078 Y104.616 F5400
G1 X146.859 Y95.397 E27.8437 F2400
G0 X147.424 Y95.397 F5400
G1 X156.631 Y104.603 E28.2768 F2400
G0 X157.197 Y104.603 F5400
G1 X147.990 Y95.397 E28.7098 F2400
G0 X148.556 Y95.397 F5400
G1 X157.762 Y104.603 E29.1429 F2400
G0 X158.328 Y104.603 F5400
G1 X149.121 Y95.397 E29.5760 F2400
G0 X149.687 Y95.397 F5400
G1 X158.894 Y104.603 E30.0090 F2400
G0 X159.460 Y104.603 F5400
G1 X150.253 Y95.397 E30.4421 F2400
G0 X150.818 Y95.397 F5400
G1 X160.025 Y104.603 E30.8751 F2400
G0 X160.591 Y104.603 F5400
G1 X151.384 Y95.397 E31.3082 F2400
G0 X151.950 Y95.397 F5400
G1 X161.157 Y104.603 E31.7413 F2400
G0 X161.722 Y104.603 F5400
G1 X152.515 Y95.397 E32.1743 F2400
G0 X153.081 Y95.397 F5400
G1 X162.288 Y104.603 E32.6074 F2400
G0 X162.854 Y104.603 F5400
G1 X153.647 Y95.397 E33.0404 F2400
G0 X154.180 Y95.364 F5400
G1 X163.419 Y104.603 E33.4750 F2400
G0 X163.985 Y104.603 F5400
G1 X154.639 Y95.258 E33.9146 F2400
G0 X155.042 Y95.095 F5400
G1 X164.551 Y104.603 E34.3619 F2400
G0 X165.116 Y104.603 F5400
G1 X155.400 Y94.887 E34.8189 F2400
G0 X155.719 Y94.640 F5400
G1 X165.682 Y104.603 E35.2875 F2400
G0 X165.953 Y104.309 F5400
G1 X156.001 Y94.357 E35.7557 F2400
G0 X156.246 Y94.036 F5400
G1 X165.953 Y103.743 E36.2123 F2400
G0 X165.953 Y103.178 F5400
G1 X156.452 Y93.676 E36.6592 F2400
G0 X156.612 Y93.271 F5400
G1 X165.953 Y102.612 E37.0986 F2400
G0 X165.953 Y102.046 F5400
G1 X156.716 Y92.809 E37.5331 F2400
G0 X156.747 Y92.274 F5400
G1 X165.953 Y101.480 E37.9661 F2400
G0 X165.953 Y100.915 F5400
G1 X156.747 Y91.708 E38.3992 F2400
G0 X156.747 Y91.143 F5400
G1 X165.953 Y100.349 E38.8322 F2400
G0 X165.953 Y99.783 F5400
G1 X156.747 Y90.577 E39.2652 F2400
G0 X156.747 Y90.011 F5400
G1 X165.953 Y99.218 E39.6983 F2400
G0 X165.953 Y98.652 F5400
G1 X156.747 Y89.445 E40.1313 F2400
G0 X156.747 Y88.880 F5400
G1 X165.953 Y98.086 E40.5644 F2400
G0 X165.953 Y97.521 F5400
G1 X156.747 Y88.314 E40.9974 F2400
G0 X156.747 Y87.748 F5400
G1 X165.953 Y96.955 E41.4305 F2400
G0 X165.953 Y96.389 F5400
G1 X156.747 Y87.183 E41.8635 F2400
G0 X156.747 Y86.617 F5400
G1 X165.953 Y95.824 E42.2966 F2400
G0 X165.953 Y95.258 F5400
G1 X156.747 Y86.051 E42.7296 F2400
G0 X156.747 Y85.486 F5400
G1 X165.953 Y94.692 E43.1627 F2400
G0 X165.953 Y94.127 F5400
G1 X156.747 Y84.920 E43.5957 F2400
G0 X156.747 Y84.354 F5400
G1 X165.953 Y93.561 E44.0288 F2400
G0 X165.953 Y92.995 F5400
G1 X156.747 Y83.789 E44.4618 F2400
G0 X156.747 Y83.223 F5400
G1 X165.953 Y92.429 E44.8949 F2400
G0 X165.953 Y91.864 F5400
G1 X156.786 Y82.697 E45.3261 F2400
G0 X157.352 Y82.697 F5400
G1 X165.953 Y91.298 E45.7306 F2400
G0 X165.953 Y90.732 F5400
G1 X157.918 Y82.697 E46.1086 F2400
G0 X158.483 Y82.697 F5400
G1 X165.953 Y90.167 E46.4600 F2400
G0 X165.953 Y89.601 F5400
G1 X159.049 Y82.697 E46.7847 F2400
G0 X159.615 Y82.697 F5400
G1 X165.953 Y89.035 E47.0829 F2400
G0 X165.953 Y88.470 F5400
G1 X160.180 Y82.697 E47.3544 F2400
G0 X160.746 Y82.697 F5400
G1 X165.953 Y87.904 E47.5994 F2400
G0 X165.953 Y87.338 F5400
G1 X161.312 Y82.697 E47.8177 F2400
G0 X161.877 Y82.697 F5400
G1 X165.953 Y86.773 E48.0094 F2400
G0 X165.953 Y86.207 F5400
G1 X162.443 Y82.697 E48.1745 F2400
G0 X163.009 Y82.697 F5400
G1 X165.953 Y85.641 E48.3130 F2400
G0 X165.953 Y85.076 F5400
G1 X163.574 Y82.697 E48.4249 F2400
G0 X164.140 Y82.697 F5400
G1 X165.953 Y84.510 E48.5102 F2400
G0 X165.953 Y83.944 F5400
G1 X164.706 Y82.697 E48.5689 F2400
G0 X165.271 Y82.697 F5400
G1 X165.953 Y83.379 E48.6010 F2400
G0 X144.047 Y108.424 F5400
G1 X152.926 Y117.303 E49.0186 F2400
G0 X152.360 Y117.303 F5400
G1 X144.047 Y108.990 E49.4097 F2400
G0 X144.047 Y109.555 F5400
G1 X151.795 Y117.303 E49.7741 F2400
G0 X151.229 Y117.303 F5400
G1 X144.047 Y110.121 E50.1119 F2400
G0 X144.047 Y110.687 F5400
G1 X150.663 Y117.303 E50.4232 F2400
G0 X150.098 Y117.303 F5400
G1 X144.047 Y111.252 E50.7078 F2400
G0 X144.047 Y111.818 F5400
G1 X149.532 Y117.303 E50.9658 F2400
G0 X148.966 Y117.303 F5400
G1 X144.047 Y112.384 E51.1972 F2400
G0 X144.047 Y112.949 F5400
G1 X148.401 Y117.303 E51.4020 F2400
G0 X147.835 Y117.303 F5400
G1 X144.047 Y113.515 E51.5802 F2400
G0 X144.047 Y114.081 F5400
G1 X147.269 Y117.303 E51.7317 F2400
G0 X146.704 Y117.303 F5400
G1 X144.047 Y114.647 E51.8567 F2400
G0 X144.047 Y115.212 F5400
G1 X146.138 Y117.303 E51.9550 F2400
G0 X145.572 Y117.303 F5400
G1 X144.047 Y115.778 E52.0268 F2400
G0 X144.047 Y116.344 F5400
G1 X145.007 Y117.303 E52.0719 F2400
G0 X144.441 Y117.303 F5400
G1 X144.047 Y116.909 E52.0905 F2400
; ------------------------------------
; Layer #1
; ------------------------------------
M106 S0 ;turn off fan
G92 E0 ;reset extr
;segType:HShell
G0 F3000 E-1.0000
G0 F1200 Z0.400
G0 X150.736 Y117.633 F7200
G0 F3000 E0.0000
G1 X153.583 Y114.786 E0.1339 F3600
G0 X153.583 Y115.351 F7200
G1 X151.301 Y117.633 E0.2413 F3600
G0 X151.867 Y117.633 F7200
G1 X153.583 Y115.917 E0.3220 F3600
G0 X153.583 Y116.483 F7200
G1 X152.433 Y117.633 E0.3761 F3600
G0 X152.998 Y117.633 F7200
G1 X153.583 Y117.048 E0.4036 F3600
;segType:Perimeter
G0 X154.129 Y118.111 F7200
G1 X153.777 Y118.381 E0.4184 F2160
G1 X153.651 Y118.393 E0.4226
G1 X143.594 Y118.393 E0.7571
G1 X143.294 Y118.321 E0.7673
G1 X143.079 Y118.137 E0.7768
G1 X142.964 Y117.860 E0.7867
G1 X142.957 Y117.772 E0.7897
G1 X142.957 Y94.944 E1.5490
G1 X143.029 Y94.644 E1.5592
G1 X143.213 Y94.428 E1.5686
G1 X143.392 Y94.354 E1.5751
G1 X143.594 Y94.307 E1.5820
G1 X153.738 Y94.307 E1.9194
G1 X154.031 Y94.284 E1.9292
G1 X154.326 Y94.213 E1.9392
G1 X154.605 Y94.097 E1.9493
G1 X154.863 Y93.939 E1.9594
G1 X155.093 Y93.743 E1.9694
G1 X155.289 Y93.513 E1.9795
G1 X155.447 Y93.255 E1.9895
G1 X155.563 Y92.976 E1.9996
G1 X155.633 Y92.682 E2.0096
G1 X155.657 Y92.388 E2.0194
G1 X155.657 Y82.244 E2.3568
G1 X155.729 Y81.944 E2.3671
G1 X155.913 Y81.728 E2.3765
G1 X156.074 Y81.662 E2.3823
G1 X156.279 Y81.607 E2.3894
G1 X166.406 Y81.607 E2.7262
G1 X166.706 Y81.679 E2.7365
G1 X166.921 Y81.863 E2.7459
G1 X167.036 Y82.140 E2.7559
G1 X167.043 Y82.228 E2.7588
G1 X167.043 Y105.056 E3.5181
G1 X166.971 Y105.356 E3.5283
G1 X166.787 Y105.572 E3.5378
G1 X166.519 Y105.683 E3.5474
G1 X166.336 Y105.693 E3.5535
G1 X156.262 Y105.693 E3.8886
G1 X155.969 Y105.716 E3.8984
G1 X155.674 Y105.787 E3.9084
G1 X155.395 Y105.903 E3.9185
G1 X155.137 Y106.061 E3.9285
G1 X154.907 Y106.257 E3.9386
G1 X154.711 Y106.487 E3.9487
G1 X154.553 Y106.745 E3.9587
G1 X154.437 Y107.024 E3.9688
G1 X154.367 Y107.318 E3.9788
G1 X154.343 Y107.612 E3.9886
G1 X154.343 Y117.756 E4.3260
G1 X154.271 Y118.056 E4.3363
G1 X154.087 Y118.272 E4.3457
G1 X153.892 Y118.352 E4.3527
G0 X153.103 Y118.221 F7200
;segType:Loop
G0 X152.737 Y117.993
G1 X143.641 Y117.993 E4.6553 F3600
G1 X143.357 Y117.765 E4.6674
G1 X143.357 Y117.756 E4.6677
G1 X143.357 Y94.991 E5.4249
G1 X143.479 Y94.763 E5.4335
G1 X143.656 Y94.707 E5.4396
G1 X153.753 Y94.707 E5.7755
G1 X154.094 Y94.680 E5.7869
G1 X154.450 Y94.594 E5.7990
G1 X154.787 Y94.455 E5.8112
G1 X155.099 Y94.264 E5.8233
G1 X155.376 Y94.027 E5.8355
G1 X155.614 Y93.749 E5.8476
G1 X155.805 Y93.437 E5.8598
G1 X155.945 Y93.100 E5.8719
G1 X156.030 Y92.744 E5.8841
G1 X156.057 Y92.404 E5.8954
G1 X156.057 Y82.291 E6.2318
G1 X156.165 Y82.066 E6.2401
G1 X156.344 Y82.007 E6.2464
G1 X166.359 Y82.007 E6.5795
G1 X166.643 Y82.244 E6.5918
G1 X166.643 Y105.009 E7.3490
G1 X166.605 Y105.169 E7.3544
G1 X166.222 Y105.293 E7.3678
G1 X156.247 Y105.293 E7.6996
G1 X155.906 Y105.320 E7.7110
G1 X155.550 Y105.406 E7.7231
G1 X155.213 Y105.545 E7.7353
G1 X154.901 Y105.736 E7.7474
G1 X154.624 Y105.973 E7.7596
G1 X154.386 Y106.251 E7.7717
G1 X154.195 Y106.563 E7.7839
G1 X154.055 Y106.900 E7.7960
G1 X153.970 Y107.256 E7.8082
G1 X153.943 Y107.596 E7.8196
G1 X153.943 Y117.709 E8.1559
G1 X153.905 Y117.869 E8.1614
G1 X153.536 Y117.993 E8.1743
G1 X152.937 Y117.993 E8.1942
;segType:HShell
G0 X150.170 Y117.633 F7200
G1 X153.583 Y114.220 E8.3548 F3600
G0 X153.583 Y113.654 F7200
G1 X149.604 Y117.633 E8.5419 F3600
G0 X149.039 Y117.633 F7200
G1 X153.583 Y113.089 E8.7557 F3600
G0 X153.583 Y112.523 F7200
G1 X148.473 Y117.633 E8.9961 F3600
G0 X147.907 Y117.633 F7200
G1 X153.583 Y111.957 E9.2631 F3600
G0 X153.583 Y111.392 F7200
G1 X147.342 Y117.633 E9.5567 F3600
G0 X146.776 Y117.633 F7200
G1 X153.583 Y110.826 E9.8768 F3600
G0 X153.583 Y110.260 F7200
G1 X146.210 Y117.633 E10.2237 F3600
G0 X145.645 Y117.633 F7200
G1 X153.583 Y109.694 E10.5971 F3600
G0 X153.583 Y109.129 F7200
G1 X145.079 Y117.633 E10.9971 F3600
G0 X144.513 Y117.633 F7200
G1 X153.583 Y108.563 E11.4237 F3600
G0 X153.583 Y107.997 F7200
G1 X143.947 Y117.633 E11.8770 F3600
G0 X143.717 Y117.298 F7200
G1 X153.596 Y107.419 E12.3416 F3600
G0 X153.748 Y106.701 F7200
G1 X143.717 Y116.732 E12.8135 F3600
G0 X143.717 Y116.167 F7200
G1 X166.283 Y93.600 E13.8749 F3600
G0 X166.283 Y93.035 F7200
G1 X143.717 Y115.601 E14.9364 F3600
G0 X143.717 Y115.035 F7200
G1 X166.283 Y92.469 E15.9978 F3600
G0 X166.283 Y91.903 F7200
G1 X143.717 Y114.470 E17.0593 F3600
G0 X143.717 Y113.904 F7200
G1 X166.283 Y91.338 E18.1207 F3600
G0 X166.283 Y90.772 F7200
G1 X143.717 Y113.338 E19.1822 F3600
G0 X143.717 Y112.773 F7200
G1 X166.283 Y90.206 E20.2436 F3600
G0 X166.283 Y89.641 F7200
G1 X143.717 Y112.207 E21.3051 F3600
G0 X143.717 Y111.641 F7200
G1 X166.283 Y89.075 E22.3665 F3600
G0 X166.283 Y88.509 F7200
G1 X143.717 Y111.076 E23.4280 F3600
G0 X143.717 Y110.510 F7200
G1 X166.283 Y87.944 E24.4894 F3600
G0 X166.283 Y87.378 F7200
G1 X143.717 Y109.944 E25.5509 F3600
G0 X143.717 Y109.379 F7200
G1 X166.283 Y86.812 E26.6123 F3600
G0 X166.283 Y86.247 F7200
G1 X143.717 Y108.813 E27.6738 F3600
G0 X143.717 Y108.247 F7200
G1 X166.283 Y85.681 E28.7352 F3600
G0 X166.283 Y85.115 F7200
G1 X143.717 Y107.681 E29.7967 F3600
G0 X143.717 Y107.116 F7200
G1 X166.283 Y84.550 E30.8581 F3600
G0 X166.283 Y83.984 F7200
G1 X143.717 Y106.550 E31.9196 F3600
G0 X143.717 Y105.984 F7200
G1 X154.906 Y94.795 E32.4459 F3600
G0 X154.094 Y95.041 F7200
G1 X143.717 Y105.419 E32.9340 F3600
G0 X143.717 Y104.853 F7200
G1 X153.503 Y95.067 E33.3943 F3600
G0 X152.938 Y95.067 F7200
G1 X143.717 Y104.287 E33.8280 F3600
G0 X143.717 Y103.722 F7200
G1 X152.372 Y95.067 E34.2351 F3600
G0 X151.806 Y95.067 F7200
G1 X143.717 Y103.156 E34.6156 F3600
G0 X143.717 Y102.590 F7200
G1 X151.241 Y95.067 E34.9695 F3600
G0 X150.675 Y95.067 F7200
G1 X143.717 Y102.025 E35.2968 F3600
G0 X143.717 Y101.459 F7200
G1 X150.109 Y95.067 E35.5975 F3600
G0 X149.543 Y95.067 F7200
G1 X143.717 Y100.893 E35.8715 F3600
G0 X143.717 Y100.328 F7200
G1 X148.978 Y95.067 E36.1190 F3600
G0 X148.412 Y95.067 F7200
G1 X143.717 Y99.762 E36.3398 F3600
G0 X143.717 Y99.196 F7200
G1 X147.846 Y95.067 E36.5341 F3600
G0 X147.281 Y95.067 F7200
G1 X143.717 Y98.631 E36.7017 F3600
G0 X143.717 Y98.065 F7200
G1 X146.715 Y95.067 E36.8427 F3600
G0 X146.149 Y95.067 F7200
G1 X143.717 Y97.499 E36.9572 F3600
G0 X143.717 Y96.933 F7200
G1 X145.584 Y95.067 E37.0450 F3600
G0 X145.018 Y95.067 F7200
G1 X143.717 Y96.368 E37.1062 F3600
G0 X143.717 Y95.802 F7200
G1 X144.452 Y95.067 E37.1408 F3600
G0 X147.240 Y94.707 F7200
G0 X153.753 Y94.707
G0 X154.094 Y94.680
G0 X154.450 Y94.594
G0 X154.787 Y94.455
G0 X155.099 Y94.264
G0 X155.376 Y94.027
G0 X155.614 Y93.749
G0 X155.696 Y93.614
G0 X155.696 Y93.614
G0 X156.157 Y93.555
G0 X156.145 Y93.556
G1 X166.283 Y83.418 E37.6176 F3600
G0 X166.283 Y82.852 F7200
G1 X156.391 Y92.745 E38.0829 F3600
G0 X156.417 Y92.153 F7200
G1 X166.203 Y82.367 E38.5432 F3600
G0 X165.637 Y82.367 F7200
G1 X156.417 Y91.587 E38.9770 F3600
G0 X156.417 Y91.022 F7200
G1 X165.072 Y82.367 E39.3841 F3600
G0 X164.506 Y82.367 F7200
G1 X156.417 Y90.456 E39.7646 F3600
G0 X156.417 Y89.890 F7200
G1 X163.940 Y82.367 E40.1184 F3600
G0 X163.375 Y82.367 F7200
G1 X156.417 Y89.325 E40.4457 F3600
G0 X156.417 Y88.759 F7200
G1 X162.809 Y82.367 E40.7464 F3600
G0 X162.243 Y82.367 F7200
G1 X156.417 Y88.193 E41.0205 F3600
G0 X156.417 Y87.628 F7200
G1 X161.678 Y82.367 E41.2679 F3600
G0 X161.112 Y82.367 F7200
G1 X156.417 Y87.062 E41.4888 F3600
G0 X156.417 Y86.496 F7200
G1 X160.546 Y82.367 E41.6830 F3600
G0 X159.981 Y82.367 F7200
G1 X156.417 Y85.931 E41.8506 F3600
G0 X156.417 Y85.365 F7200
G1 X159.415 Y82.367 E41.9917 F3600
G0 X158.849 Y82.367 F7200
G1 X156.417 Y84.799 E42.1061 F3600
G0 X156.417 Y84.234 F7200
G1 X158.284 Y82.367 E42.1939 F3600
G0 X157.718 Y82.367 F7200
G1 X156.417 Y83.668 E42.2551 F3600
G0 X156.417 Y83.102 F7200
G1 X157.152 Y82.367 E42.2897 F3600
G0 X166.283 Y94.166 F7200
G1 X155.351 Y105.098 E42.8039 F3600
G0 X156.069 Y104.946 F7200
G1 X166.283 Y94.732 E43.2843 F3600
G0 X166.283 Y95.298 F7200
G1 X156.647 Y104.933 E43.7376 F3600
G0 X157.213 Y104.933 F7200
G1 X166.283 Y95.863 E44.1642 F3600
G0 X166.283 Y96.429 F7200
G1 X157.779 Y104.933 E44.5642 F3600
G0 X158.344 Y104.933 F7200
G1 X166.283 Y96.995 E44.9376 F3600
G0 X166.283 Y97.560 F7200
G1 X158.910 Y104.933 E45.2844 F3600
G0 X159.476 Y104.933 F7200
G1 X166.283 Y98.126 E45.6046 F3600
G0 X166.283 Y98.692 F7200
G1 X160.041 Y104.933 E45.8982 F3600
G0 X160.607 Y104.933 F7200
G1 X166.283 Y99.257 E46.1652 F3600
G0 X166.283 Y99.823 F7200
G1 X161.173 Y104.933 E46.4056 F3600
G0 X161.739 Y104.933 F7200
G1 X166.283 Y100.389 E46.6194 F3600
G0 X166.283 Y100.954 F7200
G1 X162.304 Y104.933 E46.8065 F3600
G0 X162.870 Y104.933 F7200
G1 X166.283 Y101.520 E46.9671 F3600
G0 X166.283 Y102.086 F7200
G1 X163.436 Y104.933 E47.1010 F3600
G0 X164.001 Y104.933 F7200
G1 X166.283 Y102.651 E47.2083 F3600
G0 X166.283 Y103.217 F7200
G1 X164.567 Y104.933 E47.2891 F3600
G0 X165.133 Y104.933 F7200
G1 X166.283 Y103.783 E47.3432 F3600
G0 X166.283 Y104.349 F7200
G1 X165.698 Y104.933 E47.3707 F3600
; ------------------------------------
; Layer #2
; ------------------------------------
M106 S0 ;turn off fan
G92 E0 ;reset extr
;segType:HShell
G0 F3000 E-1.0000
G0 F1200 Z0.600
G0 X143.523 Y107.335 F7200
G0 F3000 E0.0000
G1 X153.777 Y117.588 E0.4823 F3600
;segType:Perimeter
G0 X154.340 Y118.175 F7200
G1 X153.919 Y118.555 E0.5011 F2160
G1 X153.714 Y118.587 E0.5080
G1 X143.586 Y118.587 E0.8449
G1 X143.321 Y118.545 E0.8538
G1 X143.097 Y118.431 E0.8622
G1 X142.919 Y118.253 E0.8706
G1 X142.805 Y118.029 E0.8789
G1 X142.763 Y117.764 E0.8878
G1 X142.763 Y94.936 E1.6471
G1 X142.805 Y94.671 E1.6560
G1 X142.919 Y94.447 E1.6644
G1 X143.097 Y94.269 E1.6728
G1 X143.321 Y94.155 E1.6811
G1 X143.586 Y94.113 E1.6900
G1 X153.738 Y94.113 E2.0277
G1 X154.001 Y94.092 E2.0365
G1 X154.266 Y94.029 E2.0455
G1 X154.517 Y93.925 E2.0546
G1 X154.749 Y93.782 E2.0636
G1 X154.956 Y93.606 E2.0727
G1 X155.132 Y93.399 E2.0817
G1 X155.275 Y93.167 E2.0908
G1 X155.379 Y92.916 E2.0998
G1 X155.442 Y92.651 E2.1089
G1 X155.463 Y92.388 E2.1176
G1 X155.463 Y82.236 E2.4553
G1 X155.505 Y81.971 E2.4642
G1 X155.619 Y81.747 E2.4726
G1 X155.797 Y81.569 E2.4810
G1 X156.021 Y81.455 E2.4893
G1 X156.286 Y81.413 E2.4982
G1 X166.414 Y81.413 E2.8351
G1 X166.679 Y81.455 E2.8440
G1 X166.903 Y81.569 E2.8524
G1 X167.081 Y81.747 E2.8607
G1 X167.195 Y81.971 E2.8691
G1 X167.237 Y82.236 E2.8780
G1 X167.237 Y105.064 E3.6373
G1 X167.195 Y105.329 E3.6462
G1 X167.081 Y105.553 E3.6546
G1 X166.903 Y105.731 E3.6629
G1 X166.679 Y105.845 E3.6713
G1 X166.414 Y105.887 E3.6802
G1 X156.262 Y105.887 E4.0179
G1 X155.999 Y105.908 E4.0267
G1 X155.734 Y105.971 E4.0357
G1 X155.483 Y106.075 E4.0448
G1 X155.251 Y106.218 E4.0538
G1 X155.044 Y106.394 E4.0629
G1 X154.868 Y106.601 E4.0719
G1 X154.725 Y106.833 E4.0810
G1 X154.621 Y107.084 E4.0900
G1 X154.558 Y107.349 E4.0990
G1 X154.537 Y107.612 E4.1078
G1 X154.537 Y117.764 E4.4455
G1 X154.495 Y118.029 E4.4544
G1 X154.381 Y118.253 E4.4628
G1 X154.203 Y118.431 E4.4711
G1 X154.032 Y118.518 E4.4775
G0 X153.236 Y118.434 F7200
;segType:Loop
G0 X152.882 Y118.187
G1 X143.617 Y118.187 E4.7857 F3600
G1 X143.447 Y118.160 E4.7914
G1 X143.335 Y118.103 E4.7956
G1 X143.247 Y118.015 E4.7997
G1 X143.190 Y117.903 E4.8039
G1 X143.163 Y117.733 E4.8096
G1 X143.163 Y94.967 E5.5668
G1 X143.242 Y94.690 E5.5764
G1 X143.335 Y94.597 E5.5808
G1 X143.447 Y94.540 E5.5849
G1 X143.617 Y94.513 E5.5907
G1 X153.754 Y94.513 E5.9278
G1 X154.064 Y94.489 E5.9382
G1 X154.390 Y94.410 E5.9493
G1 X154.699 Y94.282 E5.9605
G1 X154.985 Y94.107 E5.9716
G1 X155.240 Y93.890 E5.9827
G1 X155.457 Y93.635 E5.9939
G1 X155.632 Y93.349 E6.0050
G1 X155.761 Y93.040 E6.0162
G1 X155.839 Y92.714 E6.0273
G1 X155.863 Y92.403 E6.0377
G1 X155.863 Y82.267 E6.3748
G1 X155.930 Y82.002 E6.3839
G1 X156.035 Y81.897 E6.3889
G1 X156.147 Y81.840 E6.3930
G1 X156.317 Y81.813 E6.3988
G1 X166.383 Y81.813 E6.7335
G1 X166.553 Y81.840 E6.7393
G1 X166.665 Y81.897 E6.7434
G1 X166.753 Y81.985 E6.7476
G1 X166.810 Y82.097 E6.7518
G1 X166.837 Y82.267 E6.7575
G1 X166.837 Y105.033 E7.5147
G1 X166.775 Y105.293 E7.5236
G1 X166.665 Y105.403 E7.5288
G1 X166.553 Y105.460 E7.5329
G1 X166.383 Y105.487 E7.5387
G1 X156.246 Y105.487 E7.8758
G1 X155.936 Y105.511 E7.8862
G1 X155.610 Y105.590 E7.8973
G1 X155.301 Y105.718 E7.9085
G1 X155.015 Y105.893 E7.9196
G1 X154.760 Y106.110 E7.9307
G1 X154.543 Y106.365 E7.9419
G1 X154.368 Y106.651 E7.9530
G1 X154.239 Y106.960 E7.9642
G1 X154.161 Y107.286 E7.9753
G1 X154.137 Y107.597 E7.9857
G1 X154.137 Y117.733 E8.3228
G1 X154.110 Y117.903 E8.3285
G1 X154.053 Y118.015 E8.3327
G1 X153.965 Y118.103 E8.3369
G1 X153.853 Y118.160 E8.3410
G1 X153.683 Y118.187 E8.3468
G1 X153.082 Y118.187 E8.3668
;segType:HShell
G0 X153.777 Y117.023 F7200
G1 X143.523 Y106.769 E8.8490 F3600
G0 X143.523 Y106.203 F7200
G1 X153.777 Y116.457 E9.3313 F3600
G0 X153.777 Y115.891 F7200
G1 X143.523 Y105.638 E9.8136 F3600
G0 X143.523 Y105.072 F7200
G1 X153.777 Y115.326 E10.2959 F3600
G0 X153.777 Y114.760 F7200
G1 X143.523 Y104.506 E10.7782 F3600
G0 X143.523 Y103.941 F7200
G1 X153.777 Y114.194 E11.2605 F3600
G0 X153.777 Y113.629 F7200
G1 X143.523 Y103.375 E11.7428 F3600
G0 X143.523 Y102.809 F7200
G1 X153.777 Y113.063 E12.2251 F3600
G0 X153.777 Y112.497 F7200
G1 X143.523 Y102.244 E12.7074 F3600
G0 X143.523 Y101.678 F7200
G1 X153.777 Y111.931 E13.1897 F3600
G0 X153.777 Y111.366 F7200
G1 X143.523 Y101.112 E13.6720 F3600
G0 X143.523 Y100.547 F7200
G1 X153.777 Y110.800 E14.1543 F3600
G0 X153.777 Y110.234 F7200
G1 X143.523 Y99.981 E14.6366 F3600
G0 X143.523 Y99.415 F7200
G1 X153.777 Y109.669 E15.1189 F3600
G0 X153.777 Y109.103 F7200
G1 X143.523 Y98.849 E15.6012 F3600
G0 X143.523 Y98.284 F7200
G1 X153.777 Y108.537 E16.0835 F3600
G0 X153.777 Y107.972 F7200
G1 X143.523 Y97.718 E16.5658 F3600
G0 X143.523 Y97.152 F7200
G1 X153.790 Y107.419 E17.0487 F3600
G0 X153.875 Y106.938 F7200
G1 X143.523 Y96.587 E17.5356 F3600
G0 X143.523 Y96.021 F7200
G1 X154.029 Y106.527 E18.0298 F3600
G0 X154.239 Y106.171 F7200
G1 X143.523 Y95.455 E18.5338 F3600
G0 X143.552 Y94.918 F7200
G1 X154.497 Y105.864 E19.0487 F3600
G0 X154.801 Y105.602 F7200
G1 X144.072 Y94.873 E19.5533 F3600
G0 X144.638 Y94.873 F7200
G1 X155.154 Y105.389 E20.0480 F3600
G0 X155.562 Y105.231 F7200
G1 X145.204 Y94.873 E20.5352 F3600
G0 X145.769 Y94.873 F7200
G1 X156.038 Y105.142 E21.0182 F3600
G0 X156.589 Y105.127 F7200
G1 X146.335 Y94.873 E21.5005 F3600
G0 X146.901 Y94.873 F7200
G1 X157.155 Y105.127 E21.9828 F3600
G0 X157.720 Y105.127 F7200
G1 X147.466 Y94.873 E22.4651 F3600
G0 X148.032 Y94.873 F7200
G1 X158.286 Y105.127 E22.9474 F3600
G0 X158.852 Y105.127 F7200
G1 X148.598 Y94.873 E23.4297 F3600
G0 X149.164 Y94.873 F7200
G1 X159.417 Y105.127 E23.9120 F3600
G0 X159.983 Y105.127 F7200
G1 X149.729 Y94.873 E24.3944 F3600
G0 X150.295 Y94.873 F7200
G1 X160.549 Y105.127 E24.8767 F3600
G0 X161.114 Y105.127 F7200
G1 X150.861 Y94.873 E25.3590 F3600
G0 X151.426 Y94.873 F7200
G1 X161.680 Y105.127 E25.8413 F3600
G0 X162.246 Y105.127 F7200
G1 X151.992 Y94.873 E26.3236 F3600
G0 X152.558 Y94.873 F7200
G1 X162.811 Y105.127 E26.8059 F3600
G0 X163.377 Y105.127 F7200
G1 X153.123 Y94.873 E27.2882 F3600
G0 X153.689 Y94.873 F7200
G1 X163.943 Y105.127 E27.7705 F3600
G0 X164.509 Y105.127 F7200
G1 X154.206 Y94.825 E28.2551 F3600
G0 X154.643 Y94.695 F7200
G1 X165.074 Y105.127 E28.7458 F3600
G0 X165.640 Y105.127 F7200
G1 X155.021 Y94.508 E29.2453 F3600
G0 X155.349 Y94.270 F7200
G1 X166.206 Y105.127 E29.7559 F3600
G0 X166.477 Y104.832 F7200
G1 X155.631 Y93.986 E30.2661 F3600
G0 X155.866 Y93.656 F7200
G1 X166.477 Y104.267 E30.7652 F3600
G0 X166.477 Y103.701 F7200
G1 X156.052 Y93.276 E31.2555 F3600
G0 X156.179 Y92.838 F7200
G1 X166.477 Y103.135 E31.7399 F3600
G0 X166.477 Y102.570 F7200
G1 X156.223 Y92.316 E32.2222 F3600
G0 X156.223 Y91.750 F7200
G1 X166.477 Y102.004 E32.7045 F3600
G0 X166.477 Y101.438 F7200
G1 X156.223 Y91.185 E33.1868 F3600
G0 X156.223 Y90.619 F7200
G1 X166.477 Y100.873 E33.6691 F3600
G0 X166.477 Y100.307 F7200
G1 X156.223 Y90.053 E34.1514 F3600
G0 X156.223 Y89.488 F7200
G1 X166.477 Y99.741 E34.6337 F3600
G0 X166.477 Y99.176 F7200
G1 X156.223 Y88.922 E35.1160 F3600
G0 X156.223 Y88.356 F7200
G1 X166.477 Y98.610 E35.5983 F3600
G0 X166.477 Y98.044 F7200
G1 X156.223 Y87.791 E36.0806 F3600
G0 X156.223 Y87.225 F7200
G1 X166.477 Y97.478 E36.5629 F3600
G0 X166.477 Y96.913 F7200
G1 X156.223 Y86.659 E37.0452 F3600
G0 X156.223 Y86.094 F7200
G1 X166.477 Y96.347 E37.5275 F3600
G0 X166.477 Y95.781 F7200
G1 X156.223 Y85.528 E38.0097 F3600
G0 X156.223 Y84.962 F7200
G1 X166.477 Y95.216 E38.4920 F3600
G0 X166.477 Y94.650 F7200
G1 X156.223 Y84.396 E38.9743 F3600
G0 X156.223 Y83.831 F7200
G1 X166.477 Y94.084 E39.4566 F3600
G0 X166.477 Y93.519 F7200
G1 X156.223 Y83.265 E39.9389 F3600
G0 X156.223 Y82.699 F7200
G1 X166.477 Y92.953 E40.4212 F3600
G0 X166.477 Y92.387 F7200
G1 X156.280 Y82.190 E40.9009 F3600
G0 X156.828 Y82.173 F7200
G1 X166.477 Y91.822 E41.3547 F3600
G0 X166.477 Y91.256 F7200
G1 X157.394 Y82.173 E41.7819 F3600
G0 X157.960 Y82.173 F7200
G1 X166.477 Y90.690 E42.1825 F3600
G0 X166.477 Y90.125 F7200
G1 X158.525 Y82.173 E42.5566 F3600
G0 X159.091 Y82.173 F7200
G1 X166.477 Y89.559 E42.9040 F3600
G0 X166.477 Y88.993 F7200
G1 X159.657 Y82.173 E43.2247 F3600
G0 X160.222 Y82.173 F7200
G1 X166.477 Y88.428 E43.5189 F3600
G0 X166.477 Y87.862 F7200
G1 X160.788 Y82.173 E43.7865 F3600
G0 X161.354 Y82.173 F7200
G1 X166.477 Y87.296 E44.0275 F3600
G0 X166.477 Y86.730 F7200
G1 X161.919 Y82.173 E44.2418 F3600
G0 X162.485 Y82.173 F7200
G1 X166.477 Y86.165 E44.4296 F3600
G0 X166.477 Y85.599 F7200
G1 X163.051 Y82.173 E44.5907 F3600
G0 X163.617 Y82.173 F7200
G1 X166.477 Y85.033 E44.7253 F3600
G0 X166.477 Y84.468 F7200
G1 X164.182 Y82.173 E44.8332 F3600
G0 X164.748 Y82.173 F7200
G1 X166.477 Y83.902 E44.9145 F3600
G0 X166.477 Y83.336 F7200
G1 X165.314 Y82.173 E44.9692 F3600
G0 X165.879 Y82.173 F7200
G1 X166.477 Y82.771 E44.9973 F3600
G0 X143.523 Y107.900 F7200
G1 X153.450 Y117.827 E45.4642 F3600
G0 X152.884 Y117.827 F7200
G1 X143.523 Y108.466 E45.9045 F3600
G0 X143.523 Y109.032 F7200
G1 X152.318 Y117.827 E46.3182 F3600
G0 X151.753 Y117.827 F7200
G1 X143.523 Y109.597 E46.7053 F3600
G0 X143.523 Y110.163 F7200
G1 X151.187 Y117.827 E47.0658 F3600
G0 X150.621 Y117.827 F7200
G1 X143.523 Y110.729 E47.3996 F3600
G0 X143.523 Y111.295 F7200
G1 X150.056 Y117.827 E47.7069 F3600
G0 X149.490 Y117.827 F7200
G1 X143.523 Y111.860 E47.9875 F3600
G0 X143.523 Y112.426 F7200
G1 X148.924 Y117.827 E48.2416 F3600
G0 X148.358 Y117.827 F7200
G1 X143.523 Y112.992 E48.4690 F3600
G0 X143.523 Y113.557 F7200
G1 X147.793 Y117.827 E48.6698 F3600
G0 X147.227 Y117.827 F7200
G1 X143.523 Y114.123 E48.8441 F3600
G0 X143.523 Y114.689 F7200
G1 X146.661 Y117.827 E48.9917 F3600
G0 X146.096 Y117.827 F7200
G1 X143.523 Y115.254 E49.1127 F3600
G0 X143.523 Y115.820 F7200
G1 X145.530 Y117.827 E49.2071 F3600
G0 X144.964 Y117.827 F7200
G1 X143.523 Y116.386 E49.2748 F3600
G0 X143.523 Y116.951 F7200
G1 X144.399 Y117.827 E49.3160 F3600
G0 X143.833 Y117.827 F7200
G1 X143.523 Y117.517 E49.3306 F3600
; ------------------------------------
; Layer #3
; ------------------------------------
M106 S255 ;set fan speed
G92 E0 ;reset extr
;segType:HShell
G0 F3000 E-1.0000
G0 F1200 Z0.800
G0 X150.981 Y117.954 F7200
G0 F3000 E0.0000
G1 X153.904 Y115.031 E0.1375 F3600
G0 X153.904 Y115.596 F7200
G1 X151.546 Y117.954 E0.2484 F3600
G0 X152.112 Y117.954 F7200
G1 X153.904 Y116.162 E0.3327 F3600
G0 X153.904 Y116.728 F7200
G1 X152.678 Y117.954 E0.3903 F3600
G0 X153.244 Y117.954 F7200
G1 X153.904 Y117.293 E0.4214 F3600
;segType:Perimeter
G0 X154.553 Y118.140 F7200
G1 X153.959 Y118.675 E0.4480 F2160
G1 X153.714 Y118.714 E0.4562
G1 X143.586 Y118.714 E0.7931
G1 X143.282 Y118.666 E0.8033
G1 X143.022 Y118.534 E0.8130
G1 X142.817 Y118.327 E0.8227
G1 X142.684 Y118.068 E0.8324
G1 X142.636 Y117.764 E0.8426
G1 X142.636 Y94.936 E1.6019
G1 X142.684 Y94.632 E1.6121
G1 X142.816 Y94.373 E1.6218
G1 X143.022 Y94.167 E1.6315
G1 X143.282 Y94.034 E1.6412
G1 X143.586 Y93.986 E1.6514
G1 X153.746 Y93.986 E1.9893
G1 X154.227 Y93.910 E2.0056
G1 X154.676 Y93.681 E2.0223
G1 X155.032 Y93.325 E2.0390
G1 X155.260 Y92.877 E2.0558
G1 X155.336 Y92.396 E2.0720
G1 X155.336 Y82.236 E2.4099
G1 X155.384 Y81.932 E2.4201
G1 X155.517 Y81.673 E2.4298
G1 X155.723 Y81.466 E2.4395
G1 X155.982 Y81.334 E2.4492
G1 X156.286 Y81.286 E2.4594
G1 X166.414 Y81.286 E2.7963
G1 X166.718 Y81.334 E2.8065
G1 X166.978 Y81.466 E2.8162
G1 X167.183 Y81.673 E2.8259
G1 X167.316 Y81.932 E2.8356
G1 X167.364 Y82.236 E2.8458
G1 X167.364 Y105.064 E3.6051
G1 X167.316 Y105.368 E3.6153
G1 X167.184 Y105.628 E3.6250
G1 X166.978 Y105.833 E3.6347
G1 X166.718 Y105.966 E3.6444
G1 X166.414 Y106.014 E3.6546
G1 X156.254 Y106.014 E3.9925
G1 X155.773 Y106.090 E4.0088
G1 X155.324 Y106.319 E4.0255
G1 X154.968 Y106.675 E4.0422
G1 X154.740 Y107.123 E4.0590
G1 X154.664 Y107.604 E4.0752
G1 X154.664 Y117.764 E4.4131
G1 X154.616 Y118.068 E4.4233
G1 X154.483 Y118.327 E4.4330
G1 X154.277 Y118.534 E4.4427
G1 X154.071 Y118.639 E4.4504
G0 X153.276 Y118.555 F7200
;segType:Loop
G0 X152.922 Y118.314
G1 X143.617 Y118.314 E4.7599 F3600
G1 X143.479 Y118.292 E4.7645
G1 X143.277 Y118.223 E4.7716
G1 X143.144 Y118.090 E4.7779
G1 X143.069 Y117.943 E4.7834
G1 X143.036 Y117.733 E4.7904
G1 X143.036 Y94.967 E5.5476
G1 X143.069 Y94.757 E5.5547
G1 X143.144 Y94.611 E5.5602
G1 X143.260 Y94.494 E5.5656
G1 X143.407 Y94.419 E5.5711
G1 X143.617 Y94.386 E5.5782
G1 X153.777 Y94.386 E5.9161
G1 X154.352 Y94.295 E5.9355
G1 X154.914 Y94.009 E5.9564
G1 X155.359 Y93.563 E5.9774
G1 X155.645 Y93.002 E5.9983
G1 X155.736 Y92.427 E6.0177
G1 X155.736 Y82.267 E6.3556
G1 X155.769 Y82.058 E6.3627
G1 X155.844 Y81.911 E6.3682
G1 X155.961 Y81.794 E6.3737
G1 X156.107 Y81.719 E6.3791
G1 X156.317 Y81.686 E6.3862
G1 X166.383 Y81.686 E6.7210
G1 X166.593 Y81.719 E6.7280
G1 X166.739 Y81.794 E6.7335
G1 X166.856 Y81.910 E6.7390
G1 X166.931 Y82.057 E6.7445
G1 X166.964 Y82.267 E6.7516
G1 X166.964 Y105.033 E7.5087
G1 X166.931 Y105.243 E7.5158
G1 X166.856 Y105.389 E7.5213
G1 X166.740 Y105.506 E7.5268
G1 X166.593 Y105.581 E7.5322
G1 X166.383 Y105.614 E7.5393
G1 X156.223 Y105.614 E7.8772
G1 X155.648 Y105.705 E7.8966
G1 X155.086 Y105.991 E7.9175
G1 X154.641 Y106.437 E7.9385
G1 X154.355 Y106.998 E7.9595
G1 X154.264 Y107.573 E7.9788
G1 X154.264 Y117.733 E8.3167
G1 X154.241 Y117.879 E8.3216
G1 X154.176 Y118.069 E8.3283
G1 X154.039 Y118.206 E8.3348
G1 X153.893 Y118.281 E8.3403
G1 X153.683 Y118.314 E8.3473
G1 X153.122 Y118.314 E8.3660
;segType:HShell
G0 X153.904 Y114.465 F7200
G1 X150.415 Y117.954 E8.5301 F3600
G0 X149.849 Y117.954 F7200
G1 X153.904 Y113.899 E8.7208 F3600
G0 X153.904 Y113.334 F7200
G1 X149.284 Y117.954 E8.9381 F3600
G0 X148.718 Y117.954 F7200
G1 X153.904 Y112.768 E9.1820 F3600
G0 X153.904 Y112.202 F7200
G1 X148.152 Y117.954 E9.4526 F3600
G0 X147.587 Y117.954 F7200
G1 X153.904 Y111.637 E9.7497 F3600
G0 X153.904 Y111.071 F7200
G1 X147.021 Y117.954 E10.0735 F3600
G0 X146.455 Y117.954 F7200
G1 X153.904 Y110.505 E10.4238 F3600
G0 X153.904 Y109.940 F7200
G1 X145.890 Y117.954 E10.8008 F3600
G0 X145.324 Y117.954 F7200
G1 X153.904 Y109.374 E11.2044 F3600
G0 X153.904 Y108.808 F7200
G1 X144.758 Y117.954 E11.6346 F3600
G0 X144.193 Y117.954 F7200
G1 X153.904 Y108.242 E12.0914 F3600
G0 X153.904 Y107.677 F7200
G1 X143.635 Y117.946 E12.5744 F3600
G0 X143.396 Y117.619 F7200
G1 X153.985 Y107.030 E13.0725 F3600
G0 X154.368 Y106.973 F7200
G0 X154.641 Y106.437
G0 X155.086 Y105.991
G0 X155.648 Y105.705
G0 X156.223 Y105.614
G0 X163.519 Y105.614
G0 X163.519 Y105.614
G0 X165.956 Y105.252
G0 X165.944 Y105.254
G1 X166.604 Y104.594 E13.1035 F3600
G0 X166.604 Y104.028 F7200
G1 X165.378 Y105.254 E13.1612 F3600
G0 X164.812 Y105.254 F7200
G1 X166.604 Y103.462 E13.2454 F3600
G0 X166.604 Y102.897 F7200
G1 X164.247 Y105.254 E13.3563 F3600
G0 X163.681 Y105.254 F7200
G1 X166.604 Y102.331 E13.4938 F3600
G0 X166.604 Y101.765 F7200
G1 X163.115 Y105.254 E13.6579 F3600
G0 X162.550 Y105.254 F7200
G1 X166.604 Y101.199 E13.8486 F3600
G0 X166.604 Y100.634 F7200
G1 X161.984 Y105.254 E14.0659 F3600
G0 X161.418 Y105.254 F7200
G1 X166.604 Y100.068 E14.3098 F3600
G0 X166.604 Y99.502 F7200
G1 X160.852 Y105.254 E14.5803 F3600
G0 X160.287 Y105.254 F7200
G1 X166.604 Y98.937 E14.8775 F3600
G0 X166.604 Y98.371 F7200
G1 X159.721 Y105.254 E15.2012 F3600
G0 X159.155 Y105.254 F7200
G1 X166.604 Y97.805 E15.5516 F3600
G0 X166.604 Y97.240 F7200
G1 X158.590 Y105.254 E15.9285 F3600
G0 X158.024 Y105.254 F7200
G1 X166.604 Y96.674 E16.3321 F3600
G0 X166.604 Y96.108 F7200
G1 X157.458 Y105.254 E16.7622 F3600
G0 X156.893 Y105.254 F7200
G1 X166.604 Y95.543 E17.2190 F3600
G0 X166.604 Y94.977 F7200
G1 X156.327 Y105.254 E17.7024 F3600
G0 X155.680 Y105.335 F7200
G1 X166.604 Y94.411 E18.2162 F3600
G0 X166.604 Y93.846 F7200
G1 X143.396 Y117.053 E19.3079 F3600
G0 X143.396 Y116.487 F7200
G1 X166.604 Y93.280 E20.3995 F3600
G0 X166.604 Y92.714 F7200
G1 X143.396 Y115.922 E21.4911 F3600
G0 X143.396 Y115.356 F7200
G1 X166.604 Y92.149 E22.5827 F3600
G0 X166.604 Y91.583 F7200
G1 X143.396 Y114.790 E23.6743 F3600
G0 X143.396 Y114.225 F7200
G1 X166.604 Y91.017 E24.7659 F3600
G0 X166.604 Y90.451 F7200
G1 X143.396 Y113.659 E25.8575 F3600
G0 X143.396 Y113.093 F7200
G1 X166.604 Y89.886 E26.9491 F3600
G0 X166.604 Y89.320 F7200
G1 X143.396 Y112.528 E28.0407 F3600
G0 X143.396 Y111.962 F7200
G1 X166.604 Y88.754 E29.1324 F3600
G0 X166.604 Y88.189 F7200
G1 X143.396 Y111.396 E30.2240 F3600
G0 X143.396 Y110.831 F7200
G1 X166.604 Y87.623 E31.3156 F3600
G0 X166.604 Y87.057 F7200
G1 X143.396 Y110.265 E32.4072 F3600
G0 X143.396 Y109.699 F7200
G1 X166.604 Y86.492 E33.4988 F3600
G0 X166.604 Y85.926 F7200
G1 X143.396 Y109.133 E34.5904 F3600
G0 X143.396 Y108.568 F7200
G1 X166.604 Y85.360 E35.6820 F3600
G0 X166.604 Y84.795 F7200
G1 X143.396 Y108.002 E36.7736 F3600
G0 X143.396 Y107.436 F7200
G1 X166.604 Y84.229 E37.8652 F3600
G0 X166.604 Y83.663 F7200
G1 X143.396 Y106.871 E38.9569 F3600
G0 X143.396 Y106.305 F7200
G1 X166.604 Y83.098 E40.0485 F3600
G0 X166.604 Y82.532 F7200
G1 X155.962 Y93.174 E40.5490 F3600
G0 X156.093 Y92.477 F7200
G1 X166.492 Y82.078 E41.0382 F3600
G0 X165.958 Y82.046 F7200
G1 X156.096 Y91.908 E41.5021 F3600
G0 X156.096 Y91.342 F7200
G1 X165.392 Y82.046 E41.9393 F3600
G0 X164.827 Y82.046 F7200
G1 X156.096 Y90.777 E42.3500 F3600
G0 X156.096 Y90.211 F7200
G1 X164.261 Y82.046 E42.7340 F3600
G0 X163.695 Y82.046 F7200
G1 X156.096 Y89.645 E43.0915 F3600
G0 X156.096 Y89.080 F7200
G1 X163.130 Y82.046 E43.4223 F3600
G0 X162.564 Y82.046 F7200
G1 X156.096 Y88.514 E43.7266 F3600
G0 X156.096 Y87.948 F7200
G1 X161.998 Y82.046 E44.0042 F3600
G0 X161.433 Y82.046 F7200
G1 X156.096 Y87.383 E44.2552 F3600
G0 X156.096 Y86.817 F7200
G1 X160.867 Y82.046 E44.4796 F3600
G0 X160.301 Y82.046 F7200
G1 X156.096 Y86.251 E44.6774 F3600
G0 X156.096 Y85.686 F7200
G1 X159.736 Y82.046 E44.8486 F3600
G0 X159.170 Y82.046 F7200
G1 X156.096 Y85.120 E44.9931 F3600
G0 X156.096 Y84.554 F7200
G1 X158.604 Y82.046 E45.1111 F3600
G0 X158.038 Y82.046 F7200
G1 X156.096 Y83.989 E45.2025 F3600
G0 X156.096 Y83.423 F7200
G1 X157.473 Y82.046 E45.2672 F3600
G0 X156.907 Y82.046 F7200
G1 X156.096 Y82.857 E45.3054 F3600
G0 X155.736 Y83.217 F7200
G0 X155.736 Y92.427
G0 X155.645 Y93.002
G0 X155.359 Y93.563
G0 X154.914 Y94.009
G0 X154.352 Y94.295
G0 X153.777 Y94.386
G0 X144.567 Y94.386
G0 X144.567 Y94.386
G0 X144.198 Y94.755
G0 X144.207 Y94.746
G1 X143.396 Y95.557 E45.3435 F3600
G0 X143.396 Y96.123 F7200
G1 X144.773 Y94.746 E45.4083 F3600
G0 X145.338 Y94.746 F7200
G1 X143.396 Y96.688 E45.4996 F3600
G0 X143.396 Y97.254 F7200
G1 X145.904 Y94.746 E45.6176 F3600
G0 X146.470 Y94.746 F7200
G1 X143.396 Y97.820 E45.7621 F3600
G0 X143.396 Y98.385 F7200
G1 X147.035 Y94.746 E45.9333 F3600
G0 X147.601 Y94.746 F7200
G1 X143.396 Y98.951 E46.1311 F3600
G0 X143.396 Y99.517 F7200
G1 X148.167 Y94.746 E46.3555 F3600
G0 X148.732 Y94.746 F7200
G1 X143.396 Y100.083 E46.6065 F3600
G0 X143.396 Y100.648 F7200
G1 X149.298 Y94.746 E46.8841 F3600
G0 X149.864 Y94.746 F7200
G1 X143.396 Y101.214 E47.1883 F3600
G0 X143.396 Y101.780 F7200
G1 X150.430 Y94.746 E47.5191 F3600
G0 X150.995 Y94.746 F7200
G1 X143.396 Y102.345 E47.8766 F3600
G0 X143.396 Y102.911 F7200
G1 X151.561 Y94.746 E48.2606 F3600
G0 X152.127 Y94.746 F7200
G1 X143.396 Y103.477 E48.6712 F3600
G0 X143.396 Y104.042 F7200
G1 X152.692 Y94.746 E49.1085 F3600
G0 X153.258 Y94.746 F7200
G1 X143.396 Y104.608 E49.5724 F3600
G0 X143.396 Y105.174 F7200
G1 X153.827 Y94.743 E50.0630 F3600
G0 X154.524 Y94.612 F7200
G1 X143.396 Y105.739 E50.5864 F3600
; ------------------------------------
; Layer #4
; ------------------------------------
G92 E0 ;reset extr
;segType:Infill
G0 F3000 E-1.0000
G0 F1200 Z1.000
G0 X144.047 Y109.555 F7200
G0 F3000 E0.0000
G1 X151.795 Y117.303 E0.4373 F4500
;segType:Perimeter
G0 X154.578 Y118.215 F7200
G1 X153.983 Y118.750 E0.4639 F2160
G1 X153.714 Y118.793 E0.4730
G1 X143.586 Y118.793 E0.8099
G1 X143.258 Y118.741 E0.8209
G1 X142.976 Y118.597 E0.8314
G1 X142.753 Y118.374 E0.8419
G1 X142.609 Y118.092 E0.8524
G1 X142.557 Y117.764 E0.8635
G1 X142.557 Y94.936 E1.6228
G1 X142.609 Y94.608 E1.6338
G1 X142.753 Y94.326 E1.6443
G1 X142.976 Y94.103 E1.6548
G1 X143.258 Y93.959 E1.6654
G1 X143.586 Y93.907 E1.6764
G1 X153.746 Y93.907 E2.0143
G1 X154.203 Y93.835 E2.0297
G1 X154.629 Y93.618 E2.0456
G1 X154.968 Y93.279 E2.0615
G1 X155.185 Y92.853 E2.0775
G1 X155.257 Y92.396 E2.0929
G1 X155.257 Y82.236 E2.4308
G1 X155.309 Y81.908 E2.4418
G1 X155.453 Y81.626 E2.4523
G1 X155.676 Y81.403 E2.4628
G1 X155.958 Y81.259 E2.4734
G1 X156.286 Y81.207 E2.4844
G1 X166.414 Y81.207 E2.8213
G1 X166.742 Y81.259 E2.8323
G1 X167.024 Y81.403 E2.8428
G1 X167.247 Y81.626 E2.8534
G1 X167.391 Y81.908 E2.8639
G1 X167.443 Y82.236 E2.8749
G1 X167.443 Y105.064 E3.6342
G1 X167.391 Y105.392 E3.6452
G1 X167.247 Y105.674 E3.6557
G1 X167.024 Y105.897 E3.6663
G1 X166.742 Y106.041 E3.6768
G1 X166.414 Y106.093 E3.6878
G1 X156.254 Y106.093 E4.0257
G1 X155.797 Y106.165 E4.0411
G1 X155.371 Y106.382 E4.0570
G1 X155.032 Y106.721 E4.0730
G1 X154.815 Y107.147 E4.0889
G1 X154.743 Y107.604 E4.1043
G1 X154.743 Y117.764 E4.4422
G1 X154.691 Y118.092 E4.4532
G1 X154.547 Y118.374 E4.4638
G1 X154.324 Y118.598 E4.4743
G1 X154.096 Y118.714 E4.4828
G0 X153.300 Y118.630 F7200
;segType:Loop
G0 X152.946 Y118.393
G1 X143.617 Y118.393 E4.7931 F3600
G1 X143.383 Y118.356 E4.8010
G1 X143.214 Y118.270 E4.8073
G1 X143.080 Y118.136 E4.8136
G1 X142.994 Y117.967 E4.8199
G1 X142.957 Y117.733 E4.8278
G1 X142.957 Y94.967 E5.5849
G1 X142.994 Y94.733 E5.5928
G1 X143.080 Y94.564 E5.5991
G1 X143.214 Y94.430 E5.6054
G1 X143.383 Y94.344 E5.6117
G1 X143.617 Y94.307 E5.6196
G1 X153.777 Y94.307 E5.9575
G1 X154.328 Y94.220 E5.9761
G1 X154.867 Y93.945 E5.9962
G1 X155.295 Y93.517 E6.0163
G1 X155.570 Y92.978 E6.0365
G1 X155.657 Y92.427 E6.0550
G1 X155.657 Y82.267 E6.3929
G1 X155.694 Y82.033 E6.4008
G1 X155.780 Y81.864 E6.4071
G1 X155.914 Y81.730 E6.4134
G1 X156.083 Y81.644 E6.4197
G1 X156.317 Y81.607 E6.4276
G1 X166.383 Y81.607 E6.7624
G1 X166.617 Y81.644 E6.7703
G1 X166.786 Y81.730 E6.7766
G1 X166.920 Y81.864 E6.7829
G1 X167.006 Y82.033 E6.7892
G1 X167.043 Y82.267 E6.7971
G1 X167.043 Y105.033 E7.5543
G1 X167.006 Y105.267 E7.5621
G1 X166.920 Y105.436 E7.5684
G1 X166.786 Y105.570 E7.5747
G1 X166.617 Y105.656 E7.5811
G1 X166.383 Y105.693 E7.5889
G1 X156.223 Y105.693 E7.9269
G1 X155.672 Y105.780 E7.9454
G1 X155.133 Y106.055 E7.9655
G1 X154.705 Y106.483 E7.9857
G1 X154.430 Y107.022 E8.0058
G1 X154.343 Y107.573 E8.0243
G1 X154.343 Y117.733 E8.3623
G1 X154.306 Y117.967 E8.3702
G1 X154.220 Y118.136 E8.3765
G1 X154.086 Y118.270 E8.3828
G1 X153.917 Y118.356 E8.3890
G1 X153.683 Y118.393 E8.3969
G1 X153.146 Y118.393 E8.4148
;segType:Infill
G0 X153.253 Y114.236 F7200
G1 X144.047 Y105.030 E8.9344 F4500
G0 X144.047 Y100.504 F7200
G1 X153.253 Y109.711 E9.4541 F4500
G0 X153.867 Y105.799 F7200
G1 X144.047 Y95.979 E10.0084 F4500
G0 X147.990 Y95.397 F7200
G1 X157.197 Y104.603 E10.5280 F4500
G0 X161.722 Y104.603 F7200
G1 X152.515 Y95.397 E11.0477 F4500
G0 X153.009 Y94.307 F7200
G0 X153.777 Y94.307
G0 X154.328 Y94.220
G0 X154.867 Y93.945
G0 X155.295 Y93.517
G0 X155.570 Y92.978
G0 X155.657 Y92.427
G0 X155.657 Y88.458
G0 X155.657 Y88.458
G0 X156.752 Y86.040
G0 X156.747 Y86.051
G1 X165.953 Y95.258 E11.5674 F4500
G0 X165.953 Y90.732 F7200
G1 X157.918 Y82.697 E12.0209 F4500
G0 X162.443 Y82.697 F7200
G1 X165.953 Y86.207 E12.2191 F4500
G0 X156.747 Y90.577 F7200
G1 X165.953 Y99.783 E12.7387 F4500
G0 X165.953 Y104.309 F7200
G1 X156.001 Y94.357 E13.3005 F4500
G0 X144.047 Y114.081 F7200
G1 X147.269 Y117.303 E13.4824 F4500
;segType:HShell
G0 X144.441 Y117.303 F7200
G1 X145.170 Y118.033 E13.5167 F3600
G0 X145.736 Y118.033 F7200
G1 X145.007 Y117.303 E13.5510 F3600
G0 X145.572 Y117.303 F7200
G1 X146.302 Y118.033 E13.5853 F3600
G0 X146.867 Y118.033 F7200
G1 X146.138 Y117.303 E13.6196 F3600
G0 X146.704 Y117.303 F7200
G1 X147.433 Y118.033 E13.6539 F3600
G0 X147.999 Y118.033 F7200
G1 X147.269 Y117.303 E13.6882 F3600
G0 X147.835 Y117.303 F7200
G1 X148.564 Y118.033 E13.7225 F3600
G0 X149.130 Y118.033 F7200
G1 X148.401 Y117.303 E13.7568 F3600
G0 X148.966 Y117.303 F7200
G1 X149.696 Y118.033 E13.7911 F3600
G0 X150.261 Y118.033 F7200
G1 X149.532 Y117.303 E13.8254 F3600
G0 X150.098 Y117.303 F7200
G1 X150.827 Y118.033 E13.8597 F3600
G0 X151.393 Y118.033 F7200
G1 X150.663 Y117.303 E13.8941 F3600
G0 X151.229 Y117.303 F7200
G1 X151.958 Y118.033 E13.9284 F3600
G0 X152.524 Y118.033 F7200
G1 X151.795 Y117.303 E13.9627 F3600
G0 X152.360 Y117.303 F7200
G1 X153.090 Y118.033 E13.9970 F3600
G0 X153.655 Y118.033 F7200
G1 X152.926 Y117.303 E14.0313 F3600
G0 X153.253 Y117.065 F7200
G1 X153.956 Y117.768 E14.0643 F3600
G0 X153.983 Y117.229 F7200
G1 X153.253 Y116.499 E14.0987 F3600
G0 X153.253 Y115.933 F7200
G1 X153.983 Y116.663 E14.1330 F3600
G0 X153.983 Y116.097 F7200
G1 X153.253 Y115.368 E14.1673 F3600
G0 X153.253 Y114.802 F7200
G1 X153.983 Y115.531 E14.2016 F3600
G0 X153.983 Y114.966 F7200
G1 X153.253 Y114.236 E14.2359 F3600
G0 X153.253 Y113.671 F7200
G1 X153.983 Y114.400 E14.2702 F3600
G0 X153.983 Y113.834 F7200
G1 X153.253 Y113.105 E14.3045 F3600
G0 X153.253 Y112.539 F7200
G1 X153.983 Y113.269 E14.3388 F3600
G0 X153.983 Y112.703 F7200
G1 X153.253 Y111.974 E14.3731 F3600
G0 X153.253 Y111.408 F7200
G1 X153.983 Y112.137 E14.4074 F3600
G0 X153.983 Y111.572 F7200
G1 X153.253 Y110.842 E14.4417 F3600
G0 X153.253 Y110.277 F7200
G1 X153.983 Y111.006 E14.4760 F3600
G0 X153.983 Y110.440 F7200
G1 X153.253 Y109.711 E14.5103 F3600
G0 X153.253 Y109.145 F7200
G1 X153.983 Y109.875 E14.5446 F3600
G0 X153.983 Y109.309 F7200
G1 X153.253 Y108.580 E14.5789 F3600
G0 X153.253 Y108.014 F7200
G1 X153.983 Y108.743 E14.6133 F3600
G0 X153.983 Y108.178 F7200
G1 X153.263 Y107.458 E14.6471 F3600
G0 X153.332 Y106.961 F7200
G1 X153.983 Y107.612 E14.6777 F3600
G0 X154.051 Y107.114 F7200
G1 X153.464 Y106.528 E14.7053 F3600
G0 X153.816 Y106.597 F7200
G1 X154.126 Y106.058 E14.7311 F3600
G1 X154.392 Y105.758 E14.7555
G1 X154.688 Y105.489 E14.7804
G1 X155.046 Y105.281 E14.8046
G0 X155.736 Y105.405 F7200
G1 X155.154 Y104.824 E14.8319 F3600
G0 X155.585 Y104.689 F7200
G1 X156.229 Y105.333 E14.8622 F3600
G0 X156.795 Y105.333 F7200
G1 X156.078 Y104.616 E14.8960 F3600
G0 X156.631 Y104.603 F7200
G1 X157.360 Y105.333 E14.9303 F3600
G0 X157.926 Y105.333 F7200
G1 X157.197 Y104.603 E14.9646 F3600
G0 X157.762 Y104.603 F7200
G1 X158.492 Y105.333 E14.9989 F3600
G0 X159.058 Y105.333 F7200
G1 X158.328 Y104.603 E15.0332 F3600
G0 X158.894 Y104.603 F7200
G1 X159.623 Y105.333 E15.0675 F3600
G0 X160.189 Y105.333 F7200
G1 X159.460 Y104.603 E15.1018 F3600
G0 X160.025 Y104.603 F7200
G1 X160.755 Y105.333 E15.1361 F3600
G0 X161.320 Y105.333 F7200
G1 X160.591 Y104.603 E15.1704 F3600
G0 X161.157 Y104.603 F7200
G1 X161.886 Y105.333 E15.2047 F3600
G0 X162.452 Y105.333 F7200
G1 X161.722 Y104.603 E15.2390 F3600
G0 X162.288 Y104.603 F7200
G1 X163.017 Y105.333 E15.2734 F3600
G0 X163.583 Y105.333 F7200
G1 X162.854 Y104.603 E15.3077 F3600
G0 X163.419 Y104.603 F7200
G1 X164.149 Y105.333 E15.3420 F3600
G0 X164.714 Y105.333 F7200
G1 X163.985 Y104.603 E15.3763 F3600
G0 X164.551 Y104.603 F7200
G1 X165.280 Y105.333 E15.4106 F3600
G0 X165.846 Y105.333 F7200
G1 X165.116 Y104.603 E15.4449 F3600
G0 X165.682 Y104.603 F7200
G1 X166.404 Y105.325 E15.4788 F3600
G0 X166.673 Y105.029 F7200
G1 X165.953 Y104.309 E15.5127 F3600
G0 X165.953 Y103.743 F7200
G1 X166.683 Y104.473 E15.5470 F3600
G0 X166.683 Y103.907 F7200
G1 X165.953 Y103.178 E15.5813 F3600
G0 X165.953 Y102.612 F7200
G1 X166.683 Y103.341 E15.6156 F3600
G0 X166.683 Y102.776 F7200
G1 X165.953 Y102.046 E15.6499 F3600
G0 X165.953 Y101.480 F7200
G1 X166.683 Y102.210 E15.6843 F3600
G0 X166.683 Y101.644 F7200
G1 X165.953 Y100.915 E15.7186 F3600
G0 X165.953 Y100.349 F7200
G1 X166.683 Y101.079 E15.7529 F3600
G0 X166.683 Y100.513 F7200
G1 X165.953 Y99.783 E15.7872 F3600
G0 X165.953 Y99.218 F7200
G1 X166.683 Y99.947 E15.8215 F3600
G0 X166.683 Y99.382 F7200
G1 X165.953 Y98.652 E15.8559 F3600
G0 X165.953 Y98.086 F7200
G1 X166.683 Y98.816 E15.8902 F3600
G0 X166.683 Y98.250 F7200
G1 X165.953 Y97.521 E15.9245 F3600
G0 X165.953 Y96.955 F7200
G1 X166.683 Y97.685 E15.9588 F3600
G0 X166.683 Y97.119 F7200
G1 X165.953 Y96.389 E15.9931 F3600
G0 X165.953 Y95.824 F7200
G1 X166.683 Y96.553 E16.0274 F3600
G0 X166.683 Y95.988 F7200
G1 X165.953 Y95.258 E16.0618 F3600
G0 X165.953 Y94.692 F7200
G1 X166.683 Y95.422 E16.0961 F3600
G0 X166.683 Y94.856 F7200
G1 X165.953 Y94.127 E16.1304 F3600
G0 X165.953 Y93.561 F7200
G1 X166.683 Y94.290 E16.1647 F3600
G0 X166.683 Y93.725 F7200
G1 X165.953 Y92.995 E16.1990 F3600
G0 X165.953 Y92.429 F7200
G1 X166.683 Y93.159 E16.2334 F3600
G0 X166.683 Y92.593 F7200
G1 X165.953 Y91.864 E16.2677 F3600
G0 X165.953 Y91.298 F7200
G1 X166.683 Y92.028 E16.3020 F3600
G0 X166.683 Y91.462 F7200
G1 X165.953 Y90.732 E16.3363 F3600
G0 X165.953 Y90.167 F7200
G1 X166.683 Y90.896 E16.3706 F3600
G0 X166.683 Y90.331 F7200
G1 X165.953 Y89.601 E16.4050 F3600
G0 X165.953 Y89.035 F7200
G1 X166.683 Y89.765 E16.4393 F3600
G0 X166.683 Y89.199 F7200
G1 X165.953 Y88.470 E16.4736 F3600
G0 X165.953 Y87.904 F7200
G1 X166.683 Y88.634 E16.5079 F3600
G0 X166.683 Y88.068 F7200
G1 X165.953 Y87.338 E16.5422 F3600
G0 X165.953 Y86.773 F7200
G1 X166.683 Y87.502 E16.5766 F3600
G0 X166.683 Y86.937 F7200
G1 X165.953 Y86.207 E16.6109 F3600
G0 X165.953 Y85.641 F7200
G1 X166.683 Y86.371 E16.6452 F3600
G0 X166.683 Y85.805 F7200
G1 X165.953 Y85.076 E16.6795 F3600
G0 X165.953 Y84.510 F7200
G1 X166.683 Y85.239 E16.7138 F3600
G0 X166.683 Y84.674 F7200
G1 X165.953 Y83.944 E16.7481 F3600
G0 X165.953 Y83.379 F7200
G1 X166.683 Y84.108 E16.7825 F3600
G0 X166.683 Y83.542 F7200
G1 X165.953 Y82.813 E16.8168 F3600
G0 X166.239 Y81.967 F7200
G1 X166.683 Y82.411 E16.8377 F3600
G0 X166.683 Y82.977 F7200
G1 X165.673 Y81.967 E16.8851 F3600
G0 X165.108 Y81.967 F7200
G1 X165.837 Y82.697 E16.9194 F3600
G0 X165.271 Y82.697 F7200
G1 X164.542 Y81.967 E16.9537 F3600
G0 X163.976 Y81.967 F7200
G1 X164.706 Y82.697 E16.9881 F3600
G0 X164.140 Y82.697 F7200
G1 X163.411 Y81.967 E17.0224 F3600
G0 X162.845 Y81.967 F7200
G1 X163.574 Y82.697 E17.0567 F3600
G0 X163.009 Y82.697 F7200
G1 X162.279 Y81.967 E17.0910 F3600
G0 X161.714 Y81.967 F7200
G1 X162.443 Y82.697 E17.1253 F3600
G0 X161.877 Y82.697 F7200
G1 X161.148 Y81.967 E17.1596 F3600
G0 X160.582 Y81.967 F7200
G1 X161.312 Y82.697 E17.1939 F3600
G0 X160.746 Y82.697 F7200
G1 X160.017 Y81.967 E17.2282 F3600
G0 X159.451 Y81.967 F7200
G1 X160.180 Y82.697 E17.2625 F3600
G0 X159.615 Y82.697 F7200
G1 X158.885 Y81.967 E17.2968 F3600
G0 X158.320 Y81.967 F7200
G1 X159.049 Y82.697 E17.3311 F3600
G0 X158.483 Y82.697 F7200
G1 X157.754 Y81.967 E17.3654 F3600
G0 X157.188 Y81.967 F7200
G1 X157.918 Y82.697 E17.3997 F3600
G0 X157.352 Y82.697 F7200
G1 X156.622 Y81.967 E17.4341 F3600
G0 X156.122 Y82.032 F7200
G1 X156.786 Y82.697 E17.4653 F3600
G0 X156.747 Y83.223 F7200
G1 X156.017 Y82.494 E17.4996 F3600
G0 X156.017 Y83.059 F7200
G1 X156.747 Y83.789 E17.5339 F3600
G0 X156.747 Y84.354 F7200
G1 X156.017 Y83.625 E17.5682 F3600
G0 X156.017 Y84.191 F7200
G1 X156.747 Y84.920 E17.6025 F3600
G0 X156.747 Y85.486 F7200
G1 X156.017 Y84.756 E17.6368 F3600
G0 X156.017 Y85.322 F7200
G1 X156.747 Y86.051 E17.6712 F3600
G0 X156.747 Y86.617 F7200
G1 X156.017 Y85.888 E17.7055 F3600
G0 X156.017 Y86.453 F7200
G1 X156.747 Y87.183 E17.7398 F3600
G0 X156.747 Y87.748 F7200
G1 X156.017 Y87.019 E17.7741 F3600
G0 X156.017 Y87.585 F7200
G1 X156.747 Y88.314 E17.8084 F3600
G0 X156.747 Y88.880 F7200
G1 X156.017 Y88.150 E17.8427 F3600
G0 X156.017 Y88.716 F7200
G1 X156.747 Y89.445 E17.8770 F3600
G0 X156.747 Y90.011 F7200
G1 X156.017 Y89.282 E17.9113 F3600
G0 X156.017 Y89.847 F7200
G1 X156.747 Y90.577 E17.9456 F3600
G0 X156.747 Y91.143 F7200
G1 X156.017 Y90.413 E17.9799 F3600
G0 X156.017 Y90.979 F7200
G1 X156.747 Y91.708 E18.0142 F3600
G0 X156.747 Y92.274 F7200
G1 X156.017 Y91.545 E18.0485 F3600
G0 X156.017 Y92.110 F7200
G1 X156.716 Y92.809 E18.0814 F3600
G0 X156.612 Y93.271 F7200
G1 X155.987 Y92.646 E18.1108 F3600
G0 X156.275 Y93.216 F7200
G1 X155.977 Y93.767 E18.1368 F3600
G1 X155.742 Y94.098 E18.1620
G1 X155.460 Y94.381 E18.1864
G1 X155.132 Y94.619 E18.2108
G1 X154.766 Y94.818 E18.2360
G0 X154.016 Y94.634 F7200
G1 X154.639 Y95.258 E18.2653 F3600
G0 X154.180 Y95.364 F7200
G1 X153.483 Y94.667 E18.2981 F3600
G0 X152.917 Y94.667 F7200
G1 X153.647 Y95.397 E18.3324 F3600
G0 X153.081 Y95.397 F7200
G1 X152.352 Y94.667 E18.3667 F3600
G0 X151.786 Y94.667 F7200
G1 X152.515 Y95.397 E18.4010 F3600
G0 X151.950 Y95.397 F7200
G1 X151.220 Y94.667 E18.4354 F3600
G0 X150.655 Y94.667 F7200
G1 X151.384 Y95.397 E18.4697 F3600
G0 X150.818 Y95.397 F7200
G1 X150.089 Y94.667 E18.5040 F3600
G0 X149.523 Y94.667 F7200
G1 X150.253 Y95.397 E18.5383 F3600
G0 X149.687 Y95.397 F7200
G1 X148.958 Y94.667 E18.5726 F3600
G0 X148.392 Y94.667 F7200
G1 X149.121 Y95.397 E18.6069 F3600
G0 X148.556 Y95.397 F7200
G1 X147.826 Y94.667 E18.6412 F3600
G0 X147.261 Y94.667 F7200
G1 X147.990 Y95.397 E18.6755 F3600
G0 X147.424 Y95.397 F7200
G1 X146.695 Y94.667 E18.7098 F3600
G0 X146.129 Y94.667 F7200
G1 X146.859 Y95.397 E18.7441 F3600
G0 X146.293 Y95.397 F7200
G1 X145.564 Y94.667 E18.7784 F3600
G0 X144.998 Y94.667 F7200
G1 X145.727 Y95.397 E18.8127 F3600
G0 X145.162 Y95.397 F7200
G1 X144.432 Y94.667 E18.8470 F3600
G0 X143.867 Y94.667 F7200
G1 X144.596 Y95.397 E18.8813 F3600
G0 X144.047 Y95.413 F7200
G1 X143.401 Y94.768 E18.9117 F3600
G0 X143.317 Y95.249 F7200
G1 X144.047 Y95.979 E18.9460 F3600
G0 X144.047 Y96.545 F7200
G1 X143.317 Y95.815 E18.9803 F3600
G0 X143.317 Y96.381 F7200
G1 X144.047 Y97.110 E19.0147 F3600
G0 X144.047 Y97.676 F7200
G1 X143.317 Y96.946 E19.0490 F3600
G0 X143.317 Y97.512 F7200
G1 X144.047 Y98.242 E19.0833 F3600
G0 X144.047 Y98.807 F7200
G1 X143.317 Y98.078 E19.1176 F3600
G0 X143.317 Y98.643 F7200
G1 X144.047 Y99.373 E19.1519 F3600
G0 X144.047 Y99.939 F7200
G1 X143.317 Y99.209 E19.1863 F3600
G0 X143.317 Y99.775 F7200
G1 X144.047 Y100.504 E19.2206 F3600
G0 X144.047 Y101.070 F7200
G1 X143.317 Y100.340 E19.2549 F3600
G0 X143.317 Y100.906 F7200
G1 X144.047 Y101.636 E19.2892 F3600
G0 X144.047 Y102.201 F7200
G1 X143.317 Y101.472 E19.3235 F3600
G0 X143.317 Y102.038 F7200
G1 X144.047 Y102.767 E19.3578 F3600
G0 X144.047 Y103.333 F7200
G1 X143.317 Y102.603 E19.3922 F3600
G0 X143.317 Y103.169 F7200
G1 X144.047 Y103.898 E19.4265 F3600
G0 X144.047 Y104.464 F7200
G1 X143.317 Y103.735 E19.4608 F3600
G0 X143.317 Y104.300 F7200
G1 X144.047 Y105.030 E19.4951 F3600
G0 X144.047 Y105.596 F7200
G1 X143.317 Y104.866 E19.5294 F3600
G0 X143.317 Y105.432 F7200
G1 X144.047 Y106.161 E19.5638 F3600
G0 X144.047 Y106.727 F7200
G1 X143.317 Y105.997 E19.5981 F3600
G0 X143.317 Y106.563 F7200
G1 X144.047 Y107.293 E19.6324 F3600
G0 X144.047 Y107.858 F7200
G1 X143.317 Y107.129 E19.6667 F3600
G0 X143.317 Y107.694 F7200
G1 X144.047 Y108.424 E19.7010 F3600
G0 X144.047 Y108.990 F7200
G1 X143.317 Y108.260 E19.7354 F3600
G0 X143.317 Y108.826 F7200
G1 X144.047 Y109.555 E19.7697 F3600
G0 X144.047 Y110.121 F7200
G1 X143.317 Y109.391 E19.8040 F3600
G0 X143.317 Y109.957 F7200
G1 X144.047 Y110.687 E19.8383 F3600
G0 X144.047 Y111.252 F7200
G1 X143.317 Y110.523 E19.8726 F3600
G0 X143.317 Y111.088 F7200
G1 X144.047 Y111.818 E19.9070 F3600
G0 X144.047 Y112.384 F7200
G1 X143.317 Y111.654 E19.9413 F3600
G0 X143.317 Y112.220 F7200
G1 X144.047 Y112.949 E19.9756 F3600
G0 X144.047 Y113.515 F7200
G1 X143.317 Y112.786 E20.0099 F3600
G0 X143.317 Y113.351 F7200
G1 X144.047 Y114.081 E20.0442 F3600
G0 X144.047 Y114.647 F7200
G1 X143.317 Y113.917 E20.0785 F3600
G0 X143.317 Y114.483 F7200
G1 X144.047 Y115.212 E20.1129 F3600
G0 X144.047 Y115.778 F7200
G1 X143.317 Y115.048 E20.1472 F3600
G0 X143.317 Y115.614 F7200
G1 X144.047 Y116.344 E20.1815 F3600
G0 X144.047 Y116.909 F7200
G1 X143.317 Y116.180 E20.2158 F3600
G0 X143.317 Y116.745 F7200
G1 X144.605 Y118.033 E20.2764 F3600
G0 X144.039 Y118.033 F7200
G1 X143.317 Y117.311 E20.3103 F3600
; ------------------------------------
; Layer #5
; ------------------------------------
G92 E0 ;reset extr
;segType:HShell
G0 X144.009 Y117.855 F7200
G0 F1200 Z1.200
G1 X144.857 Y117.855 E0.0208 F3600
G1 X145.423 Y117.855 E0.0417
G1 X145.989 Y117.855 E0.0625
G1 X146.554 Y117.855 E0.0833
G1 X147.120 Y117.855 E0.1042
G1 X147.686 Y117.855 E0.1250
G1 X148.251 Y117.855 E0.1459
G1 X148.817 Y117.855 E0.1667
G1 X149.383 Y117.855 E0.1875
G1 X149.949 Y117.855 E0.2084
G1 X150.514 Y117.855 E0.2292
G1 X151.080 Y117.855 E0.2500
G1 X151.646 Y117.855 E0.2709
;segType:Infill
G0 X152.433 Y117.633 F7200
G1 X153.583 Y116.483 E0.3358 F4500
;segType:Perimeter
G0 X154.591 Y118.256 F7200
G1 X153.996 Y118.792 E0.3624 F2160
G1 X153.714 Y118.836 E0.3719
G1 X143.586 Y118.836 E0.7088
G1 X143.244 Y118.782 E0.7203
G1 X142.951 Y118.632 E0.7313
G1 X142.718 Y118.399 E0.7422
G1 X142.568 Y118.106 E0.7532
G1 X142.514 Y117.764 E0.7647
G1 X142.514 Y94.936 E1.5240
G1 X142.568 Y94.594 E1.5355
G1 X142.718 Y94.301 E1.5464
G1 X142.951 Y94.067 E1.5574
G1 X143.244 Y93.918 E1.5684
G1 X143.586 Y93.864 E1.5799
G1 X153.746 Y93.864 E1.9178
G1 X154.189 Y93.793 E1.9327
G1 X154.604 Y93.582 E1.9482
G1 X154.932 Y93.254 E1.9637
G1 X155.144 Y92.839 E1.9791
G1 X155.214 Y92.396 E1.9941
G1 X155.214 Y82.236 E2.3320
G1 X155.268 Y81.894 E2.3435
G1 X155.417 Y81.601 E2.3544
G1 X155.651 Y81.368 E2.3654
G1 X155.944 Y81.218 E2.3764
G1 X156.286 Y81.164 E2.3879
G1 X166.414 Y81.164 E2.7247
G1 X166.756 Y81.218 E2.7362
G1 X167.049 Y81.368 E2.7472
G1 X167.282 Y81.601 E2.7582
G1 X167.432 Y81.894 E2.7691
G1 X167.486 Y82.236 E2.7806
G1 X167.486 Y105.064 E3.5399
G1 X167.432 Y105.406 E3.5514
G1 X167.282 Y105.699 E3.5624
G1 X167.049 Y105.933 E3.5733
G1 X166.756 Y106.082 E3.5843
G1 X166.414 Y106.136 E3.5958
G1 X156.254 Y106.136 E3.9337
G1 X155.811 Y106.207 E3.9487
G1 X155.396 Y106.418 E3.9641
G1 X155.068 Y106.746 E3.9796
G1 X154.856 Y107.161 E3.9950
G1 X154.786 Y107.604 E4.0100
G1 X154.786 Y117.764 E4.3479
G1 X154.732 Y118.106 E4.3594
G1 X154.583 Y118.399 E4.3704
G1 X154.349 Y118.632 E4.3813
G1 X154.109 Y118.755 E4.3903
G0 X153.313 Y118.672 F7200
;segType:Loop
G0 X152.960 Y118.436
G1 X143.617 Y118.436 E4.7010 F3600
G1 X143.370 Y118.397 E4.7094
G1 X143.189 Y118.305 E4.7161
G1 X143.045 Y118.161 E4.7229
G1 X142.953 Y117.980 E4.7296
G1 X142.914 Y117.733 E4.7380
G1 X142.914 Y94.967 E5.4952
G1 X142.953 Y94.720 E5.5035
G1 X143.045 Y94.539 E5.5103
G1 X143.189 Y94.395 E5.5170
G1 X143.369 Y94.303 E5.5238
G1 X143.617 Y94.264 E5.5321
G1 X153.777 Y94.264 E5.8700
G1 X154.314 Y94.179 E5.8881
G1 X154.842 Y93.910 E5.9078
G1 X155.260 Y93.492 E5.9275
G1 X155.529 Y92.965 E5.9471
G1 X155.614 Y92.427 E5.9652
G1 X155.614 Y82.267 E6.3032
G1 X155.653 Y82.019 E6.3115
G1 X155.745 Y81.839 E6.3183
G1 X155.889 Y81.695 E6.3250
G1 X156.070 Y81.603 E6.3318
G1 X156.317 Y81.564 E6.3401
G1 X166.383 Y81.564 E6.6749
G1 X166.630 Y81.603 E6.6832
G1 X166.811 Y81.695 E6.6900
G1 X166.955 Y81.839 E6.6967
G1 X167.047 Y82.020 E6.7035
G1 X167.086 Y82.267 E6.7118
G1 X167.086 Y105.033 E7.4690
G1 X167.047 Y105.280 E7.4773
G1 X166.955 Y105.461 E7.4841
G1 X166.811 Y105.605 E7.4908
G1 X166.631 Y105.697 E7.4976
G1 X166.383 Y105.736 E7.5059
G1 X156.223 Y105.736 E7.8439
G1 X155.686 Y105.821 E7.8620
G1 X155.158 Y106.090 E7.8816
G1 X154.740 Y106.508 E7.9013
G1 X154.471 Y107.035 E7.9210
G1 X154.386 Y107.573 E7.9391
G1 X154.386 Y117.733 E8.2770
G1 X154.347 Y117.981 E8.2853
G1 X154.255 Y118.161 E8.2921
G1 X154.111 Y118.305 E8.2988
G1 X153.930 Y118.397 E8.3056
G1 X153.683 Y118.436 E8.3139
G1 X153.160 Y118.436 E8.3313
;segType:Infill
G0 X153.583 Y111.957 F7200
G1 X147.907 Y117.633 E8.6517 F4500
G0 X143.717 Y117.298 F7200
G1 X153.596 Y107.419 E9.2093 F4500
G0 X147.846 Y95.067 F7200
G1 X143.717 Y99.196 E9.4424 F4500
G0 X143.717 Y103.722 F7200
G1 X152.372 Y95.067 E9.9309 F4500
G0 X153.175 Y94.264 F7200
G0 X153.777 Y94.264
G0 X154.314 Y94.179
G0 X154.842 Y93.910
G0 X155.260 Y93.492
G0 X155.529 Y92.965
G0 X155.614 Y92.427
G0 X155.614 Y91.825
G0 X155.614 Y91.825
G0 X156.426 Y91.013
G0 X156.417 Y91.022
G1 X165.072 Y82.367 E10.4195 F4500
G0 X160.546 Y82.367 F7200
G1 X156.417 Y86.496 E10.6526 F4500
G0 X166.283 Y85.681 F7200
G1 X143.717 Y108.247 E11.9263 F4500
G0 X143.717 Y112.773 F7200
G1 X166.283 Y90.206 E13.2000 F4500
G0 X166.283 Y94.732 F7200
G1 X156.069 Y104.946 E13.7766 F4500
G0 X160.607 Y104.933 F7200
G1 X166.283 Y99.257 E14.0970 F4500
G0 X166.283 Y103.783 F7200
G1 X165.133 Y104.933 E14.1619 F4500
G0 X164.330 Y105.736 F7200
G0 X156.223 Y105.736
G0 X155.686 Y105.821
G0 X155.158 Y106.090
G0 X154.740 Y106.508
G0 X154.471 Y107.035
G0 X154.386 Y107.573
G0 X154.386 Y115.680
G0 X154.386 Y115.680
G0 X152.424 Y117.642
;segType:HShell
G0 X151.928 Y117.855
G1 X152.777 Y117.855 E14.1827 F3600
G0 X154.026 Y117.171 F7200
G1 X153.121 Y118.076 E14.2253 F3600
G0 X153.693 Y118.070 F7200
G1 X154.020 Y117.743 E14.2407 F3600
G0 X153.805 Y117.110 F7200
G1 X153.805 Y116.261 E14.2615 F3600
G1 X153.805 Y115.696 E14.2823
G1 X153.805 Y115.130 E14.3032
G1 X153.805 Y114.564 E14.3240
G1 X153.805 Y113.999 E14.3448
G1 X153.805 Y113.433 E14.3656
G1 X153.805 Y112.867 E14.3865
G1 X153.805 Y112.302 E14.4073
G1 X153.805 Y111.736 E14.4281
G1 X153.805 Y111.170 E14.4489
G1 X153.805 Y110.604 E14.4698
G1 X153.805 Y110.039 E14.4906
G1 X153.805 Y109.473 E14.5114
G1 X153.805 Y108.907 E14.5322
G1 X153.805 Y108.342 E14.5531
G1 X153.805 Y107.776 E14.5739
G1 X153.877 Y107.138 E14.5952
G0 X153.748 Y106.701 F7200
G1 X155.351 Y105.098 E14.6706 F3600
G0 X165.760 Y105.155 F7200
G1 X164.911 Y105.155 E14.6915 F3600
G1 X164.346 Y105.155 E14.7123
G1 X163.780 Y105.155 E14.7331
G1 X163.214 Y105.155 E14.7539
G1 X162.649 Y105.155 E14.7748
G1 X162.083 Y105.155 E14.7956
G1 X161.517 Y105.155 E14.8164
G1 X160.951 Y105.155 E14.8372
G1 X160.386 Y105.155 E14.8581
G1 X159.820 Y105.155 E14.8789
G1 X159.254 Y105.155 E14.8997
G1 X158.689 Y105.155 E14.9206
G1 X158.123 Y105.155 E14.9414
G1 X157.557 Y105.155 E14.9622
G1 X156.992 Y105.155 E14.9830
G1 X156.426 Y105.155 E15.0039
G1 X155.788 Y105.227 E15.0252
G0 X166.411 Y105.352 F7200
G1 X166.720 Y105.043 E15.0398 F3600
G0 X166.726 Y104.471 F7200
G1 X165.821 Y105.376 E15.0823 F3600
G0 X166.505 Y104.410 F7200
G1 X166.505 Y103.561 E15.1032 F3600
G1 X166.505 Y102.996 E15.1240
G1 X166.505 Y102.430 E15.1449
G1 X166.505 Y101.864 E15.1657
G1 X166.505 Y101.299 E15.1865
G1 X166.505 Y100.733 E15.2074
G1 X166.505 Y100.167 E15.2282
G1 X166.505 Y99.602 E15.2490
G1 X166.505 Y99.036 E15.2699
G1 X166.505 Y98.470 E15.2907
G1 X166.505 Y97.904 E15.3116
G1 X166.505 Y97.339 E15.3324
G1 X166.505 Y96.773 E15.3532
G1 X166.505 Y96.207 E15.3741
G1 X166.505 Y95.642 E15.3949
G1 X166.505 Y95.076 E15.4157
G1 X166.505 Y94.510 E15.4366
G1 X166.505 Y93.945 E15.4574
G1 X166.505 Y93.379 E15.4783
G1 X166.505 Y92.813 E15.4991
G1 X166.505 Y92.248 E15.5199
G1 X166.505 Y91.682 E15.5408
G1 X166.505 Y91.116 E15.5616
G1 X166.505 Y90.551 E15.5824
G1 X166.505 Y89.985 E15.6033
G1 X166.505 Y89.419 E15.6241
G1 X166.505 Y88.853 E15.6450
G1 X166.505 Y88.288 E15.6658
G1 X166.505 Y87.722 E15.6866
G1 X166.505 Y87.156 E15.7075
G1 X166.505 Y86.591 E15.7283
G1 X166.505 Y86.025 E15.7491
G1 X166.505 Y85.459 E15.7700
G1 X166.505 Y84.894 E15.7908
G1 X166.505 Y84.328 E15.8117
G1 X166.505 Y83.762 E15.8325
G1 X166.505 Y83.197 E15.8533
G1 X166.505 Y82.631 E15.8742
G1 X166.396 Y82.174 E15.8950
G1 X165.859 Y82.145 E15.9131
G1 X165.293 Y82.145 E15.9340
G1 X164.728 Y82.145 E15.9548
G1 X164.162 Y82.145 E15.9756
G1 X163.596 Y82.145 E15.9965
G1 X163.030 Y82.145 E16.0173
G1 X162.465 Y82.145 E16.0381
G1 X161.899 Y82.145 E16.0590
G1 X161.333 Y82.145 E16.0798
G1 X160.768 Y82.145 E16.1007
G1 X160.202 Y82.145 E16.1215
G1 X159.636 Y82.145 E16.1423
G1 X159.071 Y82.145 E16.1632
G1 X158.505 Y82.145 E16.1840
G1 X157.939 Y82.145 E16.2048
G1 X157.374 Y82.145 E16.2257
G1 X156.808 Y82.145 E16.2465
G0 X156.231 Y81.873 F7200
G1 X156.194 Y82.759 E16.2696 F3600
G1 X156.195 Y83.324 E16.2903
G1 X156.195 Y83.889 E16.3111
G1 X156.195 Y84.455 E16.3319
G1 X156.195 Y85.021 E16.3527
G1 X156.195 Y85.586 E16.3736
G1 X156.195 Y86.152 E16.3944
G1 X156.195 Y86.718 E16.4152
G1 X156.195 Y87.283 E16.4360
G1 X156.195 Y87.849 E16.4569
G1 X156.195 Y88.415 E16.4777
G1 X156.195 Y88.980 E16.4985
G1 X156.195 Y89.546 E16.5193
G1 X156.195 Y90.112 E16.5402
G1 X156.195 Y90.677 E16.5610
G1 X156.195 Y91.243 E16.5818
G1 X156.195 Y91.809 E16.6026
G1 X156.182 Y92.388 E16.6235
G0 X155.685 Y93.450 F7200
G1 X156.391 Y92.745 E16.6567 F3600
G0 X156.145 Y93.556 F7200
G1 X154.906 Y94.795 E16.7150 F3600
G0 X154.094 Y95.041 F7200
G1 X154.801 Y94.335 E16.7482 F3600
G0 X154.027 Y94.825 F7200
G1 X153.159 Y94.845 E16.7702 F3600
G1 X152.593 Y94.845 E16.7911
G1 X152.028 Y94.845 E16.8119
G1 X151.462 Y94.845 E16.8327
G1 X150.896 Y94.845 E16.8535
G1 X150.330 Y94.845 E16.8744
G1 X149.765 Y94.845 E16.8952
G1 X149.199 Y94.845 E16.9160
G1 X148.633 Y94.845 E16.9369
G1 X148.068 Y94.845 E16.9577
G1 X147.502 Y94.845 E16.9785
G1 X146.936 Y94.845 E16.9993
G1 X146.371 Y94.845 E17.0202
G1 X145.805 Y94.845 E17.0410
G1 X145.239 Y94.845 E17.0618
G1 X144.674 Y94.845 E17.0826
G1 X144.108 Y94.845 E17.1035
G0 X143.530 Y94.574 F7200
G1 X143.495 Y95.458 E17.1265 F3600
G1 X143.495 Y96.024 E17.1473
G1 X143.495 Y96.589 E17.1682
G1 X143.495 Y97.155 E17.1890
G1 X143.495 Y97.721 E17.2099
G1 X143.495 Y98.286 E17.2307
G1 X143.495 Y98.852 E17.2515
G1 X143.495 Y99.418 E17.2724
G1 X143.495 Y99.983 E17.2932
G1 X143.495 Y100.549 E17.3140
G1 X143.495 Y101.115 E17.3349
G1 X143.495 Y101.680 E17.3557
G1 X143.495 Y102.246 E17.3766
G1 X143.495 Y102.812 E17.3974
G1 X143.495 Y103.378 E17.4182
G1 X143.495 Y103.943 E17.4391
G1 X143.495 Y104.509 E17.4599
G1 X143.495 Y105.075 E17.4807
G1 X143.495 Y105.640 E17.5016
G1 X143.495 Y106.206 E17.5224
G1 X143.495 Y106.772 E17.5433
G1 X143.495 Y107.337 E17.5641
G1 X143.495 Y107.903 E17.5849
G1 X143.495 Y108.469 E17.6058
G1 X143.495 Y109.034 E17.6266
G1 X143.495 Y109.600 E17.6474
G1 X143.495 Y110.166 E17.6683
G1 X143.495 Y110.731 E17.6891
G1 X143.495 Y111.297 E17.7100
G1 X143.495 Y111.863 E17.7308
G1 X143.495 Y112.428 E17.7516
G1 X143.495 Y112.994 E17.7725
G1 X143.495 Y113.560 E17.7933
G1 X143.495 Y114.126 E17.8141
G1 X143.495 Y114.691 E17.8350
G1 X143.495 Y115.257 E17.8558
G1 X143.495 Y115.823 E17.8767
G1 X143.495 Y116.388 E17.8975
G1 X143.495 Y116.954 E17.9183
G1 X143.501 Y117.514 E17.9392
G1 X143.736 Y117.845 E17.9595
; ------------------------------------
; Layer #6
; ------------------------------------
G92 E0 ;reset extr
;segType:Infill
G0 F3000 E-1.0000
G0 F1200 Z1.400
G0 X143.523 Y109.032 F7200
G0 F3000 E0.0000
G1 X152.318 Y117.827 E0.4964 F4500
;segType:Perimeter
G0 X154.595 Y118.269 F7200
G1 X154.001 Y118.804 E0.5230 F2160
G1 X153.716 Y118.850 E0.5326
G1 X143.586 Y118.850 E0.8696
G1 X143.240 Y118.795 E0.8812
G1 X142.943 Y118.643 E0.8923
G1 X142.707 Y118.407 E0.9034
G1 X142.555 Y118.110 E0.9145
G1 X142.501 Y117.766 E0.9261
G1 X142.501 Y94.936 E1.6854
G1 X142.555 Y94.590 E1.6970
G1 X142.707 Y94.293 E1.7082
G1 X142.943 Y94.057 E1.7193
G1 X143.240 Y93.905 E1.7304
G1 X143.586 Y93.850 E1.7420
G1 X153.748 Y93.850 E2.0800
G1 X154.185 Y93.781 E2.0947
G1 X154.596 Y93.571 E2.1100
G1 X154.923 Y93.244 E2.1254
G1 X155.131 Y92.835 E2.1407
G1 X155.200 Y92.396 E2.1555
G1 X155.200 Y82.236 E2.4934
G1 X155.255 Y81.890 E2.5051
G1 X155.407 Y81.593 E2.5162
G1 X155.643 Y81.357 E2.5273
G1 X155.940 Y81.205 E2.5384
G1 X156.284 Y81.150 E2.5499
G1 X166.414 Y81.150 E2.8869
G1 X166.760 Y81.205 E2.8985
G1 X167.057 Y81.357 E2.9096
G1 X167.293 Y81.593 E2.9207
G1 X167.445 Y81.890 E2.9318
G1 X167.499 Y82.234 E2.9434
G1 X167.499 Y105.064 E3.7027
G1 X167.445 Y105.410 E3.7144
G1 X167.293 Y105.707 E3.7255
G1 X167.057 Y105.943 E3.7366
G1 X166.760 Y106.095 E3.7477
G1 X166.414 Y106.150 E3.7593
G1 X156.252 Y106.150 E4.0973
G1 X155.815 Y106.219 E4.1120
G1 X155.404 Y106.429 E4.1274
G1 X155.077 Y106.756 E4.1428
G1 X154.869 Y107.165 E4.1580
G1 X154.800 Y107.604 E4.1728
G1 X154.800 Y117.764 E4.5107
G1 X154.745 Y118.110 E4.5224
G1 X154.593 Y118.407 E4.5335
G1 X154.357 Y118.643 E4.5446
G1 X154.113 Y118.768 E4.5537
G0 X153.318 Y118.685 F7200
;segType:Loop
G0 X152.964 Y118.450
G1 X143.617 Y118.450 E4.8646 F3600
G1 X143.365 Y118.410 E4.8730
G1 X143.181 Y118.316 E4.8799
G1 X143.034 Y118.169 E4.8868
G1 X142.940 Y117.984 E4.8937
G1 X142.901 Y117.735 E4.9021
G1 X142.901 Y94.967 E5.6594
G1 X142.940 Y94.715 E5.6679
G1 X143.034 Y94.531 E5.6748
G1 X143.181 Y94.384 E5.6816
G1 X143.365 Y94.290 E5.6885
G1 X143.617 Y94.250 E5.6970
G1 X153.779 Y94.250 E6.0350
G1 X154.311 Y94.166 E6.0529
G1 X154.834 Y93.899 E6.0724
G1 X155.250 Y93.482 E6.0920
G1 X155.516 Y92.960 E6.1115
G1 X155.600 Y92.427 E6.1295
G1 X155.600 Y82.267 E6.4674
G1 X155.640 Y82.015 E6.4759
G1 X155.734 Y81.831 E6.4828
G1 X155.881 Y81.684 E6.4896
G1 X156.066 Y81.590 E6.4965
G1 X156.316 Y81.550 E6.5050
G1 X166.383 Y81.550 E6.8398
G1 X166.635 Y81.590 E6.8483
G1 X166.819 Y81.684 E6.8552
G1 X166.966 Y81.831 E6.8621
G1 X167.060 Y82.016 E6.8690
G1 X167.099 Y82.265 E6.8774
G1 X167.099 Y105.033 E7.6346
G1 X167.060 Y105.285 E7.6431
G1 X166.966 Y105.469 E7.6500
G1 X166.819 Y105.616 E7.6569
G1 X166.635 Y105.710 E7.6638
G1 X166.383 Y105.750 E7.6722
G1 X156.221 Y105.750 E8.0102
G1 X155.689 Y105.834 E8.0281
G1 X155.166 Y106.101 E8.0477
G1 X154.750 Y106.518 E8.0673
G1 X154.484 Y107.040 E8.0867
G1 X154.400 Y107.573 E8.1047
G1 X154.400 Y117.733 E8.4426
G1 X154.360 Y117.985 E8.4511
G1 X154.266 Y118.169 E8.4580
G1 X154.119 Y118.316 E8.4649
G1 X153.934 Y118.410 E8.4718
G1 X153.684 Y118.450 E8.4802
G1 X153.164 Y118.450 E8.4975
;segType:Infill
G0 X153.777 Y114.760 F7200
G1 X143.523 Y104.506 E9.0763 F4500
G0 X155.631 Y93.986 F7200
G1 X166.477 Y104.832 E9.6885 F4500
G0 X166.477 Y100.307 F7200
G1 X156.223 Y90.053 E10.2672 F4500
G0 X161.919 Y82.173 F7200
G1 X166.477 Y86.730 E10.5244 F4500
G0 X166.477 Y91.256 F7200
G1 X157.394 Y82.173 E11.0371 F4500
G0 X156.223 Y85.528 F7200
G1 X166.477 Y95.781 E11.6159 F4500
G0 X162.246 Y105.127 F7200
G1 X151.992 Y94.873 E12.1946 F4500
G0 X147.466 Y94.873 F7200
G1 X157.720 Y105.127 E12.7734 F4500
G0 X154.239 Y106.171 F7200
G1 X143.523 Y95.455 E13.3783 F4500
G0 X143.523 Y99.981 F7200
G1 X153.777 Y110.234 E13.9570 F4500
G0 X143.523 Y113.557 F7200
G1 X147.793 Y117.827 E14.1980 F4500
;segType:HShell
G0 X166.739 Y82.468 F7200
G1 X166.182 Y81.911 E14.2242 F3600
; ------------------------------------
; Layer #7
; ------------------------------------
G92 E0 ;reset extr
;segType:HShell
G0 F3000 E-1.0000
G0 F1200 Z1.600
G0 X153.677 Y118.086 F7200
G0 F3000 E0.0000
G1 X154.036 Y117.727 E0.0169 F3600
;segType:Infill
G0 X152.112 Y117.954 F7200
G1 X153.904 Y116.162 E0.1180 F4500
;segType:Loop
G0 X152.964 Y118.450 F7200
G1 X143.617 Y118.450 E0.4289 F3600
G1 X143.365 Y118.410 E0.4374
G1 X143.181 Y118.316 E0.4443
G1 X143.034 Y118.169 E0.4511
G1 X142.940 Y117.985 E0.4580
G1 X142.901 Y117.733 E0.4665
G1 X142.901 Y94.967 E1.2237
G1 X142.940 Y94.715 E1.2322
G1 X143.034 Y94.531 E1.2391
G1 X143.181 Y94.384 E1.2460
G1 X143.365 Y94.290 E1.2528
G1 X143.617 Y94.250 E1.2613
G1 X153.777 Y94.250 E1.5993
G1 X154.310 Y94.166 E1.6172
G1 X154.834 Y93.899 E1.6367
G1 X155.249 Y93.484 E1.6563
G1 X155.516 Y92.960 E1.6758
G1 X155.600 Y92.427 E1.6938
G1 X155.600 Y82.267 E2.0317
G1 X155.640 Y82.015 E2.0402
G1 X155.734 Y81.831 E2.0471
G1 X155.881 Y81.684 E2.0540
G1 X156.065 Y81.590 E2.0608
G1 X156.317 Y81.550 E2.0693
G1 X166.383 Y81.550 E2.4041
G1 X166.635 Y81.590 E2.4126
G1 X166.819 Y81.684 E2.4195
G1 X166.966 Y81.831 E2.4264
G1 X167.060 Y82.015 E2.4333
G1 X167.099 Y82.267 E2.4417
G1 X167.099 Y105.033 E3.1989
G1 X167.060 Y105.285 E3.2074
G1 X166.966 Y105.469 E3.2143
G1 X166.819 Y105.616 E3.2212
G1 X166.635 Y105.710 E3.2281
G1 X166.383 Y105.750 E3.2366
G1 X156.223 Y105.750 E3.5745
G1 X155.690 Y105.834 E3.5924
G1 X155.166 Y106.101 E3.6120
G1 X154.751 Y106.516 E3.6315
G1 X154.484 Y107.040 E3.6511
G1 X154.400 Y107.573 E3.6690
G1 X154.400 Y117.733 E4.0069
G1 X154.360 Y117.985 E4.0154
G1 X154.266 Y118.169 E4.0223
G1 X154.119 Y118.316 E4.0292
G1 X153.935 Y118.410 E4.0361
G1 X153.683 Y118.450 E4.0446
G1 X153.164 Y118.450 E4.0618
;segType:Perimeter
G0 X154.595 Y118.269 F7200
G1 X154.001 Y118.804 E4.0884 F2160
G1 X153.714 Y118.850 E4.0981
G1 X143.586 Y118.850 E4.4349
G1 X143.240 Y118.795 E4.4466
G1 X142.943 Y118.643 E4.4577
G1 X142.707 Y118.407 E4.4688
G1 X142.555 Y118.110 E4.4799
G1 X142.501 Y117.764 E4.4915
G1 X142.501 Y94.936 E5.2508
G1 X142.555 Y94.590 E5.2624
G1 X142.707 Y94.293 E5.2735
G1 X142.943 Y94.057 E5.2846
G1 X143.240 Y93.905 E5.2957
G1 X143.586 Y93.850 E5.3074
G1 X153.746 Y93.850 E5.6453
G1 X154.185 Y93.781 E5.6601
G1 X154.596 Y93.572 E5.6754
G1 X154.922 Y93.246 E5.6908
G1 X155.131 Y92.835 E5.7061
G1 X155.200 Y92.396 E5.7209
G1 X155.200 Y82.236 E6.0588
G1 X155.255 Y81.890 E6.0704
G1 X155.407 Y81.593 E6.0815
G1 X155.643 Y81.357 E6.0926
G1 X155.940 Y81.205 E6.1037
G1 X156.286 Y81.150 E6.1154
G1 X166.414 Y81.150 E6.4523
G1 X166.760 Y81.205 E6.4639
G1 X167.057 Y81.357 E6.4750
G1 X167.293 Y81.593 E6.4861
G1 X167.445 Y81.890 E6.4972
G1 X167.499 Y82.236 E6.5088
G1 X167.499 Y105.064 E7.2681
G1 X167.445 Y105.410 E7.2797
G1 X167.293 Y105.707 E7.2909
G1 X167.057 Y105.943 E7.3020
G1 X166.760 Y106.095 E7.3131
G1 X166.414 Y106.150 E7.3247
G1 X156.254 Y106.150 E7.6626
G1 X155.815 Y106.219 E7.6774
G1 X155.404 Y106.428 E7.6927
G1 X155.078 Y106.754 E7.7081
G1 X154.869 Y107.165 E7.7234
G1 X154.800 Y107.604 E7.7382
G1 X154.800 Y117.764 E8.0761
G1 X154.745 Y118.110 E8.0878
G1 X154.593 Y118.407 E8.0989
G1 X154.357 Y118.643 E8.1100
G1 X154.113 Y118.768 E8.1191
G0 X153.318 Y118.684 F7200
;segType:Infill
G0 X153.904 Y111.637
G1 X147.587 Y117.954 E8.4756 F4500
G0 X143.396 Y117.619 F7200
G1 X153.985 Y107.030 E9.0733 F4500
G0 X154.535 Y106.939 F7200
G0 X154.751 Y106.516
G0 X155.166 Y106.101
G0 X155.690 Y105.834
G0 X156.223 Y105.750
G0 X161.789 Y105.750
G0 X161.789 Y105.750
G0 X164.825 Y105.252
G0 X164.812 Y105.254
G1 X166.604 Y103.462 E9.1745 F4500
G0 X166.604 Y98.937 F7200
G1 X160.287 Y105.254 E9.5310 F4500
G0 X155.680 Y105.335 F7200
G1 X166.604 Y94.411 E10.1476 F4500
G0 X156.096 Y86.817 F7200
G1 X160.867 Y82.046 E10.4169 F4500
G0 X165.392 Y82.046 F7200
G1 X156.096 Y91.342 E10.9416 F4500
G0 X155.600 Y91.838 F7200
G0 X155.600 Y92.427
G0 X155.516 Y92.960
G0 X155.249 Y93.484
G0 X154.834 Y93.899
G0 X154.310 Y94.166
G0 X153.777 Y94.250
G0 X153.188 Y94.250
G0 X153.188 Y94.250
G0 X152.683 Y94.755
G0 X152.692 Y94.746
G1 X143.396 Y104.042 E11.4663 F4500
G0 X143.396 Y99.517 F7200
G1 X148.167 Y94.746 E11.7356 F4500
G0 X143.396 Y108.568 F7200
G1 X166.604 Y85.360 E13.0455 F4500
G0 X166.604 Y89.886 F7200
G1 X143.396 Y113.093 E14.3555 F4500
G0 X154.400 Y109.400 F7200
G0 X154.400 Y107.573
G0 X154.484 Y107.040
G0 X154.751 Y106.516
G0 X155.166 Y106.101
G0 X155.690 Y105.834
G0 X156.223 Y105.750
G0 X165.273 Y105.750
G0 X165.273 Y105.750
G0 X166.399 Y105.371
;segType:HShell
G0 X166.388 Y105.375
G1 X166.736 Y105.027 E14.3718 F3600
G0 X155.962 Y93.174 F7200
G1 X155.655 Y93.481 E14.3862 F3600
G0 X154.831 Y94.305 F7200
G1 X154.524 Y94.612 E14.4007 F3600
; ------------------------------------
; Layer #8
; ------------------------------------
G92 E0 ;reset extr
;segType:Infill
G0 F3000 E-1.0000
G0 F1200 Z1.800
G0 X143.317 Y108.826 F7200
G0 F3000 E0.0000
G1 X152.524 Y118.033 E0.5197 F4500
;segType:Perimeter
G0 X154.595 Y118.269 F7200
G1 X154.001 Y118.804 E0.5463 F2160
G1 X153.714 Y118.850 E0.5559
G1 X143.586 Y118.850 E0.8928
G1 X143.240 Y118.795 E0.9044
G1 X142.943 Y118.643 E0.9155
G1 X142.707 Y118.407 E0.9266
G1 X142.555 Y118.110 E0.9378
G1 X142.501 Y117.764 E0.9494
G1 X142.501 Y94.936 E1.7087
G1 X142.555 Y94.590 E1.7203
G1 X142.707 Y94.293 E1.7314
G1 X142.943 Y94.057 E1.7425
G1 X143.240 Y93.905 E1.7536
G1 X143.586 Y93.850 E1.7652
G1 X153.746 Y93.850 E2.1032
G1 X154.185 Y93.781 E2.1180
G1 X154.596 Y93.572 E2.1333
G1 X154.922 Y93.246 E2.1486
G1 X155.131 Y92.835 E2.1639
G1 X155.200 Y92.396 E2.1787
G1 X155.200 Y82.236 E2.5167
G1 X155.255 Y81.890 E2.5283
G1 X155.407 Y81.593 E2.5394
G1 X155.643 Y81.357 E2.5505
G1 X155.940 Y81.205 E2.5616
G1 X156.286 Y81.150 E2.5733
G1 X166.414 Y81.150 E2.9101
G1 X166.760 Y81.205 E2.9218
G1 X167.057 Y81.357 E2.9329
G1 X167.293 Y81.593 E2.9440
G1 X167.445 Y81.890 E2.9551
G1 X167.499 Y82.236 E2.9667
G1 X167.499 Y105.064 E3.7260
G1 X167.445 Y105.410 E3.7376
G1 X167.293 Y105.707 E3.7487
G1 X167.057 Y105.943 E3.7598
G1 X166.760 Y106.095 E3.7709
G1 X166.414 Y106.150 E3.7826
G1 X156.254 Y106.150 E4.1205
G1 X155.815 Y106.219 E4.1353
G1 X155.404 Y106.428 E4.1506
G1 X155.078 Y106.754 E4.1659
G1 X154.869 Y107.165 E4.1813
G1 X154.800 Y107.604 E4.1961
G1 X154.800 Y117.764 E4.5340
G1 X154.745 Y118.110 E4.5456
G1 X154.593 Y118.407 E4.5567
G1 X154.357 Y118.643 E4.5678
G1 X154.113 Y118.768 E4.5769
G0 X153.318 Y118.684 F7200
;segType:Loop
G0 X152.964 Y118.450
G1 X143.617 Y118.450 E4.8878 F3600
G1 X143.365 Y118.410 E4.8963
G1 X143.181 Y118.316 E4.9032
G1 X143.034 Y118.169 E4.9101
G1 X142.940 Y117.985 E4.9170
G1 X142.901 Y117.733 E4.9254
G1 X142.901 Y94.967 E5.6826
G1 X142.940 Y94.715 E5.6911
G1 X143.034 Y94.531 E5.6980
G1 X143.181 Y94.384 E5.7049
G1 X143.365 Y94.290 E5.7118
G1 X143.617 Y94.250 E5.7203
G1 X153.777 Y94.250 E6.0582
G1 X154.310 Y94.166 E6.0761
G1 X154.834 Y93.899 E6.0957
G1 X155.249 Y93.484 E6.1152
G1 X155.516 Y92.960 E6.1348
G1 X155.600 Y92.427 E6.1527
G1 X155.600 Y82.267 E6.4906
G1 X155.640 Y82.015 E6.4991
G1 X155.734 Y81.831 E6.5060
G1 X155.881 Y81.684 E6.5129
G1 X156.065 Y81.590 E6.5198
G1 X156.317 Y81.550 E6.5283
G1 X166.383 Y81.550 E6.8630
G1 X166.635 Y81.590 E6.8715
G1 X166.819 Y81.684 E6.8784
G1 X166.966 Y81.831 E6.8853
G1 X167.060 Y82.015 E6.8922
G1 X167.099 Y82.267 E6.9007
G1 X167.099 Y105.033 E7.6579
G1 X167.060 Y105.285 E7.6663
G1 X166.966 Y105.469 E7.6732
G1 X166.819 Y105.616 E7.6801
G1 X166.635 Y105.710 E7.6870
G1 X166.383 Y105.750 E7.6955
G1 X156.223 Y105.750 E8.0334
G1 X155.690 Y105.834 E8.0514
G1 X155.166 Y106.101 E8.0709
G1 X154.751 Y106.516 E8.0904
G1 X154.484 Y107.040 E8.1100
G1 X154.400 Y107.573 E8.1279
G1 X154.400 Y117.733 E8.4659
G1 X154.360 Y117.985 E8.4743
G1 X154.266 Y118.169 E8.4812
G1 X154.119 Y118.316 E8.4881
G1 X153.935 Y118.410 E8.4950
G1 X153.683 Y118.450 E8.5035
G1 X153.164 Y118.450 E8.5207
;segType:Infill
G0 X153.983 Y114.966 F7200
G1 X143.317 Y104.300 E9.1227 F4500
G0 X143.317 Y99.775 F7200
G1 X153.983 Y110.440 E9.7248 F4500
G0 X154.400 Y109.900 F7200
G0 X154.400 Y107.573
G0 X154.484 Y107.040
G0 X154.751 Y106.516
G0 X155.166 Y106.101
G0 X155.690 Y105.834
G0 X156.223 Y105.750
G0 X157.604 Y105.750
G0 X157.604 Y105.750
G0 X157.934 Y105.323
G0 X157.926 Y105.333
G1 X147.261 Y94.667 E10.3268 F4500
G0 X151.786 Y94.667 F7200
G1 X162.452 Y105.333 E10.9288 F4500
G0 X166.673 Y105.029 F7200
G1 X155.483 Y93.839 E11.5604 F4500
G0 X166.683 Y82.411 F7200
G1 X166.239 Y81.967 E11.5854 F4500
G0 X161.714 Y81.967 F7200
G1 X166.683 Y86.937 E11.8659 F4500
G0 X166.683 Y91.462 F7200
G1 X157.188 Y81.967 E12.4018 F4500
G0 X156.017 Y85.322 F7200
G1 X166.683 Y95.988 E13.0038 F4500
G0 X166.683 Y100.513 F7200
G1 X156.017 Y89.847 E13.6058 F4500
G0 X155.600 Y90.025 F7200
G0 X155.600 Y92.427
G0 X155.516 Y92.960
G0 X155.249 Y93.484
G0 X154.834 Y93.899
G0 X154.310 Y94.166
G0 X153.777 Y94.250
G0 X145.666 Y94.250
G0 X145.666 Y94.250
G0 X143.306 Y95.254
G0 X143.317 Y95.249
G1 X154.385 Y106.317 E14.2305 F4500
G0 X143.317 Y113.351 F7200
G1 X147.999 Y118.033 E14.4948 F4500
; ------------------------------------
; Layer #9
; ------------------------------------
G92 E0 ;reset extr
;segType:Infill
G0 F3000 E-1.0000
G0 F1200 Z2.000
G0 X151.990 Y118.076 F7200
G0 F3000 E0.0000
G1 X154.026 Y116.040 E0.1149 F4500
;segType:Loop
G0 X152.964 Y118.450 F7200
G1 X143.617 Y118.450 E0.4258 F3600
G1 X143.365 Y118.410 E0.4343
G1 X143.181 Y118.316 E0.4412
G1 X143.034 Y118.169 E0.4481
G1 X142.940 Y117.985 E0.4550
G1 X142.901 Y117.733 E0.4634
G1 X142.901 Y94.967 E1.2206
G1 X142.940 Y94.715 E1.2291
G1 X143.034 Y94.531 E1.2360
G1 X143.181 Y94.384 E1.2429
G1 X143.365 Y94.290 E1.2498
G1 X143.617 Y94.250 E1.2583
G1 X153.777 Y94.250 E1.5962
G1 X154.310 Y94.166 E1.6141
G1 X154.834 Y93.899 E1.6337
G1 X155.249 Y93.484 E1.6532
G1 X155.516 Y92.960 E1.6728
G1 X155.600 Y92.427 E1.6907
G1 X155.600 Y82.267 E2.0286
G1 X155.640 Y82.015 E2.0371
G1 X155.734 Y81.831 E2.0440
G1 X155.881 Y81.684 E2.0509
G1 X156.065 Y81.590 E2.0578
G1 X156.317 Y81.550 E2.0663
G1 X166.383 Y81.550 E2.4010
G1 X166.635 Y81.590 E2.4095
G1 X166.819 Y81.684 E2.4164
G1 X166.966 Y81.831 E2.4233
G1 X167.060 Y82.015 E2.4302
G1 X167.099 Y82.267 E2.4387
G1 X167.099 Y105.033 E3.1959
G1 X167.060 Y105.285 E3.2043
G1 X166.966 Y105.469 E3.2112
G1 X166.819 Y105.616 E3.2181
G1 X166.635 Y105.710 E3.2250
G1 X166.383 Y105.750 E3.2335
G1 X156.223 Y105.750 E3.5714
G1 X155.690 Y105.834 E3.5894
G1 X155.166 Y106.101 E3.6089
G1 X154.751 Y106.516 E3.6284
G1 X154.484 Y107.040 E3.6480
G1 X154.400 Y107.573 E3.6659
G1 X154.400 Y117.733 E4.0039
G1 X154.360 Y117.985 E4.0123
G1 X154.266 Y118.169 E4.0192
G1 X154.119 Y118.316 E4.0261
G1 X153.935 Y118.410 E4.0330
G1 X153.683 Y118.450 E4.0415
G1 X153.164 Y118.450 E4.0587
;segType:Perimeter
G0 X154.595 Y118.269 F7200
G1 X154.001 Y118.804 E4.0853 F2160
G1 X153.714 Y118.850 E4.0950
G1 X143.586 Y118.850 E4.4319
G1 X143.240 Y118.795 E4.4435
G1 X142.943 Y118.643 E4.4546
G1 X142.707 Y118.407 E4.4657
G1 X142.555 Y118.110 E4.4768
G1 X142.501 Y117.764 E4.4884
G1 X142.501 Y94.936 E5.2477
G1 X142.555 Y94.590 E5.2594
G1 X142.707 Y94.293 E5.2705
G1 X142.943 Y94.057 E5.2816
G1 X143.240 Y93.905 E5.2927
G1 X143.586 Y93.850 E5.3043
G1 X153.746 Y93.850 E5.6422
G1 X154.185 Y93.781 E5.6570
G1 X154.596 Y93.572 E5.6724
G1 X154.922 Y93.246 E5.6877
G1 X155.131 Y92.835 E5.7030
G1 X155.200 Y92.396 E5.7178
G1 X155.200 Y82.236 E6.0557
G1 X155.255 Y81.890 E6.0674
G1 X155.407 Y81.593 E6.0785
G1 X155.643 Y81.357 E6.0896
G1 X155.940 Y81.205 E6.1007
G1 X156.286 Y81.150 E6.1123
G1 X166.414 Y81.150 E6.4492
G1 X166.760 Y81.205 E6.4608
G1 X167.057 Y81.357 E6.4719
G1 X167.293 Y81.593 E6.4830
G1 X167.445 Y81.890 E6.4941
G1 X167.499 Y82.236 E6.5058
G1 X167.499 Y105.064 E7.2650
G1 X167.445 Y105.410 E7.2767
G1 X167.293 Y105.707 E7.2878
G1 X167.057 Y105.943 E7.2989
G1 X166.760 Y106.095 E7.3100
G1 X166.414 Y106.150 E7.3216
G1 X156.254 Y106.150 E7.6596
G1 X155.815 Y106.219 E7.6744
G1 X155.404 Y106.428 E7.6897
G1 X155.078 Y106.754 E7.7050
G1 X154.869 Y107.165 E7.7203
G1 X154.800 Y107.604 E7.7351
G1 X154.800 Y117.764 E8.0730
G1 X154.745 Y118.110 E8.0847
G1 X154.593 Y118.407 E8.0958
G1 X154.357 Y118.643 E8.1069
G1 X154.113 Y118.768 E8.1160
G0 X153.318 Y118.684 F7200
;segType:Infill
G0 X154.026 Y111.514
G1 X147.464 Y118.076 E8.4864 F4500
G0 X143.285 Y117.730 F7200
G1 X154.158 Y106.857 E9.1001 F4500
G0 X143.274 Y95.114 F7200
G1 X143.764 Y94.624 E9.1277 F4500
G0 X148.289 Y94.624 F7200
G1 X143.274 Y99.639 E9.4108 F4500
G0 X143.274 Y104.165 F7200
G1 X152.815 Y94.624 E9.9494 F4500
G0 X153.188 Y94.250 F7200
G0 X153.777 Y94.250
G0 X154.310 Y94.166
G0 X154.834 Y93.899
G0 X155.249 Y93.484
G0 X155.516 Y92.960
G0 X155.600 Y92.427
G0 X155.600 Y91.838
G0 X155.600 Y91.838
G0 X155.983 Y91.456
G0 X155.974 Y91.465
G1 X165.515 Y81.924 E10.4879 F4500
G0 X166.726 Y85.238 F7200
G1 X143.274 Y108.690 E11.8116 F4500
G0 X143.274 Y113.216 F7200
G1 X166.726 Y89.763 E13.1354 F4500
G0 X155.974 Y82.414 F7200
G1 X156.464 Y81.924 E13.1630 F4500
G0 X160.989 Y81.924 F7200
G1 X155.974 Y86.939 E13.4461 F4500
G0 X166.726 Y94.289 F7200
G1 X155.507 Y105.508 E14.0794 F4500
G0 X160.164 Y105.376 F7200
G1 X166.726 Y98.814 E14.4498 F4500
G0 X166.726 Y103.340 F7200
G1 X164.690 Y105.376 E14.5647 F4500
; ------------------------------------
; Layer #10
; ------------------------------------
G92 E0 ;reset extr
;segType:Infill
G0 F3000 E-1.0000
G0 F1200 Z2.200
G0 X143.261 Y108.769 F7200
G0 F3000 E0.0000
G1 X152.581 Y118.089 E0.5261 F4500
;segType:Perimeter
G0 X154.595 Y118.269 F7200
G1 X154.001 Y118.804 E0.5527 F2160
G1 X153.714 Y118.850 E0.5623
G1 X143.586 Y118.850 E0.8992
G1 X143.240 Y118.795 E0.9108
G1 X142.943 Y118.643 E0.9219
G1 X142.707 Y118.407 E0.9330
G1 X142.555 Y118.110 E0.9441
G1 X142.501 Y117.764 E0.9558
G1 X142.501 Y94.936 E1.7151
G1 X142.555 Y94.590 E1.7267
G1 X142.707 Y94.293 E1.7378
G1 X142.943 Y94.057 E1.7489
G1 X143.240 Y93.905 E1.7600
G1 X143.586 Y93.850 E1.7716
G1 X153.746 Y93.850 E2.1096
G1 X154.185 Y93.781 E2.1244
G1 X154.596 Y93.572 E2.1397
G1 X154.922 Y93.246 E2.1550
G1 X155.131 Y92.835 E2.1703
G1 X155.200 Y92.396 E2.1851
G1 X155.200 Y82.236 E2.5231
G1 X155.255 Y81.890 E2.5347
G1 X155.407 Y81.593 E2.5458
G1 X155.643 Y81.357 E2.5569
G1 X155.940 Y81.205 E2.5680
G1 X156.286 Y81.150 E2.5796
G1 X166.414 Y81.150 E2.9165
G1 X166.760 Y81.205 E2.9282
G1 X167.057 Y81.357 E2.9393
G1 X167.293 Y81.593 E2.9504
G1 X167.445 Y81.890 E2.9615
G1 X167.499 Y82.236 E2.9731
G1 X167.499 Y105.064 E3.7324
G1 X167.445 Y105.410 E3.7440
G1 X167.293 Y105.707 E3.7551
G1 X167.057 Y105.943 E3.7662
G1 X166.760 Y106.095 E3.7773
G1 X166.414 Y106.150 E3.7890
G1 X156.254 Y106.150 E4.1269
G1 X155.815 Y106.219 E4.1417
G1 X155.404 Y106.428 E4.1570
G1 X155.078 Y106.754 E4.1723
G1 X154.869 Y107.165 E4.1877
G1 X154.800 Y107.604 E4.2025
G1 X154.800 Y117.764 E4.5404
G1 X154.745 Y118.110 E4.5520
G1 X154.593 Y118.407 E4.5631
G1 X154.357 Y118.643 E4.5742
G1 X154.113 Y118.768 E4.5833
G0 X153.318 Y118.684 F7200
;segType:Loop
G0 X152.964 Y118.450
G1 X143.617 Y118.450 E4.8942 F3600
G1 X143.365 Y118.410 E4.9027
G1 X143.181 Y118.316 E4.9096
G1 X143.034 Y118.169 E4.9165
G1 X142.940 Y117.985 E4.9234
G1 X142.901 Y117.733 E4.9318
G1 X142.901 Y94.967 E5.6890
G1 X142.940 Y94.715 E5.6975
G1 X143.034 Y94.531 E5.7044
G1 X143.181 Y94.384 E5.7113
G1 X143.365 Y94.290 E5.7182
G1 X143.617 Y94.250 E5.7267
G1 X153.777 Y94.250 E6.0646
G1 X154.310 Y94.166 E6.0825
G1 X154.834 Y93.899 E6.1021
G1 X155.249 Y93.484 E6.1216
G1 X155.516 Y92.960 E6.1412
G1 X155.600 Y92.427 E6.1591
G1 X155.600 Y82.267 E6.4970
G1 X155.640 Y82.015 E6.5055
G1 X155.734 Y81.831 E6.5124
G1 X155.881 Y81.684 E6.5193
G1 X156.065 Y81.590 E6.5262
G1 X156.317 Y81.550 E6.5347
G1 X166.383 Y81.550 E6.8694
G1 X166.635 Y81.590 E6.8779
G1 X166.819 Y81.684 E6.8848
G1 X166.966 Y81.831 E6.8917
G1 X167.060 Y82.015 E6.8986
G1 X167.099 Y82.267 E6.9071
G1 X167.099 Y105.033 E7.6643
G1 X167.060 Y105.285 E7.6727
G1 X166.966 Y105.469 E7.6796
G1 X166.819 Y105.616 E7.6865
G1 X166.635 Y105.710 E7.6934
G1 X166.383 Y105.750 E7.7019
G1 X156.223 Y105.750 E8.0398
G1 X155.690 Y105.834 E8.0578
G1 X155.166 Y106.101 E8.0773
G1 X154.751 Y106.516 E8.0968
G1 X154.484 Y107.040 E8.1164
G1 X154.400 Y107.573 E8.1343
G1 X154.400 Y117.733 E8.4723
G1 X154.360 Y117.985 E8.4807
G1 X154.266 Y118.169 E8.4876
G1 X154.119 Y118.316 E8.4945
G1 X153.935 Y118.410 E8.5014
G1 X153.683 Y118.450 E8.5099
G1 X153.164 Y118.450 E8.5271
;segType:Infill
G0 X154.039 Y115.023 F7200
G1 X143.261 Y104.244 E9.1355 F4500
G0 X154.427 Y106.359 F7200
G1 X143.261 Y95.193 E9.7658 F4500
G0 X147.204 Y94.610 F7200
G1 X157.983 Y105.390 E10.3742 F4500
G0 X166.739 Y82.468 F7200
G1 X166.182 Y81.911 E10.4057 F4500
G0 X161.657 Y81.911 F7200
G1 X166.739 Y86.993 E10.6925 F4500
G0 X166.739 Y91.519 F7200
G1 X157.131 Y81.911 E11.2349 F4500
G0 X155.961 Y85.265 F7200
G1 X166.739 Y96.044 E11.8433 F4500
G0 X166.739 Y100.570 F7200
G1 X155.961 Y89.791 E12.4517 F4500
G0 X155.443 Y93.799 F7200
G1 X166.727 Y105.083 E13.0886 F4500
G0 X162.508 Y105.390 F7200
G1 X151.729 Y94.610 E13.6970 F4500
G0 X143.261 Y99.718 F7200
G1 X154.039 Y110.497 E14.3054 F4500
G0 X143.261 Y113.295 F7200
G1 X148.055 Y118.089 E14.5760 F4500
; ------------------------------------
; Layer #11
; ------------------------------------
G92 E0 ;reset extr
;segType:Infill
G0 F3000 E-1.0000
G0 F1200 Z2.400
G0 X151.977 Y118.089 F7200
G0 F3000 E0.0000
G1 X154.039 Y116.026 E0.1164 F4500
;segType:Loop
G0 X152.964 Y118.450 F7200
G1 X143.617 Y118.450 E0.4273 F3600
G1 X143.365 Y118.410 E0.4358
G1 X143.181 Y118.316 E0.4427
G1 X143.034 Y118.169 E0.4496
G1 X142.940 Y117.985 E0.4565
G1 X142.901 Y117.733 E0.4649
G1 X142.901 Y94.967 E1.2221
G1 X142.940 Y94.715 E1.2306
G1 X143.034 Y94.531 E1.2375
G1 X143.181 Y94.384 E1.2444
G1 X143.365 Y94.290 E1.2513
G1 X143.617 Y94.250 E1.2598
G1 X153.777 Y94.250 E1.5977
G1 X154.310 Y94.166 E1.6156
G1 X154.834 Y93.899 E1.6352
G1 X155.249 Y93.484 E1.6547
G1 X155.516 Y92.960 E1.6743
G1 X155.600 Y92.427 E1.6922
G1 X155.600 Y82.267 E2.0301
G1 X155.640 Y82.015 E2.0386
G1 X155.734 Y81.831 E2.0455
G1 X155.881 Y81.684 E2.0524
G1 X156.065 Y81.590 E2.0593
G1 X156.317 Y81.550 E2.0678
G1 X166.383 Y81.550 E2.4026
G1 X166.635 Y81.590 E2.4110
G1 X166.819 Y81.684 E2.4179
G1 X166.966 Y81.831 E2.4248
G1 X167.060 Y82.015 E2.4317
G1 X167.099 Y82.267 E2.4402
G1 X167.099 Y105.033 E3.1974
G1 X167.060 Y105.285 E3.2058
G1 X166.966 Y105.469 E3.2127
G1 X166.819 Y105.616 E3.2196
G1 X166.635 Y105.710 E3.2265
G1 X166.383 Y105.750 E3.2350
G1 X156.223 Y105.750 E3.5729
G1 X155.690 Y105.834 E3.5909
G1 X155.166 Y106.101 E3.6104
G1 X154.751 Y106.516 E3.6300
G1 X154.484 Y107.040 E3.6495
G1 X154.400 Y107.573 E3.6674
G1 X154.400 Y117.733 E4.0054
G1 X154.360 Y117.985 E4.0138
G1 X154.266 Y118.169 E4.0207
G1 X154.119 Y118.316 E4.0276
G1 X153.935 Y118.410 E4.0345
G1 X153.683 Y118.450 E4.0430
G1 X153.164 Y118.450 E4.0602
;segType:Perimeter
G0 X154.595 Y118.269 F7200
G1 X154.001 Y118.804 E4.0869 F2160
G1 X153.714 Y118.850 E4.0965
G1 X143.586 Y118.850 E4.4334
G1 X143.240 Y118.795 E4.4450
G1 X142.943 Y118.643 E4.4561
G1 X142.707 Y118.407 E4.4672
G1 X142.555 Y118.110 E4.4783
G1 X142.501 Y117.764 E4.4900
G1 X142.501 Y94.936 E5.2492
G1 X142.555 Y94.590 E5.2609
G1 X142.707 Y94.293 E5.2720
G1 X142.943 Y94.057 E5.2831
G1 X143.240 Y93.905 E5.2942
G1 X143.586 Y93.850 E5.3058
G1 X153.746 Y93.850 E5.6437
G1 X154.185 Y93.781 E5.6585
G1 X154.596 Y93.572 E5.6739
G1 X154.922 Y93.246 E5.6892
G1 X155.131 Y92.835 E5.7045
G1 X155.200 Y92.396 E5.7193
G1 X155.200 Y82.236 E6.0572
G1 X155.255 Y81.890 E6.0689
G1 X155.407 Y81.593 E6.0800
G1 X155.643 Y81.357 E6.0911
G1 X155.940 Y81.205 E6.1022
G1 X156.286 Y81.150 E6.1138
G1 X166.414 Y81.150 E6.4507
G1 X166.760 Y81.205 E6.4623
G1 X167.057 Y81.357 E6.4734
G1 X167.293 Y81.593 E6.4845
G1 X167.445 Y81.890 E6.4956
G1 X167.499 Y82.236 E6.5073
G1 X167.499 Y105.064 E7.2666
G1 X167.445 Y105.410 E7.2782
G1 X167.293 Y105.707 E7.2893
G1 X167.057 Y105.943 E7.3004
G1 X166.760 Y106.095 E7.3115
G1 X166.414 Y106.150 E7.3231
G1 X156.254 Y106.150 E7.6611
G1 X155.815 Y106.219 E7.6759
G1 X155.404 Y106.428 E7.6912
G1 X155.078 Y106.754 E7.7065
G1 X154.869 Y107.165 E7.7218
G1 X154.800 Y107.604 E7.7366
G1 X154.800 Y117.764 E8.0746
G1 X154.745 Y118.110 E8.0862
G1 X154.593 Y118.407 E8.0973
G1 X154.357 Y118.643 E8.1084
G1 X154.113 Y118.768 E8.1175
G0 X153.318 Y118.684 F7200
;segType:Infill
G0 X154.039 Y111.501
G1 X147.451 Y118.089 E8.4894 F4500
G0 X143.267 Y117.748 F7200
G1 X154.188 Y106.827 E9.1058 F4500
G0 X155.477 Y105.538 F7200
G1 X166.739 Y94.276 E9.7415 F4500
G0 X166.739 Y89.750 F7200
G1 X143.261 Y113.229 E11.0668 F4500
G0 X143.261 Y108.703 F7200
G1 X166.739 Y85.225 E12.3920 F4500
G0 X165.528 Y81.911 F7200
G1 X155.961 Y91.478 E12.9320 F4500
G0 X155.961 Y86.953 F7200
G1 X161.002 Y81.911 E13.2166 F4500
G0 X156.477 Y81.911 F7200
G1 X155.961 Y82.427 E13.2458 F4500
G0 X164.676 Y105.390 F7200
G1 X166.739 Y103.327 E13.3622 F4500
G0 X166.739 Y98.801 F7200
G1 X160.151 Y105.390 E13.7341 F4500
G0 X143.777 Y94.610 F7200
G1 X143.261 Y95.127 E13.7633 F4500
G0 X143.261 Y99.652 F7200
G1 X148.303 Y94.610 E14.0479 F4500
G0 X152.828 Y94.610 F7200
G1 X143.261 Y104.178 E14.5879 F4500
; ------------------------------------
; Layer #12
; ------------------------------------
G92 E0 ;reset extr
;segType:Infill
G0 F3000 E-1.0000
G0 F1200 Z2.600
G0 X143.261 Y108.769 F7200
G0 F3000 E0.0000
G1 X152.581 Y118.089 E0.5261 F4500
;segType:Perimeter
G0 X154.595 Y118.269 F7200
G1 X154.001 Y118.804 E0.5527 F2160
G1 X153.714 Y118.850 E0.5623
G1 X143.586 Y118.850 E0.8992
G1 X143.240 Y118.795 E0.9108
G1 X142.943 Y118.643 E0.9219
G1 X142.707 Y118.407 E0.9330
G1 X142.555 Y118.110 E0.9441
G1 X142.501 Y117.764 E0.9558
G1 X142.501 Y94.936 E1.7151
G1 X142.555 Y94.590 E1.7267
G1 X142.707 Y94.293 E1.7378
G1 X142.943 Y94.057 E1.7489
G1 X143.240 Y93.905 E1.7600
G1 X143.586 Y93.850 E1.7716
G1 X153.746 Y93.850 E2.1096
G1 X154.185 Y93.781 E2.1244
G1 X154.596 Y93.572 E2.1397
G1 X154.922 Y93.246 E2.1550
G1 X155.131 Y92.835 E2.1703
G1 X155.200 Y92.396 E2.1851
G1 X155.200 Y82.236 E2.5231
G1 X155.255 Y81.890 E2.5347
G1 X155.407 Y81.593 E2.5458
G1 X155.643 Y81.357 E2.5569
G1 X155.940 Y81.205 E2.5680
G1 X156.286 Y81.150 E2.5796
G1 X166.414 Y81.150 E2.9165
G1 X166.760 Y81.205 E2.9282
G1 X167.057 Y81.357 E2.9393
G1 X167.293 Y81.593 E2.9504
G1 X167.445 Y81.890 E2.9615
G1 X167.499 Y82.236 E2.9731
G1 X167.499 Y105.064 E3.7324
G1 X167.445 Y105.410 E3.7440
G1 X167.293 Y105.707 E3.7551
G1 X167.057 Y105.943 E3.7662
G1 X166.760 Y106.095 E3.7773
G1 X166.414 Y106.150 E3.7890
G1 X156.254 Y106.150 E4.1269
G1 X155.815 Y106.219 E4.1417
G1 X155.404 Y106.428 E4.1570
G1 X155.078 Y106.754 E4.1723
G1 X154.869 Y107.165 E4.1877
G1 X154.800 Y107.604 E4.2025
G1 X154.800 Y117.764 E4.5404
G1 X154.745 Y118.110 E4.5520
G1 X154.593 Y118.407 E4.5631
G1 X154.357 Y118.643 E4.5742
G1 X154.113 Y118.768 E4.5833
G0 X153.318 Y118.684 F7200
;segType:Loop
G0 X152.964 Y118.450
G1 X143.617 Y118.450 E4.8942 F3600
G1 X143.365 Y118.410 E4.9027
G1 X143.181 Y118.316 E4.9096
G1 X143.034 Y118.169 E4.9165
G1 X142.940 Y117.985 E4.9234
G1 X142.901 Y117.733 E4.9318
G1 X142.901 Y94.967 E5.6890
G1 X142.940 Y94.715 E5.6975
G1 X143.034 Y94.531 E5.7044
G1 X143.181 Y94.384 E5.7113
G1 X143.365 Y94.290 E5.7182
G1 X143.617 Y94.250 E5.7267
G1 X153.777 Y94.250 E6.0646
G1 X154.310 Y94.166 E6.0825
G1 X154.834 Y93.899 E6.1021
G1 X155.249 Y93.484 E6.1216
G1 X155.516 Y92.960 E6.1412
G1 X155.600 Y92.427 E6.1591
G1 X155.600 Y82.267 E6.4970
G1 X155.640 Y82.015 E6.5055
G1 X155.734 Y81.831 E6.5124
G1 X155.881 Y81.684 E6.5193
G1 X156.065 Y81.590 E6.5262
G1 X156.317 Y81.550 E6.5347
G1 X166.383 Y81.550 E6.8694
G1 X166.635 Y81.590 E6.8779
G1 X166.819 Y81.684 E6.8848
G1 X166.966 Y81.831 E6.8917
G1 X167.060 Y82.015 E6.8986
G1 X167.099 Y82.267 E6.9071
G1 X167.099 Y105.033 E7.6643
G1 X167.060 Y105.285 E7.6727
G1 X166.966 Y105.469 E7.6796
G1 X166.819 Y105.616 E7.6865
G1 X166.635 Y105.710 E7.6934
G1 X166.383 Y105.750 E7.7019
G1 X156.223 Y105.750 E8.0398
G1 X155.690 Y105.834 E8.0578
G1 X155.166 Y106.101 E8.0773
G1 X154.751 Y106.516 E8.0968
G1 X154.484 Y107.040 E8.1164
G1 X154.400 Y107.573 E8.1343
G1 X154.400 Y117.733 E8.4723
G1 X154.360 Y117.985 E8.4807
G1 X154.266 Y118.169 E8.4876
G1 X154.119 Y118.316 E8.4945
G1 X153.935 Y118.410 E8.5014
G1 X153.683 Y118.450 E8.5099
G1 X153.164 Y118.450 E8.5271
;segType:Infill
G0 X154.039 Y115.023 F7200
G1 X143.261 Y104.244 E9.1355 F4500
G0 X143.261 Y99.718 F7200
G1 X154.039 Y110.497 E9.7439 F4500
G0 X154.400 Y110.031 F7200
G0 X154.400 Y107.573
G0 X154.484 Y107.040
G0 X154.751 Y106.516
G0 X155.166 Y106.101
G0 X155.690 Y105.834
G0 X156.223 Y105.750
G0 X157.705 Y105.750
G0 X157.705 Y105.750
G0 X157.991 Y105.380
G0 X157.983 Y105.390
G1 X147.204 Y94.610 E10.3524 F4500
G0 X151.729 Y94.610 F7200
G1 X162.508 Y105.390 E10.9608 F4500
G0 X166.727 Y105.083 F7200
G1 X155.443 Y93.799 E11.5977 F4500
G0 X166.739 Y82.468 F7200
G1 X166.182 Y81.911 E11.6291 F4500
G0 X161.657 Y81.911 F7200
G1 X166.739 Y86.993 E11.9160 F4500
G0 X166.739 Y91.519 F7200
G1 X157.131 Y81.911 E12.4583 F4500
G0 X155.961 Y85.265 F7200
G1 X166.739 Y96.044 E13.0667 F4500
G0 X166.739 Y100.570 F7200
G1 X155.961 Y89.791 E13.6751 F4500
G0 X155.600 Y89.944 F7200
G0 X155.600 Y92.427
G0 X155.516 Y92.960
G0 X155.249 Y93.484
G0 X154.834 Y93.899
G0 X154.310 Y94.166
G0 X153.777 Y94.250
G0 X145.476 Y94.250
G0 X145.476 Y94.250
G0 X143.249 Y95.198
G0 X143.261 Y95.193
G1 X154.427 Y106.359 E14.3054 F4500
G0 X143.261 Y113.295 F7200
G1 X148.055 Y118.089 E14.5760 F4500
; ------------------------------------
; Layer #13
; ------------------------------------
G92 E0 ;reset extr
;segType:Infill
G0 F3000 E-1.0000
G0 F1200 Z2.800
G0 X151.977 Y118.089 F7200
G0 F3000 E0.0000
G1 X154.039 Y116.026 E0.1164 F4500
;segType:Loop
G0 X152.964 Y118.450 F7200
G1 X143.617 Y118.450 E0.4273 F3600
G1 X143.365 Y118.410 E0.4358
G1 X143.181 Y118.316 E0.4427
G1 X143.034 Y118.169 E0.4496
G1 X142.940 Y117.985 E0.4565
G1 X142.901 Y117.733 E0.4649
G1 X142.901 Y94.967 E1.2221
G1 X142.940 Y94.715 E1.2306
G1 X143.034 Y94.531 E1.2375
G1 X143.181 Y94.384 E1.2444
G1 X143.365 Y94.290 E1.2513
G1 X143.617 Y94.250 E1.2598
G1 X153.777 Y94.250 E1.5977
G1 X154.310 Y94.166 E1.6156
G1 X154.834 Y93.899 E1.6352
G1 X155.249 Y93.484 E1.6547
G1 X155.516 Y92.960 E1.6743
G1 X155.600 Y92.427 E1.6922
G1 X155.600 Y82.267 E2.0301
G1 X155.640 Y82.015 E2.0386
G1 X155.734 Y81.831 E2.0455
G1 X155.881 Y81.684 E2.0524
G1 X156.065 Y81.590 E2.0593
G1 X156.317 Y81.550 E2.0678
G1 X166.383 Y81.550 E2.4026
G1 X166.635 Y81.590 E2.4110
G1 X166.819 Y81.684 E2.4179
G1 X166.966 Y81.831 E2.4248
G1 X167.060 Y82.015 E2.4317
G1 X167.099 Y82.267 E2.4402
G1 X167.099 Y105.033 E3.1974
G1 X167.060 Y105.285 E3.2058
G1 X166.966 Y105.469 E3.2127
G1 X166.819 Y105.616 E3.2196
G1 X166.635 Y105.710 E3.2265
G1 X166.383 Y105.750 E3.2350
G1 X156.223 Y105.750 E3.5729
G1 X155.690 Y105.834 E3.5909
G1 X155.166 Y106.101 E3.6104
G1 X154.751 Y106.516 E3.6300
G1 X154.484 Y107.040 E3.6495
G1 X154.400 Y107.573 E3.6674
G1 X154.400 Y117.733 E4.0054
G1 X154.360 Y117.985 E4.0138
G1 X154.266 Y118.169 E4.0207
G1 X154.119 Y118.316 E4.0276
G1 X153.935 Y118.410 E4.0345
G1 X153.683 Y118.450 E4.0430
G1 X153.164 Y118.450 E4.0602
;segType:Perimeter
G0 X154.595 Y118.269 F7200
G1 X154.001 Y118.804 E4.0869 F2160
G1 X153.714 Y118.850 E4.0965
G1 X143.586 Y118.850 E4.4334
G1 X143.240 Y118.795 E4.4450
G1 X142.943 Y118.643 E4.4561
G1 X142.707 Y118.407 E4.4672
G1 X142.555 Y118.110 E4.4783
G1 X142.501 Y117.764 E4.4900
G1 X142.501 Y94.936 E5.2492
G1 X142.555 Y94.590 E5.2609
G1 X142.707 Y94.293 E5.2720
G1 X142.943 Y94.057 E5.2831
G1 X143.240 Y93.905 E5.2942
G1 X143.586 Y93.850 E5.3058
G1 X153.746 Y93.850 E5.6437
G1 X154.185 Y93.781 E5.6585
G1 X154.596 Y93.572 E5.6739
G1 X154.922 Y93.246 E5.6892
G1 X155.131 Y92.835 E5.7045
G1 X155.200 Y92.396 E5.7193
G1 X155.200 Y82.236 E6.0572
G1 X155.255 Y81.890 E6.0689
G1 X155.407 Y81.593 E6.0800
G1 X155.643 Y81.357 E6.0911
G1 X155.940 Y81.205 E6.1022
G1 X156.286 Y81.150 E6.1138
G1 X166.414 Y81.150 E6.4507
G1 X166.760 Y81.205 E6.4623
G1 X167.057 Y81.357 E6.4734
G1 X167.293 Y81.593 E6.4845
G1 X167.445 Y81.890 E6.4956
G1 X167.499 Y82.236 E6.5073
G1 X167.499 Y105.064 E7.2666
G1 X167.445 Y105.410 E7.2782
G1 X167.293 Y105.707 E7.2893
G1 X167.057 Y105.943 E7.3004
G1 X166.760 Y106.095 E7.3115
G1 X166.414 Y106.150 E7.3231
G1 X156.254 Y106.150 E7.6611
G1 X155.815 Y106.219 E7.6759
G1 X155.404 Y106.428 E7.6912
G1 X155.078 Y106.754 E7.7065
G1 X154.869 Y107.165 E7.7218
G1 X154.800 Y107.604 E7.7366
G1 X154.800 Y117.764 E8.0746
G1 X154.745 Y118.110 E8.0862
G1 X154.593 Y118.407 E8.0973
G1 X154.357 Y118.643 E8.1084
G1 X154.113 Y118.768 E8.1175
G0 X153.318 Y118.684 F7200
;segType:Infill
G0 X154.039 Y111.501
G1 X147.451 Y118.089 E8.4894 F4500
G0 X143.267 Y117.748 F7200
G1 X154.188 Y106.827 E9.1058 F4500
G0 X143.261 Y95.127 F7200
G1 X143.777 Y94.610 E9.1350 F4500
G0 X148.303 Y94.610 F7200
G1 X143.261 Y99.652 E9.4196 F4500
G0 X143.261 Y104.178 F7200
G1 X152.828 Y94.610 E9.9596 F4500
G0 X153.188 Y94.250 F7200
G0 X153.777 Y94.250
G0 X154.310 Y94.166
G0 X154.834 Y93.899
G0 X155.249 Y93.484
G0 X155.516 Y92.960
G0 X155.600 Y92.427
G0 X155.600 Y91.838
G0 X155.600 Y91.838
G0 X155.969 Y91.469
G0 X155.961 Y91.478
G1 X165.528 Y81.911 E10.4996 F4500
G0 X166.739 Y85.225 F7200
G1 X143.261 Y108.703 E11.8249 F4500
G0 X143.261 Y113.229 F7200
G1 X166.739 Y89.750 E13.1501 F4500
G0 X155.961 Y82.427 F7200
G1 X156.477 Y81.911 E13.1792 F4500
G0 X161.002 Y81.911 F7200
G1 X155.961 Y86.953 E13.4638 F4500
G0 X166.739 Y94.276 F7200
G1 X155.476 Y105.539 E14.0996 F4500
G0 X160.151 Y105.390 F7200
G1 X166.739 Y98.801 E14.4714 F4500
G0 X166.739 Y103.327 F7200
G1 X164.676 Y105.390 E14.5879 F4500
; ------------------------------------
; Layer #14
; ------------------------------------
G92 E0 ;reset extr
;segType:Infill
G0 F3000 E-1.0000
G0 F1200 Z3.000
G0 X143.261 Y108.769 F7200
G0 F3000 E0.0000
G1 X152.581 Y118.089 E0.5261 F4500
;segType:Perimeter
G0 X154.595 Y118.269 F7200
G1 X154.001 Y118.804 E0.5527 F2160
G1 X153.714 Y118.850 E0.5623
G1 X143.586 Y118.850 E0.8992
G1 X143.240 Y118.795 E0.9108
G1 X142.943 Y118.643 E0.9219
G1 X142.707 Y118.407 E0.9330
G1 X142.555 Y118.110 E0.9441
G1 X142.501 Y117.764 E0.9558
G1 X142.501 Y94.936 E1.7151
G1 X142.555 Y94.590 E1.7267
G1 X142.707 Y94.293 E1.7378
G1 X142.943 Y94.057 E1.7489
G1 X143.240 Y93.905 E1.7600
G1 X143.586 Y93.850 E1.7716
G1 X153.746 Y93.850 E2.1096
G1 X154.185 Y93.781 E2.1244
G1 X154.596 Y93.572 E2.1397
G1 X154.922 Y93.246 E2.1550
G1 X155.131 Y92.835 E2.1703
G1 X155.200 Y92.396 E2.1851
G1 X155.200 Y82.236 E2.5231
G1 X155.255 Y81.890 E2.5347
G1 X155.407 Y81.593 E2.5458
G1 X155.643 Y81.357 E2.5569
G1 X155.940 Y81.205 E2.5680
G1 X156.286 Y81.150 E2.5796
G1 X166.414 Y81.150 E2.9165
G1 X166.760 Y81.205 E2.9282
G1 X167.057 Y81.357 E2.9393
G1 X167.293 Y81.593 E2.9504
G1 X167.445 Y81.890 E2.9615
G1 X167.499 Y82.236 E2.9731
