; GCode generated by CraftWare

G28 X0 Y0
G28 Z0


M104 S215 ;set head temp (no wait)
M190 S60 ;set bed temp (wait)
M109 S215 ;set head temp (wait)
; ------------------------------------
; Layer #0
; ------------------------------------
M106 S0 ;turn off fan
G21 ; mm
G90 ; abs
G92 E0 ;reset extr
G0 F1200 Z0.200
;segType:Skirt
G0 F3000 E-1.0000
G0 X142.155 Y109.524 F5400
G0 F3000 E0.0000
G1 X139.148 Y106.516 E0.1415 F2400
G1 X139.022 Y106.140 E0.1546
G1 X139.022 Y81.078 E0.9882
G1 X142.281 Y77.820 E1.1415
G1 X143.221 Y77.757 E1.1728
G1 X154.749 Y77.757 E1.5563
G1 X155.314 Y78.196 E1.5800
G1 X158.070 Y80.953 E1.7097
G1 X158.196 Y81.328 E1.7229
G1 X158.196 Y90.351 E2.0230
G1 X159.135 Y90.413 E2.0543
G1 X167.155 Y90.413 E2.3210
G1 X167.845 Y90.727 E2.3462
G1 X170.852 Y93.734 E2.4877
G1 X170.852 Y118.797 E3.3213
G1 X170.727 Y119.173 E3.3345
G1 X167.719 Y122.180 E3.4759
G1 X167.406 Y122.369 E3.4881
G1 X155.376 Y122.369 E3.8882
G1 X154.686 Y122.055 E3.9134
G1 X152.180 Y119.549 E4.0313
G1 X151.742 Y118.985 E4.0550
G1 X151.679 Y118.045 E4.0864
G1 X151.679 Y110.025 E4.3531
G1 X151.617 Y109.587 E4.3678
G1 X142.594 Y109.587 E4.6679
G1 X142.155 Y109.524 E4.6827
G0 X142.343 Y109.963 F5400
G1 X141.779 Y109.524 E4.7065 F2400
G1 X138.772 Y106.516 E4.8479
G1 X138.646 Y106.140 E4.8611
G1 X138.646 Y81.078 E5.6947
G1 X142.155 Y77.569 E5.8597
G1 X142.469 Y77.381 E5.8719
G1 X154.499 Y77.381 E6.2720
G1 X154.938 Y77.444 E6.2867
G1 X158.446 Y80.953 E6.4518
G1 X158.572 Y81.328 E6.4650
G1 X158.572 Y89.348 E6.7317
G1 X158.634 Y90.037 E6.7547
G1 X167.155 Y90.037 E7.0381
G1 X167.845 Y90.351 E7.0633
G1 X171.103 Y93.609 E7.2166
G1 X171.228 Y93.985 E7.2298
G1 X171.228 Y119.048 E8.0633
G1 X168.766 Y121.510 E8.1792
;segType:HShell
G0 F3000 E7.1792
G0 X153.308 Y92.230 F5400
G0 F3000 E8.1792
G1 X144.047 Y82.968 E8.6148 F2400
;segType:Perimeter
G0 X143.361 Y82.832 F5400
G1 X143.403 Y82.033 E8.6414 F1440
G1 X143.594 Y81.937 E8.6485
G1 X153.753 Y81.937 E8.9864
G1 X153.946 Y81.999 E8.9932
G1 X154.068 Y82.221 E9.0016
G1 X154.068 Y92.388 E9.3397
G1 X154.096 Y92.733 E9.3513
G1 X154.178 Y93.077 E9.3630
G1 X154.314 Y93.405 E9.3748
G1 X154.499 Y93.707 E9.3866
G1 X154.729 Y93.976 E9.3984
G1 X154.998 Y94.206 E9.4102
G1 X155.300 Y94.391 E9.4220
G1 X155.628 Y94.527 E9.4337
G1 X155.972 Y94.609 E9.4455
G1 X156.317 Y94.636 E9.4570
G1 X166.398 Y94.636 E9.7923
G1 X166.565 Y94.691 E9.7982
G1 X166.713 Y94.936 E9.8077
G1 X166.713 Y117.748 E10.5664
G1 X166.651 Y117.940 E10.5732
G1 X166.501 Y118.050 E10.5793
G1 X166.414 Y118.063 E10.5822
G1 X156.302 Y118.063 E10.9186
G1 X156.109 Y118.001 E10.9253
G1 X155.987 Y117.764 E10.9342
G1 X155.987 Y107.612 E11.2718
G1 X155.959 Y107.267 E11.2834
G1 X155.877 Y106.923 E11.2951
G1 X155.741 Y106.595 E11.3069
G1 X155.556 Y106.293 E11.3187
G1 X155.326 Y106.024 E11.3305
G1 X155.057 Y105.794 E11.3423
G1 X154.755 Y105.609 E11.3540
G1 X154.427 Y105.473 E11.3658
G1 X154.083 Y105.391 E11.3776
G1 X153.738 Y105.364 E11.3891
G1 X143.602 Y105.364 E11.7263
G1 X143.410 Y105.301 E11.7330
G1 X143.287 Y105.079 E11.7414
G1 X143.287 Y82.252 E12.5007
G1 X143.331 Y82.117 E12.5054
G0 X144.114 Y81.955 F5400
;segType:Loop
G0 X144.420 Y82.337
G1 X153.651 Y82.337 E12.8124 F2400
G1 X153.668 Y82.450 E12.8162
G1 X153.668 Y92.404 E13.1473
G1 X153.699 Y92.796 E13.1604
G1 X153.797 Y93.201 E13.1742
G1 X153.956 Y93.587 E13.1881
G1 X154.174 Y93.942 E13.2020
G1 X154.445 Y94.260 E13.2159
G1 X154.763 Y94.531 E13.2297
G1 X155.118 Y94.749 E13.2436
G1 X155.504 Y94.908 E13.2575
G1 X155.909 Y95.006 E13.2714
G1 X156.302 Y95.036 E13.2844
G1 X166.222 Y95.036 E13.6144
G1 X166.313 Y95.136 E13.6189
G1 X166.313 Y117.650 E14.3677
G1 X166.222 Y117.663 E14.3708
G1 X156.394 Y117.663 E14.6977
G1 X156.387 Y117.536 E14.7019
G1 X156.387 Y107.597 E15.0325
G1 X156.356 Y107.204 E15.0456
G1 X156.258 Y106.799 E15.0595
G1 X156.099 Y106.413 E15.0734
G1 X155.881 Y106.058 E15.0872
G1 X155.610 Y105.740 E15.1011
G1 X155.293 Y105.469 E15.1150
G1 X154.937 Y105.251 E15.1289
G1 X154.551 Y105.092 E15.1427
G1 X154.146 Y104.994 E15.1566
G1 X153.754 Y104.964 E15.1697
G1 X143.708 Y104.964 E15.5038
G1 X143.687 Y104.850 E15.5077
G1 X143.687 Y82.450 E16.2527
G1 X143.822 Y82.337 E16.2586
G1 X144.220 Y82.337 E16.2718
;segType:HShell
G0 X144.047 Y83.534 F5400
G1 X153.341 Y92.828 E16.7089 F2400
G0 X153.589 Y93.642 F5400
G1 X144.047 Y84.100 E17.1578 F2400
G0 X144.047 Y103.898 F5400
G1 X144.752 Y104.603 E17.1910 F2400
G0 X145.317 Y104.603 F5400
G1 X144.047 Y103.333 E17.2507 F2400
G0 X144.047 Y102.767 F5400
G1 X145.883 Y104.603 E17.3371 F2400
G0 X146.449 Y104.603 F5400
G1 X144.047 Y102.201 E17.4501 F2400
G0 X144.047 Y101.636 F5400
G1 X147.014 Y104.603 E17.5897 F2400
G0 X147.580 Y104.603 F5400
G1 X144.047 Y101.070 E17.7559 F2400
G0 X144.047 Y100.504 F5400
G1 X148.146 Y104.603 E17.9487 F2400
G0 X148.712 Y104.603 F5400
G1 X144.047 Y99.939 E18.1681 F2400
G0 X144.047 Y99.373 F5400
G1 X149.277 Y104.603 E18.4141 F2400
G0 X149.843 Y104.603 F5400
G1 X144.047 Y98.807 E18.6867 F2400
G0 X144.047 Y98.242 F5400
G1 X150.409 Y104.603 E18.9860 F2400
G0 X150.974 Y104.603 F5400
G1 X144.047 Y97.676 E19.3118 F2400
G0 X144.047 Y97.110 F5400
G1 X151.540 Y104.603 E19.6643 F2400
G0 X152.106 Y104.603 F5400
G1 X144.047 Y96.545 E20.0433 F2400
G0 X144.047 Y95.979 F5400
G1 X152.671 Y104.603 E20.4490 F2400
G0 X153.237 Y104.603 F5400
G1 X144.047 Y95.413 E20.8813 F2400
G0 X144.047 Y94.848 F5400
G1 X153.806 Y104.606 E21.3403 F2400
G0 X154.466 Y104.701 F5400
G1 X144.047 Y94.282 E21.8304 F2400
G0 X144.047 Y93.716 F5400
G1 X155.524 Y105.193 E22.3702 F2400
G0 X155.580 Y105.715 F5400
G0 X155.610 Y105.740
G0 X155.881 Y106.058
G0 X156.099 Y106.413
G0 X156.258 Y106.799
G0 X156.356 Y107.204
G0 X156.387 Y107.597
G0 X156.387 Y113.239
G0 X156.387 Y113.239
G0 X156.748 Y116.611
G0 X156.747 Y116.598
G1 X157.452 Y117.303 E22.4034 F2400
G0 X158.017 Y117.303 F5400
G1 X156.747 Y116.033 E22.4632 F2400
G0 X156.747 Y115.467 F5400
G1 X158.583 Y117.303 E22.5495 F2400
G0 X159.149 Y117.303 F5400
G1 X156.747 Y114.901 E22.6625 F2400
G0 X156.747 Y114.336 F5400
G1 X159.714 Y117.303 E22.8021 F2400
G0 X160.280 Y117.303 F5400
G1 X156.747 Y113.770 E22.9683 F2400
G0 X156.747 Y113.204 F5400
G1 X160.846 Y117.303 E23.1611 F2400
G0 X161.411 Y117.303 F5400
G1 X156.747 Y112.639 E23.3805 F2400
G0 X156.747 Y112.073 F5400
G1 X161.977 Y117.303 E23.6265 F2400
G0 X162.543 Y117.303 F5400
G1 X156.747 Y111.507 E23.8992 F2400
G0 X156.747 Y110.942 F5400
G1 X163.108 Y117.303 E24.1984 F2400
G0 X163.674 Y117.303 F5400
G1 X156.747 Y110.376 E24.5243 F2400
G0 X156.747 Y109.810 F5400
G1 X164.240 Y117.303 E24.8767 F2400
G0 X164.806 Y117.303 F5400
G1 X156.747 Y109.244 E25.2558 F2400
G0 X156.747 Y108.679 F5400
G1 X165.371 Y117.303 E25.6615 F2400
G0 X165.902 Y117.269 F5400
G1 X156.747 Y108.113 E26.0921 F2400
G0 X156.744 Y107.544 F5400
G1 X165.953 Y116.754 E26.5253 F2400
G0 X165.953 Y116.188 F5400
G1 X156.649 Y106.884 E26.9629 F2400
G0 X156.157 Y105.826 F5400
G1 X165.953 Y115.623 E27.4237 F2400
G0 X165.953 Y115.057 F5400
G1 X144.047 Y93.150 E28.4541 F2400
G0 X144.047 Y92.585 F5400
G1 X165.953 Y114.491 E29.4845 F2400
G0 X165.953 Y113.926 F5400
G1 X144.047 Y92.019 E30.5150 F2400
G0 X144.047 Y91.453 F5400
G1 X165.953 Y113.360 E31.5454 F2400
G0 X165.953 Y112.794 F5400
G1 X144.047 Y90.888 E32.5758 F2400
G0 X144.047 Y90.322 F5400
G1 X165.953 Y112.228 E33.6062 F2400
G0 X165.953 Y111.663 F5400
G1 X144.047 Y89.756 E34.6366 F2400
G0 X144.047 Y89.191 F5400
G1 X165.953 Y111.097 E35.6670 F2400
G0 X165.953 Y110.531 F5400
G1 X144.047 Y88.625 E36.6974 F2400
G0 X144.047 Y88.059 F5400
G1 X165.953 Y109.966 E37.7278 F2400
G0 X165.953 Y109.400 F5400
G1 X144.047 Y87.494 E38.7582 F2400
G0 X144.047 Y86.928 F5400
G1 X165.953 Y108.834 E39.7887 F2400
G0 X165.953 Y108.269 F5400
G1 X144.047 Y86.362 E40.8191 F2400
G0 X144.047 Y85.797 F5400
G1 X165.953 Y107.703 E41.8495 F2400
G0 X165.953 Y107.137 F5400
G1 X144.047 Y85.231 E42.8799 F2400
G0 X144.047 Y84.665 F5400
G1 X165.953 Y106.572 E43.9103 F2400
G0 X165.953 Y106.006 F5400
G1 X155.063 Y95.116 E44.4225 F2400
G0 X155.877 Y95.364 F5400
G1 X165.953 Y105.440 E44.8965 F2400
G0 X165.953 Y104.875 F5400
G1 X156.475 Y95.397 E45.3423 F2400
G0 X157.041 Y95.397 F5400
G1 X165.953 Y104.309 E45.7615 F2400
G0 X165.953 Y103.743 F5400
G1 X157.607 Y95.397 E46.1541 F2400
G0 X158.172 Y95.397 F5400
G1 X165.953 Y103.178 E46.5201 F2400
G0 X165.953 Y102.612 F5400
G1 X158.738 Y95.397 E46.8595 F2400
G0 X159.304 Y95.397 F5400
G1 X165.953 Y102.046 E47.1722 F2400
G0 X165.953 Y101.480 F5400
G1 X159.869 Y95.397 E47.4584 F2400
G0 X160.435 Y95.397 F5400
G1 X165.953 Y100.915 E47.7180 F2400
G0 X165.953 Y100.349 F5400
G1 X161.001 Y95.397 E47.9509 F2400
G0 X161.566 Y95.397 F5400
G1 X165.953 Y99.783 E48.1572 F2400
G0 X165.953 Y99.218 F5400
G1 X162.132 Y95.397 E48.3370 F2400
G0 X162.698 Y95.397 F5400
G1 X165.953 Y98.652 E48.4901 F2400
G0 X165.953 Y98.086 F5400
G1 X163.263 Y95.397 E48.6166 F2400
G0 X163.829 Y95.397 F5400
G1 X165.953 Y97.521 E48.7165 F2400
G0 X165.953 Y96.955 F5400
G1 X164.395 Y95.397 E48.7898 F2400
G0 X164.961 Y95.397 F5400
G1 X165.953 Y96.389 E48.8365 F2400
G0 X165.953 Y95.824 F5400
G1 X165.526 Y95.397 E48.8566 F2400
G0 X164.347 Y95.036 F5400
G0 X156.302 Y95.036
G0 X155.909 Y95.006
G0 X155.504 Y94.908
G0 X155.118 Y94.749
G0 X154.763 Y94.531
G0 X154.445 Y94.260
G0 X154.174 Y93.942
G0 X153.956 Y93.587
G0 X153.797 Y93.201
G0 X153.699 Y92.796
G0 X153.668 Y92.404
G0 X153.668 Y91.774
G0 X153.668 Y91.774
G0 X153.296 Y91.660
G0 X153.308 Y91.664
G1 X144.341 Y82.697 E49.2784 F2400
G0 X144.907 Y82.697 F5400
G1 X153.308 Y91.098 E49.6736 F2400
G0 X153.308 Y90.532 F5400
G1 X145.472 Y82.697 E50.0421 F2400
G0 X146.038 Y82.697 F5400
G1 X153.308 Y89.967 E50.3841 F2400
G0 X153.308 Y89.401 F5400
G1 X146.604 Y82.697 E50.6994 F2400
G0 X147.170 Y82.697 F5400
G1 X153.308 Y88.835 E50.9882 F2400
G0 X153.308 Y88.270 F5400
G1 X147.735 Y82.697 E51.2503 F2400
G0 X148.301 Y82.697 F5400
G1 X153.308 Y87.704 E51.4859 F2400
G0 X153.308 Y87.138 F5400
G1 X148.867 Y82.697 E51.6948 F2400
G0 X149.432 Y82.697 F5400
G1 X153.308 Y86.573 E51.8771 F2400
G0 X153.308 Y86.007 F5400
G1 X149.998 Y82.697 E52.0328 F2400
G0 X150.564 Y82.697 F5400
G1 X153.308 Y85.441 E52.1619 F2400
G0 X153.308 Y84.876 F5400
G1 X151.129 Y82.697 E52.2644 F2400
G0 X151.695 Y82.697 F5400
G1 X153.308 Y84.310 E52.3403 F2400
G0 X153.308 Y83.744 F5400
G1 X152.261 Y82.697 E52.3895 F2400
G0 X152.826 Y82.697 F5400
G1 X153.308 Y83.179 E52.4122 F2400
; ------------------------------------
; Layer #1
; ------------------------------------
M106 S0 ;turn off fan
G92 E0 ;reset extr
;segType:HShell
G0 F3000 E-1.0000
G0 F1200 Z0.400
G0 X146.404 Y82.367 F7200
G0 F3000 E0.0000
G1 X143.717 Y85.054 E0.1264 F3600
G0 X143.717 Y84.488 F7200
G1 X145.838 Y82.367 E0.2262 F3600
G0 X145.273 Y82.367 F7200
G1 X143.717 Y83.923 E0.2994 F3600
G0 X143.717 Y83.357 F7200
G1 X144.707 Y82.367 E0.3460 F3600
G0 X144.141 Y82.367 F7200
G1 X143.717 Y82.791 E0.3659 F3600
;segType:Perimeter
G0 X143.089 Y82.698 F7200
G1 X143.068 Y81.898 E0.3925 F2160
G1 X143.213 Y81.728 E0.4000
G1 X143.440 Y81.634 E0.4082
G1 X143.594 Y81.607 E0.4133
G1 X153.761 Y81.607 E0.7515
G1 X154.061 Y81.679 E0.7618
G1 X154.277 Y81.863 E0.7712
G1 X154.392 Y82.140 E0.7812
G1 X154.398 Y82.228 E0.7841
G1 X154.398 Y92.388 E1.1220
G1 X154.421 Y92.682 E1.1318
G1 X154.492 Y92.976 E1.1419
G1 X154.608 Y93.255 E1.1520
G1 X154.766 Y93.513 E1.1620
G1 X154.962 Y93.743 E1.1721
G1 X155.192 Y93.939 E1.1821
G1 X155.450 Y94.097 E1.1922
G1 X155.729 Y94.213 E1.2022
G1 X156.023 Y94.284 E1.2123
G1 X156.317 Y94.307 E1.2221
G1 X166.406 Y94.307 E1.5577
G1 X166.706 Y94.379 E1.5679
G1 X166.922 Y94.563 E1.5774
G1 X167.021 Y94.802 E1.5860
G1 X167.043 Y95.021 E1.5933
G1 X167.043 Y117.756 E2.3495
G1 X166.971 Y118.056 E2.3597
G1 X166.787 Y118.272 E2.3691
G1 X166.510 Y118.386 E2.3791
G1 X166.422 Y118.393 E2.3821
G1 X156.294 Y118.393 E2.7189
G1 X155.994 Y118.321 E2.7292
G1 X155.778 Y118.137 E2.7386
G1 X155.664 Y117.860 E2.7486
G1 X155.657 Y117.772 E2.7515
G1 X155.657 Y107.612 E3.0894
G1 X155.633 Y107.318 E3.0992
G1 X155.563 Y107.024 E3.1093
G1 X155.447 Y106.745 E3.1194
G1 X155.289 Y106.487 E3.1294
G1 X155.093 Y106.257 E3.1395
G1 X154.863 Y106.061 E3.1495
G1 X154.605 Y105.903 E3.1596
G1 X154.326 Y105.787 E3.1696
G1 X154.031 Y105.716 E3.1797
G1 X153.738 Y105.693 E3.1895
G1 X143.594 Y105.693 E3.5269
G1 X143.294 Y105.621 E3.5372
G1 X143.078 Y105.437 E3.5466
G1 X143.000 Y105.247 E3.5534
G1 X142.957 Y105.079 E3.5592
G1 X142.957 Y82.244 E4.3187
G1 X143.015 Y82.002 E4.3270
G0 X143.425 Y81.721 F7200
;segType:Loop
G0 X143.729 Y82.007
G1 X153.714 Y82.007 E4.6591 F3600
G1 X153.879 Y82.046 E4.6647
G1 X153.998 Y82.235 E4.6721
G1 X153.998 Y82.244 E4.6724
G1 X153.998 Y92.403 E5.0103
G1 X154.025 Y92.744 E5.0217
G1 X154.111 Y93.100 E5.0339
G1 X154.250 Y93.437 E5.0460
G1 X154.441 Y93.749 E5.0582
G1 X154.678 Y94.027 E5.0703
G1 X154.956 Y94.264 E5.0825
G1 X155.268 Y94.455 E5.0946
G1 X155.605 Y94.594 E5.1068
G1 X155.961 Y94.680 E5.1189
G1 X156.302 Y94.707 E5.1303
G1 X166.359 Y94.707 E5.4648
G1 X166.519 Y94.745 E5.4703
G1 X166.629 Y94.901 E5.4766
G1 X166.643 Y95.042 E5.4813
G1 X166.643 Y117.709 E6.2352
G1 X166.605 Y117.869 E6.2407
G1 X166.545 Y117.939 E6.2438
G1 X166.336 Y117.993 E6.2509
G1 X156.341 Y117.993 E6.5834
G1 X156.165 Y117.951 E6.5894
G1 X156.057 Y117.765 E6.5966
G1 X156.057 Y117.756 E6.5969
G1 X156.057 Y107.596 E6.9348
G1 X156.030 Y107.256 E6.9461
G1 X155.945 Y106.900 E6.9583
G1 X155.805 Y106.563 E6.9704
G1 X155.614 Y106.251 E6.9826
G1 X155.376 Y105.973 E6.9948
G1 X155.099 Y105.736 E7.0069
G1 X154.787 Y105.545 E7.0191
G1 X154.450 Y105.406 E7.0312
G1 X154.094 Y105.320 E7.0434
G1 X153.753 Y105.293 E7.0547
G1 X143.641 Y105.293 E7.3911
G1 X143.479 Y105.255 E7.3966
G1 X143.418 Y105.193 E7.3995
G1 X143.357 Y105.013 E7.4058
G1 X143.357 Y82.291 E8.1616
G1 X143.401 Y82.107 E8.1678
G1 X143.553 Y82.020 E8.1737
;segType:HShell
G0 X143.717 Y85.620 F7200
G1 X146.970 Y82.367 E8.3267 F3600
G0 X147.536 Y82.367 F7200
G1 X143.717 Y86.185 E8.5063 F3600
G0 X143.717 Y86.751 F7200
G1 X148.101 Y82.367 E8.7125 F3600
G0 X148.667 Y82.367 F7200
G1 X143.717 Y87.317 E8.9454 F3600
G0 X143.717 Y87.883 F7200
G1 X149.233 Y82.367 E9.2048 F3600
G0 X149.798 Y82.367 F7200
G1 X143.717 Y88.448 E9.4909 F3600
G0 X143.717 Y89.014 F7200
G1 X150.364 Y82.367 E9.8035 F3600
G0 X150.930 Y82.367 F7200
G1 X143.717 Y89.580 E10.1428 F3600
G0 X143.717 Y90.145 F7200
G1 X151.495 Y82.367 E10.5087 F3600
G0 X152.061 Y82.367 F7200
G1 X143.717 Y90.711 E10.9011 F3600
G0 X143.717 Y91.277 F7200
G1 X152.627 Y82.367 E11.3202 F3600
G0 X153.192 Y82.367 F7200
G1 X143.717 Y91.842 E11.7659 F3600
G0 X143.717 Y92.408 F7200
G1 X153.638 Y82.487 E12.2326 F3600
G0 X153.638 Y83.052 F7200
G1 X143.717 Y92.974 E12.6993 F3600
G0 X143.717 Y93.539 F7200
G1 X153.638 Y83.618 E13.1660 F3600
G0 X153.638 Y84.184 F7200
G1 X143.717 Y94.105 E13.6326 F3600
G0 X143.717 Y94.671 F7200
G1 X153.638 Y84.749 E14.0993 F3600
G0 X153.638 Y85.315 F7200
G1 X143.717 Y95.236 E14.5660 F3600
G0 X143.717 Y95.802 F7200
G1 X153.638 Y85.881 E15.0327 F3600
G0 X153.638 Y86.446 F7200
G1 X143.717 Y96.368 E15.4993 F3600
G0 X143.717 Y96.933 F7200
G1 X153.638 Y87.012 E15.9660 F3600
G0 X153.638 Y87.578 F7200
G1 X143.717 Y97.499 E16.4327 F3600
G0 X143.717 Y98.065 F7200
G1 X153.638 Y88.143 E16.8994 F3600
G0 X153.638 Y88.709 F7200
G1 X143.717 Y98.631 E17.3660 F3600
G0 X143.717 Y99.196 F7200
G1 X153.638 Y89.275 E17.8327 F3600
G0 X153.638 Y89.840 F7200
G1 X143.717 Y99.762 E18.2994 F3600
G0 X143.717 Y100.328 F7200
G1 X153.638 Y90.406 E18.7661 F3600
G0 X153.638 Y90.972 F7200
G1 X143.717 Y100.893 E19.2327 F3600
G0 X143.717 Y101.459 F7200
G1 X153.638 Y91.537 E19.6994 F3600
G0 X153.638 Y92.103 F7200
G1 X143.717 Y102.025 E20.1661 F3600
G0 X143.717 Y102.590 F7200
G1 X153.657 Y92.651 E20.6336 F3600
G0 X153.747 Y93.126 F7200
G1 X143.717 Y103.156 E21.1054 F3600
G0 X143.717 Y103.722 F7200
G1 X153.902 Y93.537 E21.5844 F3600
G0 X154.109 Y93.895 F7200
G1 X143.717 Y104.287 E22.0733 F3600
G0 X143.719 Y104.851 F7200
G1 X154.361 Y94.209 E22.5738 F3600
G0 X154.655 Y94.480 F7200
G1 X144.202 Y104.933 E23.0655 F3600
G0 X144.768 Y104.933 F7200
G1 X154.993 Y94.709 E23.5465 F3600
G0 X155.377 Y94.890 F7200
G1 X145.334 Y104.933 E24.0189 F3600
G0 X145.899 Y104.933 F7200
G1 X155.817 Y95.016 E24.4854 F3600
G0 X156.332 Y95.067 F7200
G1 X146.465 Y104.933 E24.9495 F3600
G0 X147.031 Y104.933 F7200
G1 X156.897 Y95.067 E25.4136 F3600
G0 X157.463 Y95.067 F7200
G1 X147.596 Y104.933 E25.8777 F3600
G0 X148.162 Y104.933 F7200
G1 X158.029 Y95.067 E26.3417 F3600
G0 X158.594 Y95.067 F7200
G1 X148.728 Y104.933 E26.8058 F3600
G0 X149.293 Y104.933 F7200
G1 X159.160 Y95.067 E27.2699 F3600
G0 X159.726 Y95.067 F7200
G1 X149.859 Y104.933 E27.7340 F3600
G0 X150.425 Y104.933 F7200
G1 X160.291 Y95.067 E28.1981 F3600
G0 X160.857 Y95.067 F7200
G1 X150.991 Y104.933 E28.6622 F3600
G0 X151.556 Y104.933 F7200
G1 X161.423 Y95.067 E29.1263 F3600
G0 X161.989 Y95.067 F7200
G1 X152.122 Y104.933 E29.5904 F3600
G0 X152.688 Y104.933 F7200
G1 X162.554 Y95.067 E30.0545 F3600
G0 X163.120 Y95.067 F7200
G1 X153.253 Y104.933 E30.5186 F3600
G0 X153.815 Y104.937 F7200
G1 X163.686 Y95.067 E30.9829 F3600
G0 X164.251 Y95.067 F7200
G1 X154.315 Y105.003 E31.4502 F3600
G0 X154.745 Y105.138 F7200
G1 X164.817 Y95.067 E31.9240 F3600
G0 X165.383 Y95.067 F7200
G1 X155.121 Y105.328 E32.4066 F3600
G0 X155.451 Y105.564 F7200
G1 X165.948 Y95.067 E32.9004 F3600
G0 X166.283 Y95.298 F7200
G1 X155.738 Y105.842 E33.3964 F3600
G0 X155.983 Y106.164 F7200
G1 X166.283 Y95.863 E33.8809 F3600
G0 X166.283 Y96.429 F7200
G1 X156.181 Y106.531 E34.3561 F3600
G0 X156.327 Y106.951 F7200
G1 X166.283 Y96.995 E34.8244 F3600
G0 X166.283 Y97.560 F7200
G1 X156.405 Y107.438 E35.2890 F3600
G0 X156.417 Y107.992 F7200
G1 X166.283 Y98.126 E35.7531 F3600
G0 X166.283 Y98.692 F7200
G1 X156.417 Y108.558 E36.2172 F3600
G0 X156.417 Y109.124 F7200
G1 X166.283 Y99.257 E36.6812 F3600
G0 X166.283 Y99.823 F7200
G1 X156.417 Y109.689 E37.1453 F3600
G0 X156.417 Y110.255 F7200
G1 X166.283 Y100.389 E37.6094 F3600
G0 X166.283 Y100.954 F7200
G1 X156.417 Y110.821 E38.0735 F3600
G0 X156.417 Y111.386 F7200
G1 X166.283 Y101.520 E38.5376 F3600
G0 X166.283 Y102.086 F7200
G1 X156.417 Y111.952 E39.0017 F3600
G0 X156.417 Y112.518 F7200
G1 X166.283 Y102.651 E39.4658 F3600
G0 X166.283 Y103.217 F7200
G1 X156.417 Y113.084 E39.9298 F3600
G0 X156.417 Y113.649 F7200
G1 X166.283 Y103.783 E40.3939 F3600
G0 X166.283 Y104.349 F7200
G1 X156.417 Y114.215 E40.8580 F3600
G0 X156.417 Y114.781 F7200
G1 X166.283 Y104.914 E41.3221 F3600
G0 X166.283 Y105.480 F7200
G1 X156.417 Y115.346 E41.7862 F3600
G0 X156.417 Y115.912 F7200
G1 X166.283 Y106.046 E42.2503 F3600
G0 X166.283 Y106.611 F7200
G1 X156.417 Y116.478 E42.7143 F3600
G0 X156.417 Y117.043 F7200
G1 X166.283 Y107.177 E43.1784 F3600
G0 X166.283 Y107.743 F7200
G1 X156.452 Y117.574 E43.6408 F3600
G0 X156.958 Y117.633 F7200
G1 X166.283 Y108.308 E44.0795 F3600
G0 X166.283 Y108.874 F7200
G1 X157.524 Y117.633 E44.4915 F3600
G0 X158.090 Y117.633 F7200
G1 X166.283 Y109.440 E44.8769 F3600
G0 X166.283 Y110.005 F7200
G1 X158.655 Y117.633 E45.2357 F3600
G0 X159.221 Y117.633 F7200
G1 X166.283 Y110.571 E45.5678 F3600
G0 X166.283 Y111.137 F7200
G1 X159.787 Y117.633 E45.8734 F3600
G0 X160.352 Y117.633 F7200
G1 X166.283 Y111.702 E46.1524 F3600
G0 X166.283 Y112.268 F7200
G1 X160.918 Y117.633 E46.4047 F3600
G0 X161.484 Y117.633 F7200
G1 X166.283 Y112.834 E46.6305 F3600
G0 X166.283 Y113.399 F7200
G1 X162.049 Y117.633 E46.8296 F3600
G0 X162.615 Y117.633 F7200
G1 X166.283 Y113.965 E47.0022 F3600
G0 X166.283 Y114.531 F7200
G1 X163.181 Y117.633 E47.1481 F3600
G0 X163.746 Y117.633 F7200
G1 X166.283 Y115.097 E47.2674 F3600
G0 X166.283 Y115.662 F7200
G1 X164.312 Y117.633 E47.3601 F3600
G0 X164.878 Y117.633 F7200
G1 X166.283 Y116.228 E47.4262 F3600
G0 X166.283 Y116.794 F7200
G1 X165.444 Y117.633 E47.4657 F3600
; ------------------------------------
; Layer #2
; ------------------------------------
M106 S0 ;turn off fan
G92 E0 ;reset extr
;segType:HShell
G0 F3000 E-1.0000
G0 F1200 Z0.600
G0 X153.863 Y92.784 F7200
G0 F3000 E0.0000
G1 X143.523 Y82.445 E0.4863 F3600
;segType:Perimeter
G0 X142.916 Y82.714 F7200
G1 X142.832 Y81.918 E0.5130 F2160
G1 X142.919 Y81.747 E0.5193
G1 X143.097 Y81.569 E0.5277
G1 X143.321 Y81.455 E0.5361
G1 X143.586 Y81.413 E0.5450
G1 X153.769 Y81.413 E0.8837
G1 X154.034 Y81.455 E0.8926
G1 X154.258 Y81.569 E0.9010
G1 X154.436 Y81.747 E0.9093
G1 X154.550 Y81.971 E0.9177
G1 X154.592 Y82.236 E0.9266
G1 X154.592 Y92.388 E1.2643
G1 X154.613 Y92.651 E1.2730
G1 X154.676 Y92.916 E1.2821
G1 X154.780 Y93.167 E1.2911
G1 X154.923 Y93.399 E1.3002
G1 X155.099 Y93.606 E1.3092
G1 X155.306 Y93.782 E1.3183
G1 X155.538 Y93.925 E1.3273
G1 X155.789 Y94.029 E1.3364
G1 X156.054 Y94.092 E1.3454
G1 X156.317 Y94.113 E1.3542
G1 X166.414 Y94.113 E1.6901
G1 X166.679 Y94.155 E1.6989
G1 X166.903 Y94.269 E1.7073
G1 X167.081 Y94.447 E1.7157
G1 X167.195 Y94.671 E1.7241
G1 X167.237 Y94.936 E1.7330
G1 X167.237 Y117.764 E2.4922
G1 X167.195 Y118.029 E2.5011
G1 X167.081 Y118.253 E2.5095
G1 X166.903 Y118.431 E2.5179
G1 X166.679 Y118.545 E2.5263
G1 X166.414 Y118.587 E2.5352
G1 X156.286 Y118.587 E2.8720
G1 X156.021 Y118.545 E2.8809
G1 X155.797 Y118.431 E2.8893
G1 X155.619 Y118.253 E2.8977
G1 X155.505 Y118.029 E2.9061
G1 X155.463 Y117.764 E2.9150
G1 X155.463 Y107.612 E3.2526
G1 X155.442 Y107.349 E3.2614
G1 X155.379 Y107.084 E3.2704
G1 X155.275 Y106.833 E3.2795
G1 X155.132 Y106.601 E3.2886
G1 X154.956 Y106.394 E3.2976
G1 X154.749 Y106.218 E3.3066
G1 X154.517 Y106.075 E3.3157
G1 X154.266 Y105.971 E3.3247
G1 X154.001 Y105.908 E3.3338
G1 X153.738 Y105.887 E3.3426
G1 X143.586 Y105.887 E3.6802
G1 X143.321 Y105.845 E3.6891
G1 X143.097 Y105.731 E3.6975
G1 X142.919 Y105.553 E3.7059
G1 X142.805 Y105.329 E3.7142
G1 X142.763 Y105.064 E3.7232
G1 X142.763 Y82.236 E4.4824
G1 X142.796 Y82.031 E4.4893
G0 X143.174 Y81.610 F7200
;segType:Loop
G0 X143.545 Y81.824
G1 X143.617 Y81.813 E4.4918 F3600
G1 X153.738 Y81.813 E4.8284
G1 X153.909 Y81.840 E4.8341
G1 X154.020 Y81.897 E4.8383
G1 X154.124 Y82.001 E4.8432
G1 X154.192 Y82.267 E4.8523
G1 X154.192 Y92.403 E5.1894
G1 X154.216 Y92.714 E5.1998
G1 X154.295 Y93.040 E5.2109
G1 X154.423 Y93.349 E5.2221
G1 X154.598 Y93.635 E5.2332
G1 X154.815 Y93.890 E5.2444
G1 X155.070 Y94.107 E5.2555
G1 X155.356 Y94.282 E5.2667
G1 X155.666 Y94.410 E5.2778
G1 X155.991 Y94.489 E5.2889
G1 X156.302 Y94.513 E5.2993
G1 X166.383 Y94.513 E5.6346
G1 X166.553 Y94.540 E5.6404
G1 X166.665 Y94.597 E5.6445
G1 X166.810 Y94.796 E5.6527
G1 X166.837 Y94.967 E5.6585
G1 X166.837 Y117.733 E6.4157
G1 X166.810 Y117.904 E6.4214
G1 X166.753 Y118.015 E6.4256
G1 X166.660 Y118.108 E6.4299
G1 X166.383 Y118.187 E6.4395
G1 X156.317 Y118.187 E6.7743
G1 X156.147 Y118.160 E6.7801
G1 X156.035 Y118.103 E6.7842
G1 X155.947 Y118.015 E6.7884
G1 X155.890 Y117.903 E6.7925
G1 X155.863 Y117.733 E6.7983
G1 X155.863 Y107.597 E7.1354
G1 X155.839 Y107.286 E7.1458
G1 X155.761 Y106.960 E7.1569
G1 X155.632 Y106.651 E7.1681
G1 X155.457 Y106.365 E7.1792
G1 X155.240 Y106.110 E7.1903
G1 X154.985 Y105.893 E7.2015
G1 X154.699 Y105.718 E7.2126
G1 X154.390 Y105.590 E7.2238
G1 X154.064 Y105.511 E7.2349
G1 X153.754 Y105.487 E7.2453
G1 X143.617 Y105.487 E7.5824
G1 X143.447 Y105.460 E7.5881
G1 X143.335 Y105.403 E7.5923
G1 X143.247 Y105.315 E7.5965
G1 X143.190 Y105.204 E7.6006
G1 X143.163 Y105.033 E7.6064
G1 X143.163 Y82.267 E8.3635
G1 X143.190 Y82.097 E8.3693
G1 X143.247 Y81.985 E8.3735
G1 X143.335 Y81.897 E8.3776
;segType:HShell
G0 X143.523 Y83.010 F7200
G1 X154.219 Y93.706 E8.8807 F3600
G0 X166.477 Y117.277 F7200
G1 X156.122 Y106.923 E9.3678 F3600
G0 X156.223 Y107.590 F7200
G1 X166.390 Y117.756 E9.8460 F3600
G0 X165.895 Y117.827 F7200
G1 X156.223 Y108.155 E10.3009 F3600
G0 X156.223 Y108.721 F7200
G1 X165.329 Y117.827 E10.7292 F3600
G0 X164.763 Y117.827 F7200
G1 X156.223 Y109.287 E11.1309 F3600
G0 X156.223 Y109.852 F7200
G1 X164.198 Y117.827 E11.5060 F3600
G0 X163.632 Y117.827 F7200
G1 X156.223 Y110.418 E11.8545 F3600
G0 X156.223 Y110.984 F7200
G1 X163.066 Y117.827 E12.1764 F3600
G0 X162.501 Y117.827 F7200
G1 X156.223 Y111.549 E12.4717 F3600
G0 X156.223 Y112.115 F7200
G1 X161.935 Y117.827 E12.7403 F3600
G0 X161.369 Y117.827 F7200
G1 X156.223 Y112.681 E12.9824 F3600
G0 X156.223 Y113.246 F7200
G1 X160.804 Y117.827 E13.1978 F3600
G0 X160.238 Y117.827 F7200
G1 X156.223 Y113.812 E13.3867 F3600
G0 X156.223 Y114.378 F7200
G1 X159.672 Y117.827 E13.5489 F3600
G0 X159.106 Y117.827 F7200
G1 X156.223 Y114.943 E13.6845 F3600
G0 X156.223 Y115.509 F7200
G1 X158.541 Y117.827 E13.7935 F3600
G0 X157.975 Y117.827 F7200
G1 X156.223 Y116.075 E13.8760 F3600
G0 X156.223 Y116.641 F7200
G1 X157.409 Y117.827 E13.9318 F3600
G0 X156.844 Y117.827 F7200
G1 X156.223 Y117.206 E13.9609 F3600
G0 X155.863 Y116.846 F7200
G0 X155.863 Y107.597
G0 X155.839 Y107.286
G0 X155.761 Y106.960
G0 X155.632 Y106.651
G0 X155.457 Y106.365
G0 X155.240 Y106.110
G0 X154.985 Y105.893
G0 X154.699 Y105.718
G0 X154.390 Y105.590
G0 X154.064 Y105.511
G0 X153.754 Y105.487
G0 X144.504 Y105.487
G0 X144.504 Y105.487
G0 X144.135 Y105.118
G0 X144.144 Y105.127
G1 X143.523 Y104.506 E13.9901 F3600
G0 X143.523 Y103.941 F7200
G1 X144.710 Y105.127 E14.0459 F3600
G0 X145.275 Y105.127 F7200
G1 X143.523 Y103.375 E14.1283 F3600
G0 X143.523 Y102.809 F7200
G1 X145.841 Y105.127 E14.2374 F3600
G0 X146.407 Y105.127 F7200
G1 X143.523 Y102.244 E14.3730 F3600
G0 X143.523 Y101.678 F7200
G1 X146.972 Y105.127 E14.5352 F3600
G0 X147.538 Y105.127 F7200
G1 X143.523 Y101.112 E14.7241 F3600
G0 X143.523 Y100.547 F7200
G1 X148.104 Y105.127 E14.9395 F3600
G0 X148.669 Y105.127 F7200
G1 X143.523 Y99.981 E15.1816 F3600
G0 X143.523 Y99.415 F7200
G1 X149.235 Y105.127 E15.4502 F3600
G0 X149.801 Y105.127 F7200
G1 X143.523 Y98.849 E15.7455 F3600
G0 X143.523 Y98.284 F7200
G1 X150.366 Y105.127 E16.0674 F3600
G0 X150.932 Y105.127 F7200
G1 X143.523 Y97.718 E16.4159 F3600
G0 X143.523 Y97.152 F7200
G1 X151.498 Y105.127 E16.7910 F3600
G0 X152.063 Y105.127 F7200
G1 X143.523 Y96.587 E17.1927 F3600
G0 X143.523 Y96.021 F7200
G1 X152.629 Y105.127 E17.6210 F3600
G0 X153.195 Y105.127 F7200
G1 X143.523 Y95.455 E18.0759 F3600
G0 X143.523 Y94.890 F7200
G1 X153.761 Y105.127 E18.5574 F3600
G0 X154.428 Y105.228 F7200
G1 X143.523 Y94.324 E19.0703 F3600
G0 X143.523 Y93.758 F7200
G1 X166.477 Y116.712 E20.1500 F3600
G0 X166.477 Y116.146 F7200
G1 X143.523 Y93.193 E21.2297 F3600
G0 X143.523 Y92.627 F7200
G1 X166.477 Y115.580 E22.3093 F3600
G0 X166.477 Y115.015 F7200
G1 X143.523 Y92.061 E23.3890 F3600
G0 X143.523 Y91.496 F7200
G1 X166.477 Y114.449 E24.4686 F3600
G0 X166.477 Y113.883 F7200
G1 X143.523 Y90.930 E25.5483 F3600
G0 X143.523 Y90.364 F7200
G1 X166.477 Y113.318 E26.6280 F3600
G0 X166.477 Y112.752 F7200
G1 X143.523 Y89.799 E27.7076 F3600
G0 X143.523 Y89.233 F7200
G1 X166.477 Y112.186 E28.7873 F3600
G0 X166.477 Y111.621 F7200
G1 X143.523 Y88.667 E29.8670 F3600
G0 X143.523 Y88.101 F7200
G1 X166.477 Y111.055 E30.9466 F3600
G0 X166.477 Y110.489 F7200
G1 X143.523 Y87.536 E32.0263 F3600
G0 X143.523 Y86.970 F7200
G1 X166.477 Y109.924 E33.1059 F3600
G0 X166.477 Y109.358 F7200
G1 X143.523 Y86.404 E34.1856 F3600
G0 X143.523 Y85.839 F7200
G1 X166.477 Y108.792 E35.2653 F3600
G0 X166.477 Y108.227 F7200
G1 X143.523 Y85.273 E36.3449 F3600
G0 X143.523 Y84.707 F7200
G1 X166.477 Y107.661 E37.4246 F3600
G0 X166.477 Y107.095 F7200
G1 X143.523 Y84.142 E38.5042 F3600
G0 X143.523 Y83.576 F7200
G1 X166.477 Y106.529 E39.5839 F3600
G0 X166.477 Y105.964 F7200
G1 X154.999 Y94.486 E40.1238 F3600
G0 X155.921 Y94.842 F7200
G1 X166.477 Y105.398 E40.6203 F3600
G0 X166.477 Y104.832 F7200
G1 X156.517 Y94.873 E41.0888 F3600
G0 X157.083 Y94.873 F7200
G1 X166.477 Y104.267 E41.5306 F3600
G0 X166.477 Y103.701 F7200
G1 X157.649 Y94.873 E41.9459 F3600
G0 X158.214 Y94.873 F7200
G1 X166.477 Y103.135 E42.3345 F3600
G0 X166.477 Y102.570 F7200
G1 X158.780 Y94.873 E42.6965 F3600
G0 X159.346 Y94.873 F7200
G1 X166.477 Y102.004 E43.0319 F3600
G0 X166.477 Y101.438 F7200
G1 X159.912 Y94.873 E43.3408 F3600
G0 X160.477 Y94.873 F7200
G1 X166.477 Y100.873 E43.6230 F3600
G0 X166.477 Y100.307 F7200
G1 X161.043 Y94.873 E43.8785 F3600
G0 X161.609 Y94.873 F7200
G1 X166.477 Y99.741 E44.1075 F3600
G0 X166.477 Y99.176 F7200
G1 X162.174 Y94.873 E44.3099 F3600
G0 X162.740 Y94.873 F7200
G1 X166.477 Y98.610 E44.4857 F3600
G0 X166.477 Y98.044 F7200
G1 X163.306 Y94.873 E44.6348 F3600
G0 X163.871 Y94.873 F7200
G1 X166.477 Y97.478 E44.7574 F3600
G0 X166.477 Y96.913 F7200
G1 X164.437 Y94.873 E44.8533 F3600
G0 X165.003 Y94.873 F7200
G1 X166.477 Y96.347 E44.9227 F3600
G0 X166.477 Y95.781 F7200
G1 X165.568 Y94.873 E44.9654 F3600
G0 X166.134 Y94.873 F7200
G1 X166.477 Y95.216 E44.9815 F3600
G0 X163.542 Y94.513 F7200
G0 X156.302 Y94.513
G0 X155.991 Y94.489
G0 X155.666 Y94.410
G0 X155.356 Y94.282
G0 X155.070 Y94.107
G0 X154.815 Y93.890
G0 X154.598 Y93.635
G0 X154.423 Y93.349
G0 X154.295 Y93.040
G0 X154.216 Y92.714
G0 X154.192 Y92.403
G0 X154.192 Y92.274
G0 X154.192 Y92.274
G0 X153.820 Y92.185
G0 X153.832 Y92.188
G1 X143.818 Y82.173 E45.4525 F3600
G0 X144.383 Y82.173 F7200
G1 X153.832 Y91.622 E45.8970 F3600
G0 X153.832 Y91.056 F7200
G1 X144.949 Y82.173 E46.3148 F3600
G0 X145.515 Y82.173 F7200
G1 X153.832 Y90.491 E46.7060 F3600
G0 X153.832 Y89.925 F7200
G1 X146.080 Y82.173 E47.0706 F3600
G0 X146.646 Y82.173 F7200
G1 X153.832 Y89.359 E47.4086 F3600
G0 X153.832 Y88.793 F7200
G1 X147.212 Y82.173 E47.7200 F3600
G0 X147.777 Y82.173 F7200
G1 X153.832 Y88.228 E48.0048 F3600
G0 X153.832 Y87.662 F7200
G1 X148.343 Y82.173 E48.2630 F3600
G0 X148.909 Y82.173 F7200
G1 X153.832 Y87.096 E48.4946 F3600
G0 X153.832 Y86.531 F7200
G1 X149.474 Y82.173 E48.6996 F3600
G0 X150.040 Y82.173 F7200
G1 X153.832 Y85.965 E48.8779 F3600
G0 X153.832 Y85.399 F7200
G1 X150.606 Y82.173 E49.0297 F3600
G0 X151.171 Y82.173 F7200
G1 X153.832 Y84.834 E49.1548 F3600
G0 X153.832 Y84.268 F7200
G1 X151.737 Y82.173 E49.2533 F3600
G0 X152.303 Y82.173 F7200
G1 X153.832 Y83.702 E49.3253 F3600
G0 X153.832 Y83.137 F7200
G1 X152.869 Y82.173 E49.3706 F3600
G0 X153.434 Y82.173 F7200
G1 X153.832 Y82.571 E49.3893 F3600
; ------------------------------------
; Layer #3
; ------------------------------------
M106 S255 ;set fan speed
G92 E0 ;reset extr
;segType:HShell
G0 F3000 E-1.0000
G0 F1200 Z0.800
G0 X146.159 Y82.046 F7200
G0 F3000 E0.0000
G1 X143.396 Y84.809 E0.1300 F3600
G0 X143.396 Y84.243 F7200
G1 X145.593 Y82.046 E0.2333 F3600
G0 X145.028 Y82.046 F7200
G1 X143.396 Y83.678 E0.3100 F3600
G0 X143.396 Y83.112 F7200
G1 X144.462 Y82.046 E0.3602 F3600
G0 X143.896 Y82.046 F7200
G1 X143.396 Y82.546 E0.3837 F3600
;segType:Perimeter
G0 X142.795 Y82.674 F7200
G1 X142.711 Y81.879 E0.4103 F2160
G1 X142.817 Y81.673 E0.4180
G1 X143.022 Y81.466 E0.4277
G1 X143.282 Y81.334 E0.4374
G1 X143.586 Y81.286 E0.4476
G1 X153.769 Y81.286 E0.7863
G1 X154.073 Y81.334 E0.7965
G1 X154.332 Y81.466 E0.8062
G1 X154.538 Y81.673 E0.8159
G1 X154.671 Y81.932 E0.8256
G1 X154.719 Y82.236 E0.8358
G1 X154.719 Y92.396 E1.1738
G1 X154.795 Y92.877 E1.1900
G1 X155.024 Y93.325 E1.2067
G1 X155.380 Y93.681 E1.2235
G1 X155.828 Y93.910 E1.2402
G1 X156.309 Y93.986 E1.2564
G1 X166.414 Y93.986 E1.5925
G1 X166.718 Y94.034 E1.6027
G1 X166.978 Y94.167 E1.6124
G1 X167.184 Y94.373 E1.6221
G1 X167.316 Y94.632 E1.6318
G1 X167.364 Y94.936 E1.6420
G1 X167.364 Y117.764 E2.4013
G1 X167.316 Y118.068 E2.4115
G1 X167.184 Y118.327 E2.4212
G1 X166.978 Y118.534 E2.4309
G1 X166.718 Y118.666 E2.4406
G1 X166.414 Y118.714 E2.4508
G1 X156.286 Y118.714 E2.7877
G1 X155.982 Y118.666 E2.7979
G1 X155.723 Y118.534 E2.8076
G1 X155.517 Y118.327 E2.8173
G1 X155.384 Y118.068 E2.8270
G1 X155.336 Y117.764 E2.8372
G1 X155.336 Y107.604 E3.1751
G1 X155.260 Y107.123 E3.1913
G1 X155.032 Y106.675 E3.2081
G1 X154.676 Y106.319 E3.2248
G1 X154.227 Y106.090 E3.2416
G1 X153.746 Y106.014 E3.2578
G1 X143.586 Y106.014 E3.5957
G1 X143.282 Y105.966 E3.6059
G1 X143.022 Y105.833 E3.6156
G1 X142.816 Y105.628 E3.6253
G1 X142.684 Y105.368 E3.6350
G1 X142.636 Y105.064 E3.6452
G1 X142.636 Y82.236 E4.4045
G1 X142.675 Y81.992 E4.4127
G0 X143.210 Y81.397 F7200
;segType:Loop
G0 X143.617 Y81.686
G1 X143.617 Y81.686 E4.4127 F3600
G1 X153.738 Y81.686 E4.7493
G1 X153.948 Y81.719 E4.7564
G1 X154.094 Y81.794 E4.7619
G1 X154.211 Y81.910 E4.7674
G1 X154.286 Y82.057 E4.7728
G1 X154.319 Y82.267 E4.7799
G1 X154.319 Y92.427 E5.1178
G1 X154.410 Y93.002 E5.1372
G1 X154.696 Y93.564 E5.1582
G1 X155.141 Y94.009 E5.1791
G1 X155.703 Y94.295 E5.2001
G1 X156.278 Y94.386 E5.2194
G1 X166.383 Y94.386 E5.5555
G1 X166.593 Y94.419 E5.5626
G1 X166.740 Y94.494 E5.5681
G1 X166.856 Y94.611 E5.5735
G1 X166.931 Y94.757 E5.5790
G1 X166.964 Y94.967 E5.5861
G1 X166.964 Y117.733 E6.3433
G1 X166.931 Y117.943 E6.3503
G1 X166.856 Y118.090 E6.3558
G1 X166.739 Y118.206 E6.3613
G1 X166.593 Y118.281 E6.3668
G1 X166.383 Y118.314 E6.3738
G1 X156.317 Y118.314 E6.7086
G1 X156.107 Y118.281 E6.7157
G1 X155.961 Y118.206 E6.7212
G1 X155.844 Y118.089 E6.7266
G1 X155.769 Y117.942 E6.7321
G1 X155.736 Y117.733 E6.7392
G1 X155.736 Y107.573 E7.0771
G1 X155.645 Y106.998 E7.0965
G1 X155.359 Y106.437 E7.1174
G1 X154.914 Y105.991 E7.1384
G1 X154.352 Y105.705 E7.1593
G1 X153.777 Y105.614 E7.1787
G1 X143.617 Y105.614 E7.5166
G1 X143.407 Y105.581 E7.5237
G1 X143.260 Y105.506 E7.5292
G1 X143.144 Y105.389 E7.5347
G1 X143.069 Y105.243 E7.5401
G1 X143.036 Y105.033 E7.5472
G1 X143.036 Y82.267 E8.3044
G1 X143.069 Y82.057 E8.3115
G1 X143.144 Y81.910 E8.3169
G1 X143.269 Y81.786 E8.3228
G1 X143.425 Y81.741 E8.3282
;segType:HShell
G0 X166.254 Y117.954 F7200
G1 X166.604 Y117.604 E8.3446 F3600
G0 X166.604 Y117.039 F7200
G1 X165.689 Y117.954 E8.3877 F3600
G0 X165.123 Y117.954 F7200
G1 X166.604 Y116.473 E8.4573 F3600
G0 X166.604 Y115.907 F7200
G1 X164.557 Y117.954 E8.5536 F3600
G0 X163.992 Y117.954 F7200
G1 X166.604 Y115.342 E8.6765 F3600
G0 X166.604 Y114.776 F7200
G1 X163.426 Y117.954 E8.8259 F3600
G0 X162.860 Y117.954 F7200
G1 X166.604 Y114.210 E9.0020 F3600
G0 X166.604 Y113.645 F7200
G1 X162.294 Y117.954 E9.2047 F3600
G0 X161.729 Y117.954 F7200
G1 X166.604 Y113.079 E9.4340 F3600
G0 X166.604 Y112.513 F7200
G1 X161.163 Y117.954 E9.6899 F3600
G0 X160.597 Y117.954 F7200
G1 X166.604 Y111.947 E9.9725 F3600
G0 X166.604 Y111.382 F7200
G1 X160.032 Y117.954 E10.2816 F3600
G0 X159.466 Y117.954 F7200
G1 X166.604 Y110.816 E10.6173 F3600
G0 X166.604 Y110.250 F7200
G1 X158.900 Y117.954 E10.9797 F3600
G0 X158.335 Y117.954 F7200
G1 X166.604 Y109.685 E11.3686 F3600
G0 X166.604 Y109.119 F7200
G1 X157.769 Y117.954 E11.7842 F3600
G0 X157.203 Y117.954 F7200
G1 X166.604 Y108.553 E12.2264 F3600
G0 X166.604 Y107.988 F7200
G1 X156.638 Y117.954 E12.6951 F3600
G0 X156.162 Y117.864 F7200
G1 X166.604 Y107.422 E13.1863 F3600
G0 X166.604 Y106.856 F7200
G1 X156.096 Y117.364 E13.6805 F3600
G0 X156.096 Y116.798 F7200
G1 X166.604 Y106.291 E14.1748 F3600
G0 X166.604 Y105.725 F7200
G1 X156.096 Y116.233 E14.6690 F3600
G0 X156.096 Y115.667 F7200
G1 X166.604 Y105.159 E15.1633 F3600
G0 X166.604 Y104.594 F7200
G1 X156.096 Y115.101 E15.6575 F3600
G0 X156.096 Y114.536 F7200
G1 X166.604 Y104.028 E16.1518 F3600
G0 X166.604 Y103.462 F7200
G1 X156.096 Y113.970 E16.6460 F3600
G0 X156.096 Y113.404 F7200
G1 X166.604 Y102.897 E17.1403 F3600
G0 X166.604 Y102.331 F7200
G1 X156.096 Y112.838 E17.6345 F3600
G0 X156.096 Y112.273 F7200
G1 X166.604 Y101.765 E18.1288 F3600
G0 X166.604 Y101.199 F7200
G1 X156.096 Y111.707 E18.6230 F3600
G0 X156.096 Y111.141 F7200
G1 X166.604 Y100.634 E19.1173 F3600
G0 X166.604 Y100.068 F7200
G1 X156.096 Y110.576 E19.6115 F3600
G0 X156.096 Y110.010 F7200
G1 X166.604 Y99.502 E20.1058 F3600
G0 X166.604 Y98.937 F7200
G1 X156.096 Y109.444 E20.6000 F3600
G0 X156.096 Y108.879 F7200
G1 X166.604 Y98.371 E21.0942 F3600
G0 X166.604 Y97.805 F7200
G1 X156.096 Y108.313 E21.5885 F3600
G0 X156.096 Y107.747 F7200
G1 X166.604 Y97.240 E22.0827 F3600
G0 X166.604 Y96.674 F7200
G1 X156.047 Y107.231 E22.5793 F3600
G0 X155.936 Y106.776 F7200
G1 X166.604 Y96.108 E23.0811 F3600
G0 X166.604 Y95.543 F7200
G1 X155.745 Y106.401 E23.5918 F3600
G0 X155.506 Y106.074 F7200
G1 X166.601 Y94.979 E24.1137 F3600
G0 X166.269 Y94.746 F7200
G1 X155.223 Y105.792 E24.6332 F3600
G0 X154.880 Y105.570 F7200
G1 X165.703 Y94.746 E25.1423 F3600
G0 X165.137 Y94.746 F7200
G1 X154.505 Y105.379 E25.6424 F3600
G0 X154.029 Y105.289 F7200
G1 X164.572 Y94.746 E26.1383 F3600
G0 X164.006 Y94.746 F7200
G1 X153.499 Y105.254 E26.6326 F3600
G0 X152.933 Y105.254 F7200
G1 X163.440 Y94.746 E27.1268 F3600
G0 X162.875 Y94.746 F7200
G1 X152.367 Y105.254 E27.6211 F3600
G0 X151.802 Y105.254 F7200
G1 X162.309 Y94.746 E28.1153 F3600
G0 X161.743 Y94.746 F7200
G1 X151.236 Y105.254 E28.6095 F3600
G0 X150.670 Y105.254 F7200
G1 X161.178 Y94.746 E29.1038 F3600
G0 X160.612 Y94.746 F7200
G1 X150.104 Y105.254 E29.5980 F3600
G0 X149.539 Y105.254 F7200
G1 X160.046 Y94.746 E30.0922 F3600
G0 X159.480 Y94.746 F7200
G1 X148.973 Y105.254 E30.5865 F3600
G0 X148.407 Y105.254 F7200
G1 X158.915 Y94.746 E31.0807 F3600
G0 X158.349 Y94.746 F7200
G1 X147.842 Y105.254 E31.5749 F3600
G0 X147.276 Y105.254 F7200
G1 X157.783 Y94.746 E32.0692 F3600
G0 X157.218 Y94.746 F7200
G1 X146.710 Y105.254 E32.5634 F3600
G0 X146.145 Y105.254 F7200
G1 X156.652 Y94.746 E33.0577 F3600
G0 X156.109 Y94.724 F7200
G1 X145.579 Y105.254 E33.5529 F3600
G0 X145.013 Y105.254 F7200
G1 X155.620 Y94.647 E34.0519 F3600
G0 X155.239 Y94.463 F7200
G1 X144.448 Y105.254 E34.5594 F3600
G0 X143.882 Y105.254 F7200
G1 X154.879 Y94.256 E35.0767 F3600
G0 X154.597 Y93.973 F7200
G1 X143.432 Y105.138 E35.6019 F3600
G0 X143.396 Y104.608 F7200
G1 X154.342 Y93.662 E36.1167 F3600
G0 X154.151 Y93.287 F7200
G1 X143.396 Y104.042 E36.6226 F3600
G0 X143.396 Y103.477 F7200
G1 X154.021 Y92.851 E37.1224 F3600
G0 X153.959 Y92.348 F7200
G1 X143.396 Y102.911 E37.6192 F3600
G0 X143.396 Y102.345 F7200
G1 X153.959 Y91.783 E38.1160 F3600
G0 X153.959 Y91.217 F7200
G1 X143.396 Y101.780 E38.6129 F3600
G0 X143.396 Y101.214 F7200
G1 X153.959 Y90.651 E39.1097 F3600
G0 X153.959 Y90.086 F7200
G1 X143.396 Y100.648 E39.6065 F3600
G0 X143.396 Y100.083 F7200
G1 X153.959 Y89.520 E40.1034 F3600
G0 X153.959 Y88.954 F7200
G1 X143.396 Y99.517 E40.6002 F3600
G0 X143.396 Y98.951 F7200
G1 X153.959 Y88.389 E41.0970 F3600
G0 X153.959 Y87.823 F7200
G1 X143.396 Y98.385 E41.5938 F3600
G0 X143.396 Y97.820 F7200
G1 X153.959 Y87.257 E42.0907 F3600
G0 X153.959 Y86.692 F7200
G1 X143.396 Y97.254 E42.5875 F3600
G0 X143.396 Y96.688 F7200
G1 X153.959 Y86.126 E43.0843 F3600
G0 X153.959 Y85.560 F7200
G1 X143.396 Y96.123 E43.5811 F3600
G0 X143.396 Y95.557 F7200
G1 X153.959 Y84.995 E44.0780 F3600
G0 X153.959 Y84.429 F7200
G1 X143.396 Y94.991 E44.5748 F3600
G0 X143.396 Y94.426 F7200
G1 X153.959 Y83.863 E45.0716 F3600
G0 X153.959 Y83.298 F7200
G1 X143.396 Y93.860 E45.5684 F3600
G0 X143.396 Y93.294 F7200
G1 X153.959 Y82.732 E46.0653 F3600
G0 X153.941 Y82.184 F7200
G1 X143.396 Y92.729 E46.5613 F3600
G0 X143.396 Y92.163 F7200
G1 X153.513 Y82.046 E47.0371 F3600
G0 X152.947 Y82.046 F7200
G1 X143.396 Y91.597 E47.4864 F3600
G0 X143.396 Y91.032 F7200
G1 X152.382 Y82.046 E47.9090 F3600
G0 X151.816 Y82.046 F7200
G1 X143.396 Y90.466 E48.3051 F3600
G0 X143.396 Y89.900 F7200
G1 X151.250 Y82.046 E48.6745 F3600
G0 X150.685 Y82.046 F7200
G1 X143.396 Y89.334 E49.0173 F3600
G0 X143.396 Y88.769 F7200
G1 X150.119 Y82.046 E49.3335 F3600
G0 X149.553 Y82.046 F7200
G1 X143.396 Y88.203 E49.6231 F3600
G0 X143.396 Y87.637 F7200
G1 X148.988 Y82.046 E49.8861 F3600
G0 X148.422 Y82.046 F7200
G1 X143.396 Y87.072 E50.1225 F3600
G0 X143.396 Y86.506 F7200
G1 X147.856 Y82.046 E50.3323 F3600
G0 X147.290 Y82.046 F7200
G1 X143.396 Y85.940 E50.5155 F3600
G0 X143.396 Y85.375 F7200
G1 X146.725 Y82.046 E50.6720 F3600
; ------------------------------------
; Layer #4
; ------------------------------------
G92 E0 ;reset extr
;segType:Infill
G0 F3000 E-1.0000
G0 F1200 Z1.000
G0 X153.308 Y91.664 F7200
G0 F3000 E0.0000
G1 X144.341 Y82.697 E0.5061 F4500
;segType:Perimeter
G0 X142.720 Y82.650 F7200
G1 X142.636 Y81.854 E0.5327 F2160
G1 X142.753 Y81.626 E0.5413
G1 X142.976 Y81.403 E0.5518
G1 X143.258 Y81.259 E0.5623
G1 X143.586 Y81.207 E0.5733
G1 X153.769 Y81.207 E0.9120
G1 X154.097 Y81.259 E0.9231
G1 X154.379 Y81.403 E0.9336
G1 X154.602 Y81.626 E0.9441
G1 X154.746 Y81.908 E0.9546
G1 X154.798 Y82.236 E0.9657
G1 X154.798 Y92.396 E1.3036
G1 X154.870 Y92.853 E1.3190
G1 X155.087 Y93.279 E1.3349
G1 X155.426 Y93.618 E1.3508
G1 X155.852 Y93.835 E1.3667
G1 X156.309 Y93.907 E1.3821
G1 X166.414 Y93.907 E1.7182
G1 X166.742 Y93.959 E1.7293
G1 X167.024 Y94.103 E1.7398
G1 X167.247 Y94.326 E1.7503
G1 X167.391 Y94.608 E1.7608
G1 X167.443 Y94.936 E1.7719
G1 X167.443 Y117.764 E2.5311
G1 X167.391 Y118.092 E2.5422
G1 X167.247 Y118.374 E2.5527
G1 X167.024 Y118.597 E2.5632
G1 X166.742 Y118.741 E2.5737
G1 X166.414 Y118.793 E2.5848
G1 X156.286 Y118.793 E2.9216
G1 X155.958 Y118.741 E2.9327
G1 X155.676 Y118.597 E2.9432
G1 X155.453 Y118.374 E2.9537
G1 X155.309 Y118.092 E2.9642
G1 X155.257 Y117.764 E2.9753
G1 X155.257 Y107.604 E3.3132
G1 X155.185 Y107.147 E3.3286
G1 X154.968 Y106.721 E3.3445
G1 X154.629 Y106.382 E3.3604
G1 X154.203 Y106.165 E3.3763
G1 X153.746 Y106.093 E3.3917
G1 X143.586 Y106.093 E3.7296
G1 X143.258 Y106.041 E3.7407
G1 X142.976 Y105.897 E3.7512
G1 X142.753 Y105.674 E3.7617
G1 X142.609 Y105.392 E3.7722
G1 X142.557 Y105.064 E3.7833
G1 X142.557 Y82.236 E4.5425
G1 X142.600 Y81.967 E4.5516
G0 X143.135 Y81.373 F7200
;segType:Loop
G0 X143.482 Y81.629
G1 X143.617 Y81.607 E4.5562 F3600
G1 X153.738 Y81.607 E4.8928
G1 X153.972 Y81.644 E4.9007
G1 X154.141 Y81.730 E4.9070
G1 X154.275 Y81.864 E4.9133
G1 X154.361 Y82.033 E4.9196
G1 X154.398 Y82.267 E4.9275
G1 X154.398 Y92.427 E5.2654
G1 X154.485 Y92.978 E5.2839
G1 X154.760 Y93.517 E5.3040
G1 X155.188 Y93.945 E5.3242
G1 X155.727 Y94.220 E5.3443
G1 X156.278 Y94.307 E5.3629
G1 X166.383 Y94.307 E5.6989
G1 X166.766 Y94.411 E5.7121
G1 X166.920 Y94.564 E5.7194
G1 X167.006 Y94.733 E5.7257
G1 X167.043 Y94.967 E5.7336
G1 X167.043 Y117.733 E6.4907
G1 X167.006 Y117.967 E6.4986
G1 X166.920 Y118.136 E6.5049
G1 X166.786 Y118.270 E6.5112
G1 X166.617 Y118.356 E6.5175
G1 X166.383 Y118.393 E6.5254
G1 X156.317 Y118.393 E6.8602
G1 X156.083 Y118.356 E6.8681
G1 X155.914 Y118.270 E6.8744
G1 X155.780 Y118.136 E6.8807
G1 X155.694 Y117.967 E6.8870
G1 X155.657 Y117.733 E6.8949
G1 X155.657 Y107.573 E7.2328
G1 X155.570 Y107.022 E7.2513
G1 X155.295 Y106.483 E7.2715
G1 X154.867 Y106.055 E7.2916
G1 X154.328 Y105.780 E7.3118
G1 X153.777 Y105.693 E7.3303
G1 X143.617 Y105.693 E7.6682
G1 X143.383 Y105.656 E7.6761
G1 X143.214 Y105.570 E7.6824
G1 X143.080 Y105.436 E7.6887
G1 X142.994 Y105.267 E7.6950
G1 X142.957 Y105.033 E7.7029
G1 X142.957 Y82.267 E8.4601
G1 X142.994 Y82.033 E8.4680
G1 X143.080 Y81.864 E8.4743
G1 X143.214 Y81.730 E8.4806
;segType:Infill
G0 X144.047 Y86.928 F7200
G1 X165.953 Y108.834 E9.7171 F4500
G0 X160.846 Y117.303 F7200
G1 X156.747 Y113.204 E9.9484 F4500
G0 X156.747 Y108.679 F7200
G1 X165.371 Y117.303 E10.4352 F4500
G0 X165.953 Y113.360 F7200
G1 X144.047 Y91.453 E11.6717 F4500
G0 X144.047 Y95.979 F7200
G1 X152.671 Y104.603 E12.1585 F4500
G0 X148.146 Y104.603 F7200
G1 X144.047 Y100.504 E12.3899 F4500
G0 X157.041 Y95.397 F7200
G1 X165.953 Y104.309 E12.8929 F4500
G0 X165.953 Y99.783 F7200
G1 X161.566 Y95.397 E13.1406 F4500
G0 X160.477 Y94.307 F7200
G0 X156.278 Y94.307
G0 X155.727 Y94.220
G0 X155.188 Y93.945
G0 X154.760 Y93.517
G0 X154.485 Y92.978
G0 X154.398 Y92.427
G0 X154.398 Y88.228
G0 X154.398 Y88.228
G0 X153.299 Y87.129
G0 X153.308 Y87.138
G1 X148.867 Y82.697 E13.3913 F4500
;segType:HShell
G0 X153.589 Y93.642 F7200
G1 X155.063 Y95.116 E13.4606 F3600
G0 X155.877 Y95.364 F7200
G1 X153.341 Y92.828 E13.5799 F3600
G0 X153.308 Y92.230 F7200
G1 X154.132 Y93.054 E13.6187 F3600
G0 X154.038 Y92.393 F7200
G1 X153.308 Y91.664 E13.6530 F3600
G0 X153.308 Y91.098 F7200
G1 X154.038 Y91.828 E13.6873 F3600
G0 X154.038 Y91.262 F7200
G1 X153.308 Y90.532 E13.7216 F3600
G0 X153.308 Y89.967 F7200
G1 X154.038 Y90.696 E13.7559 F3600
G0 X154.038 Y90.131 F7200
G1 X153.308 Y89.401 E13.7903 F3600
G0 X153.308 Y88.835 F7200
G1 X154.038 Y89.565 E13.8246 F3600
G0 X154.038 Y88.999 F7200
G1 X153.308 Y88.270 E13.8589 F3600
G0 X153.308 Y87.704 F7200
G1 X154.038 Y88.434 E13.8932 F3600
G0 X154.038 Y87.868 F7200
G1 X153.308 Y87.138 E13.9275 F3600
G0 X153.308 Y86.573 F7200
G1 X154.038 Y87.302 E13.9619 F3600
G0 X154.038 Y86.737 F7200
G1 X153.308 Y86.007 E13.9962 F3600
G0 X153.308 Y85.441 F7200
G1 X154.038 Y86.171 E14.0305 F3600
G0 X154.038 Y85.605 F7200
G1 X153.308 Y84.876 E14.0648 F3600
G0 X153.308 Y84.310 F7200
G1 X154.038 Y85.040 E14.0991 F3600
G0 X154.038 Y84.474 F7200
G1 X153.308 Y83.744 E14.1334 F3600
G0 X153.308 Y83.179 F7200
G1 X154.038 Y83.908 E14.1678 F3600
G0 X154.038 Y83.342 F7200
G1 X152.663 Y81.967 E14.2324 F3600
G0 X153.228 Y81.967 F7200
G1 X154.038 Y82.777 E14.2705 F3600
G0 X152.826 Y82.697 F7200
G1 X152.097 Y81.967 E14.3048 F3600
G0 X151.531 Y81.967 F7200
G1 X152.261 Y82.697 E14.3391 F3600
G0 X151.695 Y82.697 F7200
G1 X150.966 Y81.967 E14.3734 F3600
G0 X150.400 Y81.967 F7200
G1 X151.129 Y82.697 E14.4077 F3600
G0 X150.564 Y82.697 F7200
G1 X149.834 Y81.967 E14.4421 F3600
G0 X149.269 Y81.967 F7200
G1 X149.998 Y82.697 E14.4764 F3600
G0 X149.432 Y82.697 F7200
G1 X148.703 Y81.967 E14.5107 F3600
G0 X148.137 Y81.967 F7200
G1 X148.867 Y82.697 E14.5450 F3600
G0 X148.301 Y82.697 F7200
G1 X147.572 Y81.967 E14.5793 F3600
G0 X147.006 Y81.967 F7200
G1 X147.735 Y82.697 E14.6136 F3600
G0 X147.170 Y82.697 F7200
G1 X146.440 Y81.967 E14.6479 F3600
G0 X145.874 Y81.967 F7200
G1 X146.604 Y82.697 E14.6822 F3600
G0 X146.038 Y82.697 F7200
G1 X145.309 Y81.967 E14.7165 F3600
G0 X144.743 Y81.967 F7200
G1 X145.472 Y82.697 E14.7508 F3600
G0 X144.907 Y82.697 F7200
G1 X144.177 Y81.967 E14.7851 F3600
G0 X143.616 Y81.972 F7200
G1 X144.341 Y82.697 E14.8192 F3600
G0 X144.047 Y82.968 F7200
G1 X143.334 Y82.255 E14.8527 F3600
G0 X143.317 Y82.804 F7200
G1 X144.047 Y83.534 E14.8871 F3600
G0 X144.047 Y84.100 F7200
G1 X143.317 Y83.370 E14.9214 F3600
G0 X143.317 Y83.936 F7200
G1 X144.047 Y84.665 E14.9557 F3600
G0 X144.047 Y85.231 F7200
G1 X143.317 Y84.501 E14.9900 F3600
G0 X143.317 Y85.067 F7200
G1 X144.047 Y85.797 E15.0243 F3600
G0 X144.047 Y86.362 F7200
G1 X143.317 Y85.633 E15.0586 F3600
G0 X143.317 Y86.198 F7200
G1 X144.047 Y86.928 E15.0930 F3600
G0 X144.047 Y87.494 F7200
G1 X143.317 Y86.764 E15.1273 F3600
G0 X143.317 Y87.330 F7200
G1 X144.047 Y88.059 E15.1616 F3600
G0 X144.047 Y88.625 F7200
G1 X143.317 Y87.895 E15.1959 F3600
G0 X143.317 Y88.461 F7200
G1 X144.047 Y89.191 E15.2302 F3600
G0 X144.047 Y89.756 F7200
G1 X143.317 Y89.027 E15.2646 F3600
G0 X143.317 Y89.592 F7200
G1 X144.047 Y90.322 E15.2989 F3600
G0 X144.047 Y90.888 F7200
G1 X143.317 Y90.158 E15.3332 F3600
G0 X143.317 Y90.724 F7200
G1 X144.047 Y91.453 E15.3675 F3600
G0 X144.047 Y92.019 F7200
G1 X143.317 Y91.289 E15.4018 F3600
G0 X143.317 Y91.855 F7200
G1 X144.047 Y92.585 E15.4361 F3600
G0 X144.047 Y93.150 F7200
G1 X143.317 Y92.421 E15.4705 F3600
G0 X143.317 Y92.987 F7200
G1 X144.047 Y93.716 E15.5048 F3600
G0 X144.047 Y94.282 F7200
G1 X143.317 Y93.552 E15.5391 F3600
G0 X143.317 Y94.118 F7200
G1 X144.047 Y94.848 E15.5734 F3600
G0 X144.047 Y95.413 F7200
G1 X143.317 Y94.684 E15.6077 F3600
G0 X143.317 Y95.249 F7200
G1 X144.047 Y95.979 E15.6421 F3600
G0 X144.047 Y96.545 F7200
G1 X143.317 Y95.815 E15.6764 F3600
G0 X143.317 Y96.381 F7200
G1 X144.047 Y97.110 E15.7107 F3600
G0 X144.047 Y97.676 F7200
G1 X143.317 Y96.946 E15.7450 F3600
G0 X143.317 Y97.512 F7200
G1 X144.047 Y98.242 E15.7793 F3600
G0 X144.047 Y98.807 F7200
G1 X143.317 Y98.078 E15.8136 F3600
G0 X143.317 Y98.643 F7200
G1 X144.047 Y99.373 E15.8480 F3600
G0 X144.047 Y99.939 F7200
G1 X143.317 Y99.209 E15.8823 F3600
G0 X143.317 Y99.775 F7200
G1 X144.047 Y100.504 E15.9166 F3600
G0 X144.047 Y101.070 F7200
G1 X143.317 Y100.340 E15.9509 F3600
G0 X143.317 Y100.906 F7200
G1 X144.047 Y101.636 E15.9852 F3600
G0 X144.047 Y102.201 F7200
G1 X143.317 Y101.472 E16.0196 F3600
G0 X143.317 Y102.038 F7200
G1 X144.047 Y102.767 E16.0539 F3600
G0 X144.047 Y103.333 F7200
G1 X143.317 Y102.603 E16.0882 F3600
G0 X143.317 Y103.169 F7200
G1 X144.047 Y103.898 E16.1225 F3600
G0 X144.047 Y104.464 F7200
G1 X143.317 Y103.735 E16.1568 F3600
G0 X143.317 Y104.300 F7200
G1 X144.350 Y105.333 E16.2054 F3600
G0 X143.784 Y105.333 F7200
G1 X143.317 Y104.866 E16.2274 F3600
G0 X144.186 Y104.603 F7200
G1 X144.915 Y105.333 E16.2617 F3600
G0 X145.481 Y105.333 F7200
G1 X144.752 Y104.603 E16.2960 F3600
G0 X145.317 Y104.603 F7200
G1 X146.047 Y105.333 E16.3303 F3600
G0 X146.612 Y105.333 F7200
G1 X145.883 Y104.603 E16.3646 F3600
G0 X146.449 Y104.603 F7200
G1 X147.178 Y105.333 E16.3989 F3600
G0 X147.744 Y105.333 F7200
G1 X147.014 Y104.603 E16.4332 F3600
G0 X147.580 Y104.603 F7200
G1 X148.309 Y105.333 E16.4675 F3600
G0 X148.875 Y105.333 F7200
G1 X148.146 Y104.603 E16.5018 F3600
G0 X148.712 Y104.603 F7200
G1 X149.441 Y105.333 E16.5361 F3600
G0 X150.007 Y105.333 F7200
G1 X149.277 Y104.603 E16.5704 F3600
G0 X149.843 Y104.603 F7200
G1 X150.572 Y105.333 E16.6047 F3600
G0 X151.138 Y105.333 F7200
G1 X150.409 Y104.603 E16.6390 F3600
G0 X150.974 Y104.603 F7200
G1 X151.704 Y105.333 E16.6734 F3600
G0 X152.269 Y105.333 F7200
G1 X151.540 Y104.603 E16.7077 F3600
G0 X152.106 Y104.603 F7200
G1 X152.835 Y105.333 E16.7420 F3600
G0 X153.401 Y105.333 F7200
G1 X152.671 Y104.603 E16.7763 F3600
G0 X153.237 Y104.603 F7200
G1 X153.997 Y105.363 E16.8120 F3600
G0 X154.832 Y105.633 F7200
G1 X153.806 Y104.606 E16.8603 F3600
G0 X154.466 Y104.701 F7200
G1 X156.649 Y106.884 E16.9630 F3600
G0 X156.157 Y105.826 F7200
G1 X155.524 Y105.193 E16.9928 F3600
G0 X155.717 Y106.518 F7200
G1 X156.744 Y107.544 E17.0410 F3600
G0 X156.747 Y108.113 F7200
G1 X155.987 Y107.353 E17.0768 F3600
G0 X156.017 Y107.949 F7200
G1 X156.747 Y108.679 E17.1111 F3600
G0 X156.747 Y109.244 F7200
G1 X156.017 Y108.515 E17.1454 F3600
G0 X156.017 Y109.081 F7200
G1 X156.747 Y109.810 E17.1797 F3600
G0 X156.747 Y110.376 F7200
G1 X156.017 Y109.646 E17.2140 F3600
G0 X156.017 Y110.212 F7200
G1 X156.747 Y110.942 E17.2483 F3600
G0 X156.747 Y111.507 F7200
G1 X156.017 Y110.778 E17.2826 F3600
G0 X156.017 Y111.344 F7200
G1 X156.747 Y112.073 E17.3169 F3600
G0 X156.747 Y112.639 F7200
G1 X156.017 Y111.909 E17.3512 F3600
G0 X156.017 Y112.475 F7200
G1 X156.747 Y113.204 E17.3855 F3600
G0 X156.747 Y113.770 F7200
G1 X156.017 Y113.041 E17.4198 F3600
G0 X156.017 Y113.606 F7200
G1 X156.747 Y114.336 E17.4541 F3600
G0 X156.747 Y114.901 F7200
G1 X156.017 Y114.172 E17.4884 F3600
G0 X156.017 Y114.738 F7200
G1 X156.747 Y115.467 E17.5227 F3600
G0 X156.747 Y116.033 F7200
G1 X156.017 Y115.303 E17.5571 F3600
G0 X156.017 Y115.869 F7200
G1 X156.747 Y116.598 E17.5914 F3600
G0 X156.747 Y117.164 F7200
G1 X156.017 Y116.435 E17.6257 F3600
G0 X156.017 Y117.000 F7200
G1 X157.050 Y118.033 E17.6742 F3600
G0 X156.484 Y118.033 F7200
G1 X156.017 Y117.566 E17.6962 F3600
G0 X156.886 Y117.303 F7200
G1 X157.615 Y118.033 E17.7305 F3600
G0 X158.181 Y118.033 F7200
G1 X157.452 Y117.303 E17.7648 F3600
G0 X158.017 Y117.303 F7200
G1 X158.747 Y118.033 E17.7991 F3600
G0 X159.312 Y118.033 F7200
G1 X158.583 Y117.303 E17.8334 F3600
G0 X159.149 Y117.303 F7200
G1 X159.878 Y118.033 E17.8677 F3600
G0 X160.444 Y118.033 F7200
G1 X159.714 Y117.303 E17.9020 F3600
G0 X160.280 Y117.303 F7200
G1 X161.009 Y118.033 E17.9363 F3600
G0 X161.575 Y118.033 F7200
G1 X160.846 Y117.303 E17.9706 F3600
G0 X161.411 Y117.303 F7200
G1 X162.141 Y118.033 E18.0049 F3600
G0 X162.706 Y118.033 F7200
G1 X161.977 Y117.303 E18.0392 F3600
G0 X162.543 Y117.303 F7200
G1 X163.272 Y118.033 E18.0735 F3600
G0 X163.838 Y118.033 F7200
G1 X163.108 Y117.303 E18.1079 F3600
G0 X163.674 Y117.303 F7200
G1 X164.403 Y118.033 E18.1422 F3600
G0 X164.969 Y118.033 F7200
G1 X164.240 Y117.303 E18.1765 F3600
G0 X164.806 Y117.303 F7200
G1 X165.535 Y118.033 E18.2108 F3600
G0 X166.101 Y118.033 F7200
G1 X165.371 Y117.303 E18.2451 F3600
G0 X165.902 Y117.269 F7200
G1 X166.582 Y117.949 E18.2771 F3600
G0 X166.683 Y117.484 F7200
G1 X165.953 Y116.754 E18.3114 F3600
G0 X165.953 Y116.188 F7200
G1 X166.683 Y116.918 E18.3457 F3600
G0 X166.683 Y116.352 F7200
G1 X165.953 Y115.623 E18.3800 F3600
G0 X165.953 Y115.057 F7200
G1 X166.683 Y115.787 E18.4143 F3600
G0 X166.683 Y115.221 F7200
G1 X165.953 Y114.491 E18.4487 F3600
G0 X165.953 Y113.926 F7200
G1 X166.683 Y114.655 E18.4830 F3600
G0 X166.683 Y114.089 F7200
G1 X165.953 Y113.360 E18.5173 F3600
G0 X165.953 Y112.794 F7200
G1 X166.683 Y113.524 E18.5516 F3600
G0 X166.683 Y112.958 F7200
G1 X165.953 Y112.228 E18.5859 F3600
G0 X165.953 Y111.663 F7200
G1 X166.683 Y112.392 E18.6202 F3600
G0 X166.683 Y111.827 F7200
G1 X165.953 Y111.097 E18.6546 F3600
G0 X165.953 Y110.531 F7200
G1 X166.683 Y111.261 E18.6889 F3600
G0 X166.683 Y110.695 F7200
G1 X165.953 Y109.966 E18.7232 F3600
G0 X165.953 Y109.400 F7200
G1 X166.683 Y110.130 E18.7575 F3600
G0 X166.683 Y109.564 F7200
G1 X165.953 Y108.834 E18.7918 F3600
G0 X165.953 Y108.269 F7200
G1 X166.683 Y108.998 E18.8262 F3600
G0 X166.683 Y108.433 F7200
G1 X165.953 Y107.703 E18.8605 F3600
G0 X165.953 Y107.137 F7200
G1 X166.683 Y107.867 E18.8948 F3600
G0 X166.683 Y107.301 F7200
G1 X165.953 Y106.572 E18.9291 F3600
G0 X165.953 Y106.006 F7200
G1 X166.683 Y106.736 E18.9634 F3600
G0 X166.683 Y106.170 F7200
G1 X165.953 Y105.440 E18.9978 F3600
G0 X165.953 Y104.875 F7200
G1 X166.683 Y105.604 E19.0321 F3600
G0 X166.683 Y105.038 F7200
G1 X165.953 Y104.309 E19.0664 F3600
G0 X165.953 Y103.743 F7200
G1 X166.683 Y104.473 E19.1007 F3600
G0 X166.683 Y103.907 F7200
G1 X165.953 Y103.178 E19.1350 F3600
G0 X165.953 Y102.612 F7200
G1 X166.683 Y103.341 E19.1693 F3600
G0 X166.683 Y102.776 F7200
G1 X165.953 Y102.046 E19.2037 F3600
G0 X165.953 Y101.480 F7200
G1 X166.683 Y102.210 E19.2380 F3600
G0 X166.683 Y101.644 F7200
G1 X165.953 Y100.915 E19.2723 F3600
G0 X165.953 Y100.349 F7200
G1 X166.683 Y101.079 E19.3066 F3600
G0 X166.683 Y100.513 F7200
G1 X165.953 Y99.783 E19.3409 F3600
G0 X165.953 Y99.218 F7200
G1 X166.683 Y99.947 E19.3753 F3600
G0 X166.683 Y99.382 F7200
G1 X165.953 Y98.652 E19.4096 F3600
G0 X165.953 Y98.086 F7200
G1 X166.683 Y98.816 E19.4439 F3600
G0 X166.683 Y98.250 F7200
G1 X165.953 Y97.521 E19.4782 F3600
G0 X165.953 Y96.955 F7200
G1 X166.683 Y97.685 E19.5125 F3600
G0 X166.683 Y97.119 F7200
G1 X165.953 Y96.389 E19.5469 F3600
G0 X165.953 Y95.824 F7200
G1 X166.683 Y96.553 E19.5812 F3600
G0 X166.683 Y95.988 F7200
G1 X165.363 Y94.667 E19.6433 F3600
G0 X165.928 Y94.667 F7200
G1 X166.683 Y95.422 E19.6788 F3600
G0 X165.526 Y95.397 F7200
G1 X164.797 Y94.667 E19.7131 F3600
G0 X164.231 Y94.667 F7200
G1 X164.961 Y95.397 E19.7474 F3600
G0 X164.395 Y95.397 F7200
G1 X163.666 Y94.667 E19.7817 F3600
G0 X163.100 Y94.667 F7200
G1 X163.829 Y95.397 E19.8160 F3600
G0 X163.263 Y95.397 F7200
G1 X162.534 Y94.667 E19.8503 F3600
G0 X161.968 Y94.667 F7200
G1 X162.698 Y95.397 E19.8846 F3600
G0 X162.132 Y95.397 F7200
G1 X161.403 Y94.667 E19.9189 F3600
G0 X160.837 Y94.667 F7200
G1 X161.566 Y95.397 E19.9532 F3600
G0 X161.001 Y95.397 F7200
G1 X160.271 Y94.667 E19.9875 F3600
G0 X159.706 Y94.667 F7200
G1 X160.435 Y95.397 E20.0218 F3600
G0 X159.869 Y95.397 F7200
G1 X159.140 Y94.667 E20.0562 F3600
G0 X158.574 Y94.667 F7200
G1 X159.304 Y95.397 E20.0905 F3600
G0 X158.738 Y95.397 F7200
G1 X158.009 Y94.667 E20.1248 F3600
G0 X157.443 Y94.667 F7200
G1 X158.172 Y95.397 E20.1591 F3600
G0 X157.607 Y95.397 F7200
G1 X156.877 Y94.667 E20.1934 F3600
G0 X156.312 Y94.667 F7200
G1 X157.041 Y95.397 E20.2277 F3600
G0 X156.475 Y95.397 F7200
G1 X155.651 Y94.573 E20.2664 F3600
; ------------------------------------
; Layer #5
; ------------------------------------
G92 E0 ;reset extr
;segType:HShell
G0 F3000 E-1.0000
G0 F1200 Z1.200
G0 X151.434 Y82.145 F7200
G0 F3000 E0.0000
G1 X150.585 Y82.145 E0.0208 F3600
G1 X150.020 Y82.145 E0.0417
G1 X149.454 Y82.145 E0.0625
G1 X148.888 Y82.145 E0.0833
G1 X148.323 Y82.145 E0.1042
G1 X147.757 Y82.145 E0.1250
G1 X147.191 Y82.145 E0.1459
G1 X146.626 Y82.145 E0.1667
;segType:Infill
G0 X146.970 Y82.367 F7200
G1 X143.717 Y85.620 E0.3503 F4500
;segType:Perimeter
G0 X142.679 Y82.637 F7200
G1 X142.595 Y81.841 E0.3769 F2160
G1 X142.718 Y81.601 E0.3859
G1 X142.951 Y81.368 E0.3969
G1 X143.244 Y81.218 E0.4078
G1 X143.586 Y81.164 E0.4193
G1 X153.769 Y81.164 E0.7580
G1 X154.111 Y81.218 E0.7695
G1 X154.404 Y81.368 E0.7805
G1 X154.637 Y81.601 E0.7914
G1 X154.787 Y81.894 E0.8024
G1 X154.841 Y82.236 E0.8139
G1 X154.841 Y92.396 E1.1518
G1 X154.912 Y92.839 E1.1668
G1 X155.122 Y93.254 E1.1822
G1 X155.452 Y93.582 E1.1977
G1 X155.866 Y93.793 E1.2132
G1 X156.309 Y93.864 E1.2281
G1 X166.414 Y93.864 E1.5642
G1 X166.756 Y93.918 E1.5757
G1 X167.049 Y94.067 E1.5866
G1 X167.282 Y94.301 E1.5976
G1 X167.432 Y94.594 E1.6086
G1 X167.486 Y94.936 E1.6201
G1 X167.486 Y117.764 E2.3794
G1 X167.432 Y118.106 E2.3909
G1 X167.282 Y118.399 E2.4018
G1 X167.049 Y118.632 E2.4128
G1 X166.756 Y118.782 E2.4237
G1 X166.414 Y118.836 E2.4352
G1 X156.286 Y118.836 E2.7721
G1 X155.944 Y118.782 E2.7836
G1 X155.651 Y118.632 E2.7946
G1 X155.417 Y118.399 E2.8055
G1 X155.268 Y118.106 E2.8165
G1 X155.214 Y117.764 E2.8280
G1 X155.214 Y107.604 E3.1659
G1 X155.144 Y107.161 E3.1809
G1 X154.932 Y106.746 E3.1963
G1 X154.604 Y106.418 E3.2118
G1 X154.189 Y106.207 E3.2273
G1 X153.746 Y106.136 E3.2422
G1 X143.586 Y106.136 E3.5801
G1 X143.244 Y106.082 E3.5916
G1 X142.951 Y105.933 E3.6026
G1 X142.718 Y105.699 E3.6135
G1 X142.568 Y105.406 E3.6245
G1 X142.514 Y105.064 E3.6360
G1 X142.514 Y82.236 E4.3953
G1 X142.558 Y81.954 E4.4048
G0 X143.094 Y81.359 F7200
;segType:Loop
G0 X143.468 Y81.587
G1 X143.617 Y81.564 E4.4098 F3600
G1 X153.738 Y81.564 E4.7464
G1 X153.985 Y81.603 E4.7547
G1 X154.166 Y81.695 E4.7615
G1 X154.310 Y81.839 E4.7682
G1 X154.402 Y82.020 E4.7750
G1 X154.441 Y82.267 E4.7833
G1 X154.441 Y92.427 E5.1213
G1 X154.526 Y92.964 E5.1394
G1 X154.795 Y93.492 E5.1590
G1 X155.214 Y93.910 E5.1787
G1 X155.740 Y94.179 E5.1984
G1 X156.278 Y94.264 E5.2165
G1 X166.383 Y94.264 E5.5526
G1 X166.630 Y94.303 E5.5609
G1 X166.811 Y94.395 E5.5677
G1 X166.955 Y94.539 E5.5744
G1 X167.047 Y94.720 E5.5812
G1 X167.086 Y94.967 E5.5895
G1 X167.086 Y117.733 E6.3467
G1 X167.047 Y117.980 E6.3550
G1 X166.955 Y118.161 E6.3618
G1 X166.811 Y118.305 E6.3685
G1 X166.630 Y118.397 E6.3753
G1 X166.383 Y118.436 E6.3836
G1 X156.317 Y118.436 E6.7184
G1 X156.070 Y118.397 E6.7268
G1 X155.889 Y118.305 E6.7335
G1 X155.745 Y118.161 E6.7403
G1 X155.653 Y117.981 E6.7470
G1 X155.614 Y117.733 E6.7554
G1 X155.614 Y107.573 E7.0933
G1 X155.529 Y107.035 E7.1114
G1 X155.260 Y106.508 E7.1310
G1 X154.842 Y106.090 E7.1507
G1 X154.314 Y105.821 E7.1704
G1 X153.777 Y105.736 E7.1885
G1 X143.617 Y105.736 E7.5264
G1 X143.369 Y105.697 E7.5348
G1 X143.189 Y105.605 E7.5415
G1 X143.045 Y105.461 E7.5483
G1 X142.953 Y105.280 E7.5550
G1 X142.914 Y105.033 E7.5634
G1 X142.914 Y82.267 E8.3205
G1 X142.953 Y82.020 E8.3289
G1 X143.045 Y81.839 E8.3356
G1 X143.189 Y81.695 E8.3424
;segType:Infill
G0 X151.495 Y82.367 F7200
G1 X143.717 Y90.145 E8.7814 F4500
G0 X143.717 Y94.671 F7200
G1 X153.638 Y84.749 E9.3414 F4500
G0 X154.441 Y85.422 F7200
G0 X154.441 Y92.427
G0 X154.526 Y92.964
G0 X154.795 Y93.492
G0 X155.214 Y93.910
G0 X155.740 Y94.179
G0 X156.278 Y94.264
G0 X164.990 Y94.264
G0 X164.990 Y94.264
G0 X165.958 Y95.075
G0 X165.948 Y95.067
G1 X155.451 Y105.564 E9.9339 F4500
G0 X166.283 Y103.783 F7200
G1 X156.417 Y113.649 E10.4908 F4500
G0 X156.958 Y117.633 F7200
G1 X166.283 Y108.308 E11.0172 F4500
G0 X166.283 Y112.834 F7200
G1 X161.484 Y117.633 E11.2881 F4500
G0 X156.417 Y109.124 F7200
G1 X166.283 Y99.257 E11.8450 F4500
G0 X161.423 Y95.067 F7200
G1 X151.556 Y104.933 E12.4019 F4500
G0 X147.031 Y104.933 F7200
G1 X156.897 Y95.067 E12.9588 F4500
G0 X153.902 Y93.537 F7200
G1 X143.717 Y103.722 E13.5337 F4500
G0 X143.717 Y99.196 F7200
G1 X153.638 Y89.275 E14.0937 F4500
;segType:HShell
G0 X144.019 Y81.924 F7200
G1 X143.274 Y82.669 E14.1287 F3600
G0 X143.495 Y82.730 F7200
G1 X143.495 Y83.579 E14.1496 F3600
G1 X143.495 Y84.144 E14.1704
G1 X143.495 Y84.710 E14.1913
G1 X143.495 Y85.276 E14.2121
G1 X143.495 Y85.841 E14.2329
G1 X143.495 Y86.407 E14.2538
G1 X143.495 Y86.973 E14.2746
G1 X143.495 Y87.538 E14.2954
G1 X143.495 Y88.104 E14.3163
G1 X143.495 Y88.670 E14.3371
G1 X143.495 Y89.235 E14.3580
G1 X143.495 Y89.801 E14.3788
G1 X143.495 Y90.367 E14.3996
G1 X143.495 Y90.932 E14.4205
G1 X143.495 Y91.498 E14.4413
G1 X143.495 Y92.064 E14.4621
G1 X143.495 Y92.629 E14.4830
G1 X143.495 Y93.195 E14.5038
G1 X143.495 Y93.761 E14.5247
G1 X143.495 Y94.327 E14.5455
G1 X143.495 Y94.892 E14.5663
G1 X143.495 Y95.458 E14.5872
G1 X143.495 Y96.024 E14.6080
G1 X143.495 Y96.589 E14.6288
G1 X143.495 Y97.155 E14.6497
G1 X143.495 Y97.721 E14.6705
G1 X143.495 Y98.286 E14.6914
G1 X143.495 Y98.852 E14.7122
G1 X143.495 Y99.418 E14.7330
G1 X143.495 Y99.983 E14.7539
G1 X143.495 Y100.549 E14.7747
G1 X143.495 Y101.115 E14.7955
G1 X143.495 Y101.680 E14.8164
G1 X143.495 Y102.246 E14.8372
G1 X143.495 Y102.812 E14.8581
G1 X143.495 Y103.377 E14.8789
G1 X143.495 Y103.943 E14.8997
G1 X143.495 Y104.509 E14.9206
G1 X143.525 Y105.045 E14.9414
G1 X143.981 Y105.155 E14.9596
G1 X144.547 Y105.155 E14.9804
G1 X145.112 Y105.155 E15.0013
G1 X145.678 Y105.155 E15.0221
G1 X146.244 Y105.155 E15.0429
G1 X146.809 Y105.155 E15.0637
G1 X147.375 Y105.155 E15.0846
G1 X147.941 Y105.155 E15.1054
G1 X148.506 Y105.155 E15.1262
G1 X149.072 Y105.155 E15.1470
G1 X149.638 Y105.155 E15.1679
G1 X150.203 Y105.155 E15.1887
G1 X150.769 Y105.155 E15.2095
G1 X151.335 Y105.155 E15.2304
G1 X151.900 Y105.155 E15.2512
G1 X152.466 Y105.155 E15.2720
G1 X153.032 Y105.155 E15.2928
G1 X153.596 Y105.157 E15.3137
G1 X154.119 Y105.199 E15.3343
G1 X154.578 Y105.305 E15.3527
G1 X154.956 Y105.494 E15.3685
G1 X155.295 Y105.720 E15.3841
G1 X155.579 Y106.001 E15.3988
G1 X155.819 Y106.327 E15.4137
G1 X156.014 Y106.698 E15.4291
G1 X156.134 Y107.144 E15.4449
G1 X156.190 Y107.654 E15.4630
G1 X156.195 Y108.214 E15.4833
G1 X156.195 Y108.779 E15.5041
G1 X156.195 Y109.345 E15.5249
G1 X156.195 Y109.911 E15.5458
G1 X156.195 Y110.476 E15.5666
G1 X156.195 Y111.042 E15.5874
G1 X156.195 Y111.608 E15.6083
G1 X156.195 Y112.174 E15.6291
G1 X156.195 Y112.739 E15.6499
G1 X156.195 Y113.305 E15.6707
G1 X156.195 Y113.871 E15.6916
G1 X156.195 Y114.436 E15.7124
G1 X156.195 Y115.002 E15.7332
G1 X156.195 Y115.568 E15.7540
G1 X156.195 Y116.133 E15.7749
G1 X156.195 Y116.699 E15.7957
G1 X156.195 Y117.265 E15.8165
G1 X156.260 Y117.766 E15.8373
G1 X156.737 Y117.855 E15.8554
G1 X157.302 Y117.855 E15.8763
G1 X157.868 Y117.855 E15.8971
G1 X158.434 Y117.855 E15.9180
G1 X158.999 Y117.855 E15.9388
G1 X159.565 Y117.855 E15.9596
G1 X160.131 Y117.855 E15.9805
G1 X160.697 Y117.855 E16.0013
G1 X161.262 Y117.855 E16.0221
G1 X161.828 Y117.855 E16.0430
G1 X162.394 Y117.855 E16.0638
G1 X162.959 Y117.855 E16.0847
G1 X163.525 Y117.855 E16.1055
G1 X164.091 Y117.855 E16.1263
G1 X164.656 Y117.855 E16.1472
G1 X165.222 Y117.855 E16.1680
G1 X165.788 Y117.855 E16.1888
G0 X166.132 Y118.076 F7200
G1 X166.726 Y117.482 E16.2168 F3600
G0 X166.505 Y117.421 F7200
G1 X166.505 Y116.572 E16.2376 F3600
G1 X166.505 Y116.006 E16.2585
G1 X166.505 Y115.441 E16.2793
G1 X166.505 Y114.875 E16.3001
G1 X166.505 Y114.309 E16.3210
G1 X166.505 Y113.744 E16.3418
G1 X166.505 Y113.178 E16.3627
G1 X166.505 Y112.612 E16.3835
G1 X166.505 Y112.047 E16.4043
G1 X166.505 Y111.481 E16.4252
G1 X166.505 Y110.915 E16.4460
G1 X166.505 Y110.350 E16.4668
G1 X166.505 Y109.784 E16.4877
G1 X166.505 Y109.218 E16.5085
G1 X166.505 Y108.652 E16.5294
G1 X166.505 Y108.087 E16.5502
G1 X166.505 Y107.521 E16.5710
G1 X166.505 Y106.955 E16.5919
G1 X166.505 Y106.390 E16.6127
G1 X166.505 Y105.824 E16.6336
G1 X166.505 Y105.258 E16.6544
G1 X166.505 Y104.693 E16.6752
G1 X166.505 Y104.127 E16.6961
G1 X166.505 Y103.561 E16.7169
G1 X166.505 Y102.996 E16.7377
G1 X166.505 Y102.430 E16.7586
G1 X166.505 Y101.864 E16.7794
G1 X166.505 Y101.299 E16.8003
G1 X166.505 Y100.733 E16.8211
G1 X166.505 Y100.167 E16.8419
G1 X166.505 Y99.602 E16.8628
G1 X166.505 Y99.036 E16.8836
G1 X166.505 Y98.470 E16.9044
G1 X166.505 Y97.904 E16.9253
G1 X166.505 Y97.339 E16.9461
G1 X166.505 Y96.773 E16.9670
G1 X166.505 Y96.207 E16.9878
G1 X166.505 Y95.642 E17.0086
G1 X166.486 Y95.095 E17.0295
G1 X166.165 Y94.850 E17.0485
G1 X165.604 Y94.845 E17.0689
G1 X165.038 Y94.845 E17.0897
G1 X164.473 Y94.845 E17.1106
G1 X163.907 Y94.845 E17.1314
G1 X163.341 Y94.845 E17.1522
G1 X162.776 Y94.845 E17.1730
G1 X162.210 Y94.845 E17.1939
G1 X161.644 Y94.845 E17.2147
G1 X161.079 Y94.845 E17.2355
G1 X160.513 Y94.845 E17.2563
G1 X159.947 Y94.845 E17.2772
G1 X159.381 Y94.845 E17.2980
G1 X158.816 Y94.845 E17.3188
G1 X158.250 Y94.845 E17.3396
G1 X157.684 Y94.845 E17.3605
G1 X157.119 Y94.845 E17.3813
G1 X156.553 Y94.845 E17.4021
G1 X156.016 Y94.817 E17.4229
G1 X155.552 Y94.715 E17.4416
G1 X155.161 Y94.541 E17.4580
G1 X154.810 Y94.325 E17.4738
G1 X154.521 Y94.049 E17.4884
G1 X154.270 Y93.734 E17.5035
G1 X154.071 Y93.367 E17.5187
G1 X153.937 Y92.936 E17.5347
G1 X153.869 Y92.438 E17.5526
G1 X153.860 Y91.882 E17.5725
G1 X153.860 Y91.316 E17.5934
G1 X153.860 Y90.750 E17.6142
G1 X153.860 Y90.185 E17.6350
G1 X153.860 Y89.619 E17.6558
G1 X153.860 Y89.053 E17.6767
G1 X153.860 Y88.488 E17.6975
G1 X153.860 Y87.922 E17.7183
G1 X153.860 Y87.356 E17.7391
G1 X153.860 Y86.791 E17.7600
G1 X153.860 Y86.225 E17.7808
G1 X153.860 Y85.659 E17.8016
G1 X153.860 Y85.094 E17.8224
G1 X153.860 Y84.528 E17.8433
G1 X153.860 Y83.962 E17.8641
G1 X153.860 Y83.396 E17.8849
G1 X153.860 Y82.831 E17.9057
G1 X153.836 Y82.289 E17.9266
G1 X153.414 Y82.145 E17.9452
G1 X152.848 Y82.145 E17.9660
G1 X152.282 Y82.145 E17.9869
G1 X151.717 Y82.145 E18.0077
G0 X146.343 Y82.145 F7200
G1 X145.494 Y82.145 E18.0285 F3600
G1 X144.929 Y82.145 E18.0494
G1 X144.363 Y82.145 E18.0702
; ------------------------------------
; Layer #6
; ------------------------------------
G92 E0 ;reset extr
;segType:Infill
G0 F3000 E-1.0000
G0 F1200 Z1.400
G0 X153.832 Y92.188 F7200
G0 F3000 E0.0000
G1 X143.818 Y82.173 E0.5653 F4500
;segType:Perimeter
G0 X142.666 Y82.632 F7200
G1 X142.582 Y81.837 E0.5919 F2160
G1 X142.707 Y81.593 E0.6010
G1 X142.943 Y81.357 E0.6121
G1 X143.240 Y81.205 E0.6232
G1 X143.584 Y81.150 E0.6348
G1 X153.769 Y81.150 E0.9735
G1 X154.115 Y81.205 E0.9852
G1 X154.412 Y81.357 E0.9963
G1 X154.648 Y81.593 E1.0074
G1 X154.800 Y81.890 E1.0185
G1 X154.855 Y82.236 E1.0301
G1 X154.855 Y92.398 E1.3681
G1 X154.924 Y92.835 E1.3828
G1 X155.134 Y93.246 E1.3982
G1 X155.461 Y93.573 E1.4135
G1 X155.870 Y93.781 E1.4288
G1 X156.309 Y93.850 E1.4436
G1 X166.414 Y93.850 E1.7797
G1 X166.760 Y93.905 E1.7913
G1 X167.057 Y94.057 E1.8024
G1 X167.293 Y94.293 E1.8135
G1 X167.445 Y94.590 E1.8246
G1 X167.499 Y94.934 E1.8362
G1 X167.499 Y117.764 E2.5956
G1 X167.445 Y118.110 E2.6072
G1 X167.293 Y118.407 E2.6183
G1 X167.057 Y118.643 E2.6294
G1 X166.760 Y118.795 E2.6405
G1 X166.416 Y118.850 E2.6521
G1 X156.286 Y118.850 E2.9890
G1 X155.940 Y118.795 E3.0006
G1 X155.643 Y118.643 E3.0117
G1 X155.407 Y118.407 E3.0229
G1 X155.255 Y118.110 E3.0340
G1 X155.200 Y117.764 E3.0456
G1 X155.200 Y107.604 E3.3835
G1 X155.131 Y107.165 E3.3983
G1 X154.922 Y106.754 E3.4136
G1 X154.596 Y106.428 E3.4290
G1 X154.185 Y106.219 E3.4443
G1 X153.746 Y106.150 E3.4591
G1 X143.586 Y106.150 E3.7970
G1 X143.240 Y106.095 E3.8086
G1 X142.943 Y105.943 E3.8198
G1 X142.707 Y105.707 E3.8309
G1 X142.555 Y105.410 E3.8420
G1 X142.501 Y105.066 E3.8535
G1 X142.501 Y82.236 E4.6129
G1 X142.546 Y81.949 E4.6225
G0 X143.081 Y81.355 F7200
;segType:Loop
G0 X143.464 Y81.575
G1 X143.616 Y81.550 E4.6276 F3600
G1 X153.738 Y81.550 E4.9643
G1 X153.990 Y81.590 E4.9728
G1 X154.174 Y81.684 E4.9796
G1 X154.321 Y81.831 E4.9865
G1 X154.415 Y82.015 E4.9934
G1 X154.455 Y82.267 E5.0019
G1 X154.455 Y92.429 E5.3399
G1 X154.539 Y92.961 E5.3578
G1 X154.806 Y93.484 E5.3773
G1 X155.223 Y93.900 E5.3969
G1 X155.745 Y94.166 E5.4164
G1 X156.278 Y94.250 E5.4344
G1 X166.383 Y94.250 E5.7704
G1 X166.635 Y94.290 E5.7789
G1 X166.819 Y94.384 E5.7858
G1 X166.966 Y94.531 E5.7927
G1 X167.060 Y94.716 E5.7996
G1 X167.099 Y94.966 E5.8080
G1 X167.099 Y117.733 E6.5653
G1 X167.060 Y117.985 E6.5737
G1 X166.966 Y118.169 E6.5806
G1 X166.819 Y118.316 E6.5875
G1 X166.634 Y118.410 E6.5944
G1 X166.384 Y118.450 E6.6028
G1 X156.317 Y118.450 E6.9377
G1 X156.065 Y118.410 E6.9462
G1 X155.881 Y118.316 E6.9530
G1 X155.734 Y118.169 E6.9599
G1 X155.640 Y117.985 E6.9668
G1 X155.600 Y117.733 E6.9753
G1 X155.600 Y107.573 E7.3132
G1 X155.516 Y107.040 E7.3312
G1 X155.249 Y106.516 E7.3507
G1 X154.834 Y106.101 E7.3703
G1 X154.310 Y105.834 E7.3898
G1 X153.777 Y105.750 E7.4078
G1 X143.617 Y105.750 E7.7457
G1 X143.365 Y105.710 E7.7542
G1 X143.181 Y105.616 E7.7610
G1 X143.034 Y105.469 E7.7679
G1 X142.940 Y105.284 E7.7748
G1 X142.901 Y105.034 E7.7833
G1 X142.901 Y82.267 E8.5405
G1 X142.940 Y82.015 E8.5490
G1 X143.034 Y81.831 E8.5559
G1 X143.181 Y81.684 E8.5628
;segType:Infill
G0 X143.523 Y86.404 F7200
G1 X166.477 Y109.358 E9.8583 F4500
G0 X166.477 Y113.883 F7200
G1 X143.523 Y90.930 E11.1539 F4500
G0 X143.523 Y95.455 F7200
G1 X153.195 Y105.127 E11.6998 F4500
G0 X143.523 Y99.981 F7200
G1 X148.669 Y105.127 E11.9903 F4500
G0 X144.144 Y105.127 F7200
G1 X143.523 Y104.506 E12.0253 F4500
G0 X145.455 Y105.750 F7200
G0 X153.777 Y105.750
G0 X154.310 Y105.834
G0 X154.834 Y106.101
G0 X155.249 Y106.516
G0 X155.516 Y107.040
G0 X155.600 Y107.573
G0 X155.600 Y112.280
G0 X155.600 Y112.280
G0 X156.234 Y112.688
G0 X156.223 Y112.681
G1 X161.369 Y117.827 E12.3158 F4500
G0 X156.844 Y117.827 F7200
G1 X156.223 Y117.206 E12.3508 F4500
G0 X165.895 Y117.827 F7200
G1 X156.223 Y108.155 E12.8967 F4500
G0 X166.477 Y104.832 F7200
G1 X156.517 Y94.873 E13.4589 F4500
G0 X161.043 Y94.873 F7200
G1 X166.477 Y100.307 E13.7656 F4500
G0 X166.477 Y95.781 F7200
G1 X165.568 Y94.873 E13.8169 F4500
G0 X164.946 Y94.250 F7200
G0 X156.278 Y94.250
G0 X155.745 Y94.166
G0 X155.223 Y93.900
G0 X154.806 Y93.484
G0 X154.539 Y92.961
G0 X154.455 Y92.429
G0 X154.455 Y83.759
G0 X154.455 Y83.759
G0 X153.823 Y83.128
G0 X153.832 Y83.137
G1 X152.869 Y82.173 E13.8712 F4500
G0 X153.832 Y87.662 F7200
G1 X148.343 Y82.173 E14.1811 F4500
;segType:HShell
G0 X153.758 Y81.931 F7200
G1 X154.089 Y82.263 E14.1967 F3600
G0 X154.235 Y93.156 F7200
G1 X153.863 Y92.784 E14.2141 F3600
G0 X154.219 Y93.706 F7200
G1 X154.999 Y94.486 E14.2508 F3600
G0 X155.549 Y94.470 F7200
G1 X155.921 Y94.842 E14.2683 F3600
G0 X153.521 Y105.171 F7200
G1 X154.694 Y105.495 E14.2952 F3600
G0 X155.747 Y106.265 F7200
G1 X156.071 Y107.438 E14.3222 F3600
G0 X156.541 Y118.089 F7200
G1 X155.961 Y117.509 E14.3495 F3600
G0 X155.600 Y117.149 F7200
G0 X155.600 Y107.573
G0 X155.516 Y107.040
G0 X155.249 Y106.516
G0 X154.834 Y106.101
G0 X154.310 Y105.834
G0 X153.777 Y105.750
G0 X144.201 Y105.750
G0 X144.201 Y105.750
G0 X143.832 Y105.381
G0 X143.841 Y105.390
G1 X143.261 Y104.809 E14.3768 F3600
; ------------------------------------
; Layer #7
; ------------------------------------
G92 E0 ;reset extr
;segType:Infill
G0 F3000 E-1.0000
G0 F1200 Z1.600
G0 X147.290 Y82.046 F7200
G0 F3000 E0.0000
G1 X143.396 Y85.940 E0.2198 F4500
;segType:Loop
G0 X143.464 Y81.575 F7200
G1 X143.617 Y81.550 E0.2250 F3600
G1 X153.738 Y81.550 E0.5616
G1 X153.990 Y81.590 E0.5701
G1 X154.174 Y81.684 E0.5769
G1 X154.321 Y81.831 E0.5838
G1 X154.415 Y82.015 E0.5907
G1 X154.455 Y82.267 E0.5992
G1 X154.455 Y92.427 E0.9371
G1 X154.539 Y92.960 E0.9551
G1 X154.806 Y93.484 E0.9746
G1 X155.221 Y93.899 E0.9942
G1 X155.745 Y94.166 E1.0137
G1 X156.278 Y94.250 E1.0316
G1 X166.383 Y94.250 E1.3677
G1 X166.635 Y94.290 E1.3762
G1 X166.819 Y94.384 E1.3831
G1 X166.966 Y94.531 E1.3900
G1 X167.060 Y94.715 E1.3969
G1 X167.099 Y94.967 E1.4054
G1 X167.099 Y117.733 E2.1626
G1 X167.060 Y117.985 E2.1710
G1 X166.966 Y118.169 E2.1779
G1 X166.819 Y118.316 E2.1848
G1 X166.635 Y118.410 E2.1917
G1 X166.383 Y118.450 E2.2002
G1 X156.317 Y118.450 E2.5350
G1 X156.065 Y118.410 E2.5435
G1 X155.881 Y118.316 E2.5503
G1 X155.734 Y118.169 E2.5572
G1 X155.640 Y117.985 E2.5641
G1 X155.600 Y117.733 E2.5726
G1 X155.600 Y107.573 E2.9105
G1 X155.516 Y107.040 E2.9285
G1 X155.249 Y106.516 E2.9480
G1 X154.834 Y106.101 E2.9676
G1 X154.310 Y105.834 E2.9871
G1 X153.777 Y105.750 E3.0050
G1 X143.617 Y105.750 E3.3430
G1 X143.365 Y105.710 E3.3515
G1 X143.181 Y105.616 E3.3583
G1 X143.034 Y105.469 E3.3652
G1 X142.940 Y105.285 E3.3721
G1 X142.901 Y105.033 E3.3806
G1 X142.901 Y82.267 E4.1378
G1 X142.940 Y82.015 E4.1463
G1 X143.034 Y81.831 E4.1532
G1 X143.181 Y81.684 E4.1600
;segType:Perimeter
G0 X142.666 Y82.632 F7200
G1 X142.582 Y81.837 E4.1867 F2160
G1 X142.707 Y81.593 E4.1958
G1 X142.943 Y81.357 E4.2069
G1 X143.240 Y81.205 E4.2180
G1 X143.586 Y81.150 E4.2296
G1 X153.769 Y81.150 E4.5683
G1 X154.115 Y81.205 E4.5799
G1 X154.412 Y81.357 E4.5910
G1 X154.648 Y81.593 E4.6022
G1 X154.800 Y81.890 E4.6133
G1 X154.855 Y82.236 E4.6249
G1 X154.855 Y92.396 E4.9628
G1 X154.924 Y92.835 E4.9776
G1 X155.133 Y93.246 E4.9929
G1 X155.459 Y93.572 E5.0083
G1 X155.870 Y93.781 E5.0236
G1 X156.309 Y93.850 E5.0384
G1 X166.414 Y93.850 E5.3745
G1 X166.760 Y93.905 E5.3861
G1 X167.057 Y94.057 E5.3972
G1 X167.293 Y94.293 E5.4083
G1 X167.445 Y94.590 E5.4194
G1 X167.499 Y94.936 E5.4311
G1 X167.499 Y117.764 E6.1903
G1 X167.445 Y118.110 E6.2020
G1 X167.293 Y118.407 E6.2131
G1 X167.057 Y118.643 E6.2242
G1 X166.760 Y118.795 E6.2353
G1 X166.414 Y118.850 E6.2469
G1 X156.286 Y118.850 E6.5838
G1 X155.940 Y118.795 E6.5954
G1 X155.643 Y118.643 E6.6065
G1 X155.407 Y118.407 E6.6176
G1 X155.255 Y118.110 E6.6287
G1 X155.200 Y117.764 E6.6404
G1 X155.200 Y107.604 E6.9783
G1 X155.131 Y107.165 E6.9931
G1 X154.922 Y106.754 E7.0084
G1 X154.596 Y106.428 E7.0237
G1 X154.185 Y106.219 E7.0391
G1 X153.746 Y106.150 E7.0539
G1 X143.586 Y106.150 E7.3918
G1 X143.240 Y106.095 E7.4034
G1 X142.943 Y105.943 E7.4145
G1 X142.707 Y105.707 E7.4256
G1 X142.555 Y105.410 E7.4367
G1 X142.501 Y105.064 E7.4484
G1 X142.501 Y82.236 E8.2077
G1 X142.546 Y81.949 E8.2173
G0 X143.081 Y81.355 F7200
;segType:Infill
G0 X143.396 Y90.466
G1 X151.816 Y82.046 E8.6925 F4500
G0 X153.959 Y84.429 F7200
G1 X143.396 Y94.991 E9.2887 F4500
G0 X143.396 Y99.517 F7200
G1 X153.959 Y88.954 E9.8849 F4500
G0 X154.455 Y89.836 F7200
G0 X154.455 Y92.427
G0 X154.539 Y92.960
G0 X154.806 Y93.484
G0 X155.221 Y93.899
G0 X155.745 Y94.166
G0 X156.278 Y94.250
G0 X156.939 Y94.250
G0 X156.939 Y94.250
G0 X157.224 Y94.757
G0 X157.218 Y94.746
G1 X146.710 Y105.254 E10.4780 F4500
G0 X147.098 Y105.750 F7200
G0 X153.777 Y105.750
G0 X154.310 Y105.834
G0 X154.834 Y106.101
G0 X155.249 Y106.516
G0 X155.516 Y107.040
G0 X155.600 Y107.573
G0 X155.600 Y116.627
G0 X155.600 Y116.627
G0 X156.645 Y117.964
G0 X156.638 Y117.954
G1 X166.604 Y107.988 E11.0405 F4500
G0 X165.689 Y117.954 F7200
G1 X166.604 Y117.039 E11.0922 F4500
G0 X166.604 Y112.513 F7200
G1 X161.163 Y117.954 E11.3993 F4500
G0 X156.096 Y113.970 F7200
G1 X166.604 Y103.462 E11.9924 F4500
G0 X166.604 Y98.937 F7200
G1 X156.096 Y109.444 E12.5855 F4500
G0 X155.223 Y105.792 F7200
G1 X166.269 Y94.746 E13.2089 F4500
G0 X161.743 Y94.746 F7200
G1 X151.236 Y105.254 E13.8020 F4500
G0 X143.396 Y104.042 F7200
G1 X154.151 Y93.287 E14.4091 F4500
; ------------------------------------
; Layer #8
; ------------------------------------
G92 E0 ;reset extr
;segType:Infill
G0 X154.038 Y92.393 F7200
G0 F1200 Z1.800
G1 X143.616 Y81.972 E0.5882 F4500
;segType:Perimeter
G0 X142.666 Y82.632 F7200
G1 X142.582 Y81.837 E0.6148 F2160
G1 X142.707 Y81.593 E0.6239
G1 X142.943 Y81.357 E0.6351
G1 X143.240 Y81.205 E0.6462
G1 X143.586 Y81.150 E0.6578
G1 X153.769 Y81.150 E0.9965
G1 X154.115 Y81.205 E1.0081
G1 X154.412 Y81.357 E1.0192
G1 X154.648 Y81.593 E1.0303
G1 X154.800 Y81.890 E1.0414
G1 X154.855 Y82.236 E1.0531
G1 X154.855 Y92.396 E1.3910
G1 X154.924 Y92.835 E1.4058
G1 X155.133 Y93.246 E1.4211
G1 X155.459 Y93.572 E1.4365
G1 X155.870 Y93.781 E1.4518
G1 X156.309 Y93.850 E1.4666
G1 X166.414 Y93.850 E1.8027
G1 X166.760 Y93.905 E1.8143
G1 X167.057 Y94.057 E1.8254
G1 X167.293 Y94.293 E1.8365
G1 X167.445 Y94.590 E1.8476
G1 X167.499 Y94.936 E1.8592
G1 X167.499 Y117.764 E2.6185
G1 X167.445 Y118.110 E2.6302
G1 X167.293 Y118.407 E2.6413
G1 X167.057 Y118.643 E2.6524
G1 X166.760 Y118.795 E2.6635
G1 X166.414 Y118.850 E2.6751
G1 X156.286 Y118.850 E3.0120
G1 X155.940 Y118.795 E3.0236
G1 X155.643 Y118.643 E3.0347
G1 X155.407 Y118.407 E3.0458
G1 X155.255 Y118.110 E3.0569
G1 X155.200 Y117.764 E3.0686
G1 X155.200 Y107.604 E3.4065
G1 X155.131 Y107.165 E3.4213
G1 X154.922 Y106.754 E3.4366
G1 X154.596 Y106.428 E3.4519
G1 X154.185 Y106.219 E3.4673
G1 X153.746 Y106.150 E3.4821
G1 X143.586 Y106.150 E3.8200
G1 X143.240 Y106.095 E3.8316
G1 X142.943 Y105.943 E3.8427
G1 X142.707 Y105.707 E3.8538
G1 X142.555 Y105.410 E3.8649
G1 X142.501 Y105.064 E3.8766
G1 X142.501 Y82.236 E4.6359
G1 X142.546 Y81.949 E4.6455
G0 X143.081 Y81.355 F7200
;segType:Loop
G0 X143.464 Y81.575
G1 X143.617 Y81.550 E4.6506 F3600
G1 X153.738 Y81.550 E4.9873
G1 X153.990 Y81.590 E4.9957
G1 X154.174 Y81.684 E5.0026
G1 X154.321 Y81.831 E5.0095
G1 X154.415 Y82.015 E5.0164
G1 X154.455 Y82.267 E5.0249
G1 X154.455 Y92.427 E5.3628
G1 X154.539 Y92.960 E5.3808
G1 X154.806 Y93.484 E5.4003
G1 X155.221 Y93.899 E5.4198
G1 X155.745 Y94.166 E5.4394
G1 X156.278 Y94.250 E5.4573
G1 X166.383 Y94.250 E5.7934
G1 X166.635 Y94.290 E5.8019
G1 X166.819 Y94.384 E5.8088
G1 X166.966 Y94.531 E5.8157
G1 X167.060 Y94.715 E5.8226
G1 X167.099 Y94.967 E5.8311
G1 X167.099 Y117.733 E6.5882
G1 X167.060 Y117.985 E6.5967
G1 X166.966 Y118.169 E6.6036
G1 X166.819 Y118.316 E6.6105
G1 X166.635 Y118.410 E6.6174
G1 X166.383 Y118.450 E6.6259
G1 X156.317 Y118.450 E6.9607
G1 X156.065 Y118.410 E6.9691
G1 X155.881 Y118.316 E6.9760
G1 X155.734 Y118.169 E6.9829
G1 X155.640 Y117.985 E6.9898
G1 X155.600 Y117.733 E6.9983
G1 X155.600 Y107.573 E7.3362
G1 X155.516 Y107.040 E7.3542
G1 X155.249 Y106.516 E7.3737
G1 X154.834 Y106.101 E7.3932
G1 X154.310 Y105.834 E7.4128
G1 X153.777 Y105.750 E7.4307
G1 X143.617 Y105.750 E7.7687
G1 X143.365 Y105.710 E7.7771
G1 X143.181 Y105.616 E7.7840
G1 X143.034 Y105.469 E7.7909
G1 X142.940 Y105.285 E7.7978
G1 X142.901 Y105.033 E7.8063
G1 X142.901 Y82.267 E8.5635
G1 X142.940 Y82.015 E8.5720
G1 X143.034 Y81.831 E8.5788
G1 X143.181 Y81.684 E8.5857
;segType:Infill
G0 X143.317 Y86.198 F7200
G1 X166.683 Y109.564 E9.9046 F4500
G0 X156.017 Y117.000 F7200
G1 X157.050 Y118.033 E9.9629 F4500
G0 X161.575 Y118.033 F7200
G1 X156.017 Y112.475 E10.2766 F4500
G0 X156.017 Y107.949 F7200
G1 X166.101 Y118.033 E10.8457 F4500
G0 X166.683 Y114.089 F7200
G1 X143.317 Y90.724 E12.1646 F4500
G0 X143.317 Y95.249 F7200
G1 X153.401 Y105.333 E12.7337 F4500
G0 X148.875 Y105.333 F7200
G1 X143.317 Y99.775 E13.0474 F4500
G0 X143.317 Y104.300 F7200
G1 X144.350 Y105.333 E13.1057 F4500
G0 X166.683 Y105.038 F7200
G1 X156.312 Y94.667 E13.6911 F4500
G0 X160.837 Y94.667 F7200
G1 X166.683 Y100.513 E14.0211 F4500
G0 X166.683 Y95.988 F7200
G1 X165.363 Y94.667 E14.0956 F4500
G0 X164.946 Y94.250 F7200
G0 X156.278 Y94.250
G0 X155.745 Y94.166
G0 X155.221 Y93.899
G0 X154.806 Y93.484
G0 X154.539 Y92.960
G0 X154.455 Y92.427
G0 X154.455 Y83.759
G0 X154.455 Y83.759
G0 X154.029 Y83.334
G0 X154.038 Y83.342
G1 X152.663 Y81.967 E14.1732 F4500
G0 X154.038 Y87.868 F7200
G1 X148.137 Y81.967 E14.5063 F4500
; ------------------------------------
; Layer #9
; ------------------------------------
G92 E0 ;reset extr
;segType:Infill
G0 F3000 E-1.0000
G0 F1200 Z2.000
G0 X152.321 Y86.067 F7200
G0 F3000 E0.0000
G1 X154.081 Y84.307 E0.0994 F4500
G0 X151.938 Y81.924 F7200
G1 X150.138 Y83.724 E0.2010 F4500
G0 X147.413 Y81.924 F7200
G1 X143.274 Y86.063 E0.4346 F4500
;segType:Perimeter
G0 X142.666 Y82.632 F7200
G1 X142.582 Y81.837 E0.4612 F2160
G1 X142.707 Y81.593 E0.4703
G1 X142.943 Y81.357 E0.4814
G1 X143.240 Y81.205 E0.4925
G1 X143.586 Y81.150 E0.5042
G1 X153.769 Y81.150 E0.8429
G1 X154.115 Y81.205 E0.8545
G1 X154.412 Y81.357 E0.8656
G1 X154.648 Y81.593 E0.8767
G1 X154.800 Y81.890 E0.8878
G1 X154.855 Y82.236 E0.8995
G1 X154.855 Y92.396 E1.2374
G1 X154.924 Y92.835 E1.2522
G1 X155.133 Y93.246 E1.2675
G1 X155.459 Y93.572 E1.2828
G1 X155.870 Y93.781 E1.2981
G1 X156.309 Y93.850 E1.3129
G1 X166.414 Y93.850 E1.6490
G1 X166.760 Y93.905 E1.6607
G1 X167.057 Y94.057 E1.6718
G1 X167.293 Y94.293 E1.6829
G1 X167.445 Y94.590 E1.6940
G1 X167.499 Y94.936 E1.7056
G1 X167.499 Y117.764 E2.4649
G1 X167.445 Y118.110 E2.4765
G1 X167.293 Y118.407 E2.4876
G1 X167.057 Y118.643 E2.4987
G1 X166.760 Y118.795 E2.5099
G1 X166.414 Y118.850 E2.5215
G1 X156.286 Y118.850 E2.8584
G1 X155.940 Y118.795 E2.8700
G1 X155.643 Y118.643 E2.8811
G1 X155.407 Y118.407 E2.8922
G1 X155.255 Y118.110 E2.9033
G1 X155.200 Y117.764 E2.9149
G1 X155.200 Y107.604 E3.2529
G1 X155.131 Y107.165 E3.2677
G1 X154.922 Y106.754 E3.2830
G1 X154.596 Y106.428 E3.2983
G1 X154.185 Y106.219 E3.3136
G1 X153.746 Y106.150 E3.3284
G1 X143.586 Y106.150 E3.6664
G1 X143.240 Y106.095 E3.6780
G1 X142.943 Y105.943 E3.6891
G1 X142.707 Y105.707 E3.7002
G1 X142.555 Y105.410 E3.7113
G1 X142.501 Y105.064 E3.7229
G1 X142.501 Y82.236 E4.4822
G1 X142.546 Y81.949 E4.4919
G0 X143.081 Y81.355 F7200
;segType:Loop
G0 X143.464 Y81.575
G1 X143.617 Y81.550 E4.4970 F3600
G1 X153.738 Y81.550 E4.8336
G1 X153.990 Y81.590 E4.8421
G1 X154.174 Y81.684 E4.8490
G1 X154.321 Y81.831 E4.8559
G1 X154.415 Y82.015 E4.8628
G1 X154.455 Y82.267 E4.8713
G1 X154.455 Y92.427 E5.2092
G1 X154.539 Y92.960 E5.2271
G1 X154.806 Y93.484 E5.2467
G1 X155.221 Y93.899 E5.2662
G1 X155.745 Y94.166 E5.2858
G1 X156.278 Y94.250 E5.3037
G1 X166.383 Y94.250 E5.6398
G1 X166.635 Y94.290 E5.6483
G1 X166.819 Y94.384 E5.6552
G1 X166.966 Y94.531 E5.6621
G1 X167.060 Y94.715 E5.6690
G1 X167.099 Y94.967 E5.6774
G1 X167.099 Y117.733 E6.4346
G1 X167.060 Y117.985 E6.4431
G1 X166.966 Y118.169 E6.4500
G1 X166.819 Y118.316 E6.4569
G1 X166.635 Y118.410 E6.4638
G1 X166.383 Y118.450 E6.4722
G1 X156.317 Y118.450 E6.8070
G1 X156.065 Y118.410 E6.8155
G1 X155.881 Y118.316 E6.8224
G1 X155.734 Y118.169 E6.8293
G1 X155.640 Y117.985 E6.8362
G1 X155.600 Y117.733 E6.8447
G1 X155.600 Y107.573 E7.1826
G1 X155.516 Y107.040 E7.2005
G1 X155.249 Y106.516 E7.2201
G1 X154.834 Y106.101 E7.2396
G1 X154.310 Y105.834 E7.2591
G1 X153.777 Y105.750 E7.2771
G1 X143.617 Y105.750 E7.6150
G1 X143.365 Y105.710 E7.6235
G1 X143.181 Y105.616 E7.6304
G1 X143.034 Y105.469 E7.6373
G1 X142.940 Y105.285 E7.6442
G1 X142.901 Y105.033 E7.6527
G1 X142.901 Y82.267 E8.4098
G1 X142.940 Y82.015 E8.4183
G1 X143.034 Y81.831 E8.4252
G1 X143.181 Y81.684 E8.4321
;segType:Infill
G0 X145.076 Y88.787 F7200
G1 X143.274 Y90.588 E8.5338 F4500
G0 X143.274 Y95.114 F7200
G1 X147.417 Y90.970 E8.7677 F4500
G0 X154.241 Y93.198 F7200
G1 X150.715 Y96.723 E8.9667 F4500
G0 X152.486 Y99.478 F7200
G1 X157.340 Y94.624 E9.2407 F4500
G0 X160.186 Y96.303 F7200
G1 X161.866 Y94.624 E9.3355 F4500
G0 X163.916 Y97.099 F7200
G1 X166.382 Y94.633 E9.4746 F4500
G0 X166.726 Y98.814 F7200
G1 X165.211 Y100.330 E9.5602 F4500
G0 X166.726 Y103.340 F7200
G1 X161.242 Y108.824 E9.8697 F4500
G0 X164.348 Y110.244 F7200
G1 X166.726 Y107.865 E10.0040 F4500
G0 X166.726 Y112.391 F7200
G1 X164.921 Y114.196 E10.1059 F4500
G0 X166.726 Y116.916 F7200
G1 X165.566 Y118.076 E10.1714 F4500
G0 X162.837 Y116.280 F7200
G1 X161.041 Y118.076 E10.2727 F4500
G0 X158.897 Y115.695 F7200
G1 X156.515 Y118.076 E10.4072 F4500
G0 X155.974 Y114.092 F7200
G1 X157.471 Y112.595 E10.4917 F4500
G0 X155.974 Y109.567 F7200
G1 X161.670 Y103.871 E10.8132 F4500
G0 X155.138 Y105.877 F7200
G1 X158.450 Y102.565 E11.0001 F4500
G0 X157.660 Y98.830 F7200
G1 X151.113 Y105.376 E11.3696 F4500
G0 X148.127 Y103.837 F7200
G1 X146.588 Y105.376 E11.4565 F4500
G0 X143.274 Y104.165 F7200
G1 X145.375 Y102.063 E11.5751 F4500
G0 X143.274 Y99.639 F7200
G1 X154.081 Y88.832 E12.1851 F4500
;segType:HShell
G0 X147.411 Y83.623 F7200
G1 X144.985 Y86.049 E12.2992 F3600
G0 X144.814 Y86.786 F7200
G1 X148.141 Y83.459 E12.4557 F3600
G0 X148.742 Y83.423 F7200
G1 X144.779 Y87.386 E12.6421 F3600
G0 X144.821 Y87.909 F7200
G1 X149.263 Y83.468 E12.8511 F3600
G0 X149.718 Y83.578 F7200
G1 X144.922 Y88.375 E13.0767 F3600
G0 X145.076 Y88.787 F7200
G1 X150.138 Y83.724 E13.3148 F3600
G0 X150.527 Y83.901 F7200
G1 X145.256 Y89.171 E13.5627 F3600
G0 X145.473 Y89.521 F7200
G1 X150.867 Y84.126 E13.8165 F3600
G0 X151.188 Y84.371 F7200
G1 X145.724 Y89.835 E14.0734 F3600
G0 X145.994 Y90.131 F7200
G1 X151.477 Y84.648 E14.3314 F3600
G0 X151.733 Y84.958 F7200
G1 X146.307 Y90.384 E14.5866 F3600
G0 X146.643 Y90.613 F7200
G1 X151.970 Y85.286 E14.8371 F3600
G0 X152.160 Y85.662 F7200
G1 X147.006 Y90.816 E15.0795 F3600
G0 X147.417 Y90.970 F7200
G1 X152.321 Y86.067 E15.3102 F3600
G0 X152.450 Y86.503 F7200
G1 X147.861 Y91.092 E15.5260 F3600
G0 X148.348 Y91.171 F7200
G1 X152.515 Y87.004 E15.7220 F3600
G0 X152.513 Y87.572 F7200
G1 X148.914 Y91.171 E15.8913 F3600
G0 X149.583 Y91.067 F7200
G1 X152.406 Y88.244 E16.0241 F3600
G0 X152.042 Y89.174 F7200
G1 X150.535 Y90.681 E16.0950 F3600
G0 X158.272 Y97.652 F7200
G1 X159.024 Y96.900 E16.1303 F3600
G0 X160.186 Y96.303 F7200
G1 X157.660 Y98.830 E16.2492 F3600
G0 X157.505 Y99.550 F7200
G1 X160.902 Y96.153 E16.4090 F3600
G0 X161.493 Y96.128 F7200
G1 X157.482 Y100.139 E16.5977 F3600
G0 X157.531 Y100.655 F7200
G1 X162.014 Y96.173 E16.8085 F3600
G0 X162.463 Y96.290 F7200
G1 X157.632 Y101.120 E17.0357 F3600
G0 X157.792 Y101.526 F7200
G1 X162.876 Y96.442 E17.2749 F3600
G0 X163.263 Y96.621 F7200
G1 X157.978 Y101.906 E17.5235 F3600
G0 X158.194 Y102.255 F7200
G1 X163.601 Y96.849 E17.7778 F3600
G0 X163.916 Y97.099 F7200
G1 X158.450 Y102.565 E18.0349 F3600
G0 X158.725 Y102.856 F7200
G1 X164.206 Y97.375 E18.2927 F3600
G0 X164.456 Y97.690 F7200
G1 X159.038 Y103.108 E18.5476 F3600
G0 X159.379 Y103.333 F7200
G1 X164.689 Y98.024 E18.7973 F3600
G0 X164.878 Y98.399 F7200
G1 X159.742 Y103.536 E19.0389 F3600
G0 X160.159 Y103.685 F7200
G1 X165.034 Y98.810 E19.2682 F3600
G0 X165.157 Y99.253 F7200
G1 X160.609 Y103.800 E19.4821 F3600
G0 X161.104 Y103.871 F7200
G1 X165.221 Y99.754 E19.6758 F3600
G0 X165.211 Y100.330 F7200
G1 X161.670 Y103.871 E19.8423 F3600
G0 X162.356 Y103.750 F7200
G1 X165.091 Y101.015 E19.9710 F3600
G0 X164.651 Y102.021 F7200
G1 X163.362 Y103.310 E20.0316 F3600
G0 X162.837 Y116.280 F7200
G1 X164.921 Y114.196 E20.1296 F3600
G0 X165.161 Y113.391 F7200
G1 X162.043 Y116.509 E20.2763 F3600
G0 X161.415 Y116.571 F7200
G1 X165.222 Y112.764 E20.4554 F3600
G0 X165.192 Y112.228 F7200
G1 X160.874 Y116.546 E20.6585 F3600
G0 X160.391 Y116.463 F7200
G1 X165.107 Y111.747 E20.8803 F3600
G0 X164.974 Y111.315 F7200
G1 X159.971 Y116.318 E21.1156 F3600
G0 X159.578 Y116.144 F7200
G1 X164.793 Y110.930 E21.3609 F3600
G0 X164.588 Y110.569 F7200
G1 X159.215 Y115.942 E21.6136 F3600
G0 X158.897 Y115.695 F7200
G1 X164.348 Y110.244 E21.8700 F3600
G0 X164.075 Y109.951 F7200
G1 X158.596 Y115.430 E22.1278 F3600
G0 X158.331 Y115.129 F7200
G1 X163.786 Y109.674 E22.3843 F3600
G0 X163.448 Y109.446 F7200
G1 X158.097 Y114.798 E22.6361 F3600
G0 X157.881 Y114.448 F7200
G1 X163.090 Y109.239 E22.8811 F3600
G0 X162.701 Y109.062 F7200
G1 X157.718 Y114.045 E23.1155 F3600
G0 X157.587 Y113.611 F7200
G1 X162.260 Y108.937 E23.3353 F3600
G0 X161.780 Y108.852 F7200
G1 X157.495 Y113.137 E23.5369 F3600
G0 X157.471 Y112.595 F7200
G1 X161.242 Y108.824 E23.7142 F3600
G0 X160.607 Y108.893 F7200
G1 X157.543 Y111.958 E23.8584 F3600
G0 X157.808 Y111.127 F7200
G1 X159.767 Y109.167 E23.9505 F3600
G0 X150.050 Y103.611 F7200
G1 X152.258 Y101.403 E24.0544 F3600
G0 X152.476 Y100.620 F7200
G1 X149.275 Y103.820 E24.2049 F3600
G0 X148.659 Y103.871 F7200
G1 X152.524 Y100.006 E24.3867 F3600
G0 X152.486 Y99.478 F7200
G1 X148.127 Y103.837 E24.5918 F3600
G0 X147.647 Y103.751 F7200
G1 X152.394 Y99.005 E24.8151 F3600
G0 X152.261 Y98.572 F7200
G1 X147.229 Y103.604 E25.0517 F3600
G0 X146.843 Y103.424 F7200
G1 X152.074 Y98.193 E25.2978 F3600
G0 X151.865 Y97.837 F7200
G1 X146.480 Y103.222 E25.5511 F3600
G0 X146.166 Y102.970 F7200
G1 X151.624 Y97.511 E25.8078 F3600
G0 X151.347 Y97.223 F7200
G1 X145.870 Y102.700 E26.0655 F3600
G0 X145.605 Y102.399 F7200
G1 X151.053 Y96.951 E26.3217 F3600
G0 X150.715 Y96.723 F7200
G1 X145.375 Y102.063 E26.5729 F3600
G0 X145.165 Y101.708 F7200
G1 X150.352 Y96.521 E26.8169 F3600
G0 X149.962 Y96.345 F7200
G1 X145.002 Y101.305 E27.0502 F3600
G0 X144.877 Y100.865 F7200
G1 X149.516 Y96.225 E27.2684 F3600
G0 X149.028 Y96.148 F7200
G1 X144.792 Y100.384 E27.4677 F3600
G0 X144.768 Y99.842 F7200
G1 X148.481 Y96.129 E27.6423 F3600
G0 X147.832 Y96.213 F7200
G1 X144.851 Y99.193 E27.7825 F3600
G0 X145.165 Y98.314 F7200
G1 X146.965 Y96.513 E27.8672 F3600
; ------------------------------------
; Layer #10
; ------------------------------------
G92 E0 ;reset extr
;segType:Infill
G0 F3000 E-1.0000
G0 F1200 Z2.200
G0 X154.095 Y87.925 F7200
G0 F3000 E0.0000
G1 X152.358 Y86.188 E0.0980 F4500
G0 X154.095 Y83.399 F7200
G1 X152.606 Y81.911 E0.1820 F4500
G0 X149.758 Y83.589 F7200
G1 X148.080 Y81.911 E0.2768 F4500
G0 X146.062 Y84.418 F7200
G1 X143.567 Y81.923 E0.4176 F4500
;segType:Perimeter
G0 X142.666 Y82.632 F7200
G1 X142.582 Y81.837 E0.4442 F2160
G1 X142.707 Y81.593 E0.4533
G1 X142.943 Y81.357 E0.4644
G1 X143.240 Y81.205 E0.4755
G1 X143.586 Y81.150 E0.4871
G1 X153.769 Y81.150 E0.8258
G1 X154.115 Y81.205 E0.8375
G1 X154.412 Y81.357 E0.8486
G1 X154.648 Y81.593 E0.8597
G1 X154.800 Y81.890 E0.8708
G1 X154.855 Y82.236 E0.8824
G1 X154.855 Y92.396 E1.2204
G1 X154.924 Y92.835 E1.2352
G1 X155.133 Y93.246 E1.2505
G1 X155.459 Y93.572 E1.2658
G1 X155.870 Y93.781 E1.2811
G1 X156.309 Y93.850 E1.2959
G1 X166.414 Y93.850 E1.6320
G1 X166.760 Y93.905 E1.6437
G1 X167.057 Y94.057 E1.6548
G1 X167.293 Y94.293 E1.6659
G1 X167.445 Y94.590 E1.6770
G1 X167.499 Y94.936 E1.6886
G1 X167.499 Y117.764 E2.4479
G1 X167.445 Y118.110 E2.4595
G1 X167.293 Y118.407 E2.4706
G1 X167.057 Y118.643 E2.4817
G1 X166.760 Y118.795 E2.4928
G1 X166.414 Y118.850 E2.5045
G1 X156.286 Y118.850 E2.8413
G1 X155.940 Y118.795 E2.8530
G1 X155.643 Y118.643 E2.8641
G1 X155.407 Y118.407 E2.8752
G1 X155.255 Y118.110 E2.8863
G1 X155.200 Y117.764 E2.8979
G1 X155.200 Y107.604 E3.2358
G1 X155.131 Y107.165 E3.2506
G1 X154.922 Y106.754 E3.2660
G1 X154.596 Y106.428 E3.2813
G1 X154.185 Y106.219 E3.2966
G1 X153.746 Y106.150 E3.3114
G1 X143.586 Y106.150 E3.6493
G1 X143.240 Y106.095 E3.6610
G1 X142.943 Y105.943 E3.6721
G1 X142.707 Y105.707 E3.6832
G1 X142.555 Y105.410 E3.6943
G1 X142.501 Y105.064 E3.7059
G1 X142.501 Y82.236 E4.4652
G1 X142.546 Y81.949 E4.4748
G0 X143.081 Y81.355 F7200
;segType:Loop
G0 X143.464 Y81.575
G1 X143.617 Y81.550 E4.4800 F3600
G1 X153.738 Y81.550 E4.8166
G1 X153.990 Y81.590 E4.8251
G1 X154.174 Y81.684 E4.8320
G1 X154.321 Y81.831 E4.8389
G1 X154.415 Y82.015 E4.8458
G1 X154.455 Y82.267 E4.8542
G1 X154.455 Y92.427 E5.1922
G1 X154.539 Y92.960 E5.2101
G1 X154.806 Y93.484 E5.2297
G1 X155.221 Y93.899 E5.2492
G1 X155.745 Y94.166 E5.2687
G1 X156.278 Y94.250 E5.2867
G1 X166.383 Y94.250 E5.6228
G1 X166.635 Y94.290 E5.6313
G1 X166.819 Y94.384 E5.6381
G1 X166.966 Y94.531 E5.6450
G1 X167.060 Y94.715 E5.6519
G1 X167.099 Y94.967 E5.6604
G1 X167.099 Y117.733 E6.4176
G1 X167.060 Y117.985 E6.4261
G1 X166.966 Y118.169 E6.4330
G1 X166.819 Y118.316 E6.4399
G1 X166.635 Y118.410 E6.4467
G1 X166.383 Y118.450 E6.4552
G1 X156.317 Y118.450 E6.7900
G1 X156.065 Y118.410 E6.7985
G1 X155.881 Y118.316 E6.8054
G1 X155.734 Y118.169 E6.8123
G1 X155.640 Y117.985 E6.8192
G1 X155.600 Y117.733 E6.8276
G1 X155.600 Y107.573 E7.1656
G1 X155.516 Y107.040 E7.1835
G1 X155.249 Y106.516 E7.2031
G1 X154.834 Y106.101 E7.2226
G1 X154.310 Y105.834 E7.2421
G1 X153.777 Y105.750 E7.2601
G1 X143.617 Y105.750 E7.5980
G1 X143.365 Y105.710 E7.6065
G1 X143.181 Y105.616 E7.6134
G1 X143.034 Y105.469 E7.6203
G1 X142.940 Y105.285 E7.6272
G1 X142.901 Y105.033 E7.6356
G1 X142.901 Y82.267 E8.3928
G1 X142.940 Y82.015 E8.4013
G1 X143.034 Y81.831 E8.4082
G1 X143.181 Y81.684 E8.4151
;segType:Infill
G0 X143.261 Y86.142 F7200
G1 X144.792 Y87.673 E8.5015 F4500
G0 X143.261 Y95.193 F7200
G1 X145.635 Y97.567 E8.6355 F4500
G0 X143.261 Y99.718 F7200
G1 X145.107 Y101.564 E8.7397 F4500
G0 X143.261 Y104.244 F7200
G1 X144.406 Y105.390 E8.8044 F4500
G0 X147.100 Y103.558 F7200
G1 X148.932 Y105.390 E8.9078 F4500
G0 X151.081 Y103.013 F7200
G1 X153.457 Y105.390 E9.0419 F4500
G0 X157.492 Y100.373 F7200
G1 X148.285 Y91.166 E9.5616 F4500
G0 X151.531 Y89.886 F7200
G1 X154.095 Y92.450 E9.7063 F4500
G0 X156.255 Y94.610 F7200
G1 X158.762 Y97.118 E9.8478 F4500
G0 X160.780 Y94.610 F7200
G1 X162.459 Y96.289 E9.9426 F4500
G0 X165.306 Y94.610 F7200
G1 X166.739 Y96.044 E10.0235 F4500
G0 X165.058 Y98.888 F7200
G1 X166.739 Y100.570 E10.1184 F4500
G0 X164.231 Y102.586 F7200
G1 X166.739 Y105.095 E10.2600 F4500
G0 X166.739 Y109.620 F7200
G1 X160.985 Y103.867 E10.5848 F4500
G0 X155.961 Y107.893 F7200
G1 X158.335 Y110.267 E10.7188 F4500
G0 X155.961 Y112.418 F7200
G1 X157.807 Y114.265 E10.8230 F4500
G0 X155.961 Y116.944 F7200
G1 X157.106 Y118.089 E10.8877 F4500
G0 X159.800 Y116.258 F7200
G1 X161.632 Y118.089 E10.9911 F4500
G0 X163.781 Y115.713 F7200
G1 X166.157 Y118.089 E11.1252 F4500
G0 X166.739 Y114.146 F7200
G1 X165.228 Y112.635 E11.2105 F4500
G0 X161.414 Y108.821 F7200
G1 X152.528 Y99.935 E11.7120 F4500
G0 X148.714 Y96.121 F7200
G1 X143.261 Y90.667 E12.0199 F4500
;segType:HShell
G0 X146.546 Y90.559 F7200
G1 X145.413 Y89.425 E12.0732 F3600
G0 X144.920 Y88.367 F7200
G1 X147.583 Y91.029 E12.1984 F3600
G0 X148.285 Y91.166 F7200
G1 X144.792 Y87.673 E12.3627 F3600
G0 X144.775 Y87.090 F7200
G1 X148.855 Y91.171 E12.5547 F3600
G0 X149.357 Y91.106 F7200
G1 X144.839 Y86.589 E12.7672 F3600
G0 X144.957 Y86.141 F7200
G1 X149.812 Y90.996 E12.9955 F3600
G0 X150.229 Y90.847 F7200
G1 X145.108 Y85.726 E13.2364 F3600
G0 X145.298 Y85.351 F7200
G1 X150.595 Y90.648 E13.4856 F3600
G0 X150.940 Y90.427 F7200
G1 X145.526 Y85.013 E13.7402 F3600
G0 X145.773 Y84.695 F7200
G1 X151.253 Y90.174 E13.9980 F3600
G0 X151.531 Y89.886 F7200
G1 X146.062 Y84.418 E14.2552 F3600
G0 X146.375 Y84.165 F7200
G1 X151.791 Y89.581 E14.5099 F3600
G0 X152.007 Y89.231 F7200
G1 X146.712 Y83.937 E14.7590 F3600
G0 X147.096 Y83.754 F7200
G1 X152.197 Y88.855 E14.9989 F3600
G0 X152.359 Y88.452 F7200
G1 X147.505 Y83.598 E15.2273 F3600
G0 X147.953 Y83.480 F7200
G1 X152.462 Y87.989 E15.4393 F3600
G0 X152.517 Y87.478 F7200
G1 X148.468 Y83.430 E15.6298 F3600
G0 X149.054 Y83.450 F7200
G1 X152.501 Y86.897 E15.7919 F3600
G0 X152.358 Y86.188 F7200
G1 X149.758 Y83.589 E15.9142 F3600
G0 X150.850 Y84.115 F7200
G1 X151.845 Y85.109 E15.9610 F3600
G0 X154.455 Y87.719 F7200
G0 X154.455 Y92.427
G0 X154.539 Y92.960
G0 X154.806 Y93.484
G0 X155.221 Y93.899
G0 X155.745 Y94.166
G0 X156.278 Y94.250
G0 X160.986 Y94.250
G0 X160.986 Y94.250
G0 X164.555 Y97.819
G0 X164.546 Y97.810
G1 X163.550 Y96.814 E16.0078 F3600
G0 X162.459 Y96.289 F7200
G1 X165.058 Y98.888 E16.1301 F3600
G0 X165.201 Y99.597 F7200
G1 X161.754 Y96.150 E16.2922 F3600
G0 X161.168 Y96.130 F7200
G1 X165.217 Y100.178 E16.4827 F3600
G0 X165.162 Y100.689 F7200
G1 X160.653 Y96.180 E16.6947 F3600
G0 X160.205 Y96.298 F7200
G1 X165.060 Y101.152 E16.9231 F3600
G0 X164.897 Y101.555 F7200
G1 X159.796 Y96.454 E17.1630 F3600
G0 X159.412 Y96.637 F7200
G1 X164.707 Y101.931 E17.4121 F3600
G0 X164.491 Y102.281 F7200
G1 X159.075 Y96.865 E17.6668 F3600
G0 X158.762 Y97.118 F7200
G1 X164.231 Y102.586 E17.9240 F3600
G0 X163.953 Y102.874 F7200
G1 X158.474 Y97.395 E18.1817 F3600
G0 X158.226 Y97.713 F7200
G1 X163.640 Y103.127 E18.4364 F3600
G0 X163.295 Y103.348 F7200
G1 X157.998 Y98.050 E18.6855 F3600
G0 X157.808 Y98.426 F7200
G1 X162.929 Y103.548 E18.9264 F3600
G0 X162.512 Y103.696 F7200
G1 X157.657 Y98.841 E19.1548 F3600
G0 X157.539 Y99.288 F7200
G1 X162.056 Y103.806 E19.3673 F3600
G0 X161.555 Y103.871 F7200
G1 X157.475 Y99.790 E19.5592 F3600
G0 X157.492 Y100.373 F7200
G1 X160.985 Y103.867 E19.7236 F3600
G0 X160.283 Y103.729 F7200
G1 X157.620 Y101.067 E19.8488 F3600
G0 X158.113 Y102.125 F7200
G1 X159.246 Y103.259 E19.9021 F3600
G0 X164.935 Y111.210 F7200
G1 X162.858 Y109.133 E19.9998 F3600
G0 X162.036 Y108.877 F7200
G1 X165.163 Y112.004 E20.1469 F3600
G0 X165.228 Y112.635 F7200
G1 X161.414 Y108.821 E20.3263 F3600
G0 X160.883 Y108.855 F7200
G1 X165.204 Y113.177 E20.5296 F3600
G0 X165.106 Y113.644 F7200
G1 X160.407 Y108.945 E20.7506 F3600
G0 X159.971 Y109.074 F7200
G1 X164.970 Y114.074 E20.9858 F3600
G0 X164.805 Y114.474 F7200
G1 X159.582 Y109.251 E21.2314 F3600
G0 X159.227 Y109.462 F7200
G1 X164.589 Y114.824 E21.4836 F3600
G0 X164.350 Y115.151 F7200
G1 X158.892 Y109.693 E21.7403 F3600
G0 X158.604 Y109.970 F7200
G1 X164.085 Y115.452 E21.9981 F3600
G0 X163.781 Y115.713 F7200
G1 X158.335 Y110.267 E22.2543 F3600
G0 X158.094 Y110.592 F7200
G1 X163.458 Y115.956 E22.5066 F3600
G0 X163.096 Y116.159 F7200
G1 X157.894 Y110.957 E22.7513 F3600
G0 X157.716 Y111.346 F7200
G1 X162.699 Y116.329 E22.9857 F3600
G0 X162.274 Y116.469 F7200
G1 X157.583 Y111.778 E23.2064 F3600
G0 X157.504 Y112.264 F7200
G1 X161.792 Y116.553 E23.4081 F3600
G0 X161.245 Y116.571 F7200
G1 X157.480 Y112.806 E23.5852 F3600
G0 X157.550 Y113.442 F7200
G1 X160.609 Y116.500 E23.7291 F3600
G0 X159.800 Y116.258 F7200
G1 X157.807 Y114.265 E23.8228 F3600
G0 X152.235 Y98.511 F7200
G1 X150.158 Y96.433 E23.9205 F3600
G0 X149.336 Y96.177 F7200
G1 X152.463 Y99.304 E24.0676 F3600
G0 X152.528 Y99.935 F7200
G1 X148.714 Y96.121 E24.2470 F3600
G0 X148.183 Y96.155 F7200
G1 X152.504 Y100.477 E24.4503 F3600
G0 X152.406 Y100.944 F7200
G1 X147.707 Y96.245 E24.6713 F3600
G0 X147.271 Y96.374 F7200
G1 X152.270 Y101.374 E24.9065 F3600
G0 X152.104 Y101.774 F7200
G1 X146.882 Y96.551 E25.1521 F3600
G0 X146.527 Y96.762 F7200
G1 X151.888 Y102.124 E25.4043 F3600
G0 X151.650 Y102.451 F7200
G1 X146.192 Y96.993 E25.6610 F3600
G0 X145.904 Y97.270 F7200
G1 X151.385 Y102.752 E25.9189 F3600
G0 X151.081 Y103.013 F7200
G1 X145.635 Y97.567 E26.1750 F3600
G0 X145.394 Y97.892 F7200
G1 X150.758 Y103.256 E26.4273 F3600
G0 X150.396 Y103.459 F7200
G1 X145.193 Y98.257 E26.6721 F3600
G0 X145.017 Y98.646 F7200
G1 X150.000 Y103.629 E26.9064 F3600
G0 X149.574 Y103.769 F7200
G1 X144.883 Y99.078 E27.1271 F3600
G0 X144.804 Y99.564 F7200
G1 X149.092 Y103.853 E27.3288 F3600
G0 X148.545 Y103.871 F7200
G1 X144.780 Y100.106 E27.5059 F3600
G0 X144.850 Y100.742 F7200
G1 X147.908 Y103.800 E27.6497 F3600
G0 X147.100 Y103.558 F7200
G1 X145.107 Y101.564 E27.7435 F3600
; ------------------------------------
; Layer #11
; ------------------------------------
G92 E0 ;reset extr
;segType:Infill
G0 F3000 E-1.0000
G0 F1200 Z2.400
G0 X152.321 Y86.067 F7200
G0 F3000 E0.0000
G1 X154.095 Y84.293 E0.1001 F4500
G0 X151.952 Y81.911 F7200
G1 X150.138 Y83.724 E0.2025 F4500
G0 X147.426 Y81.911 F7200
G1 X143.261 Y86.076 E0.4376 F4500
;segType:Perimeter
G0 X142.666 Y82.632 F7200
G1 X142.582 Y81.837 E0.4642 F2160
G1 X142.707 Y81.593 E0.4733
G1 X142.943 Y81.357 E0.4844
G1 X143.240 Y81.205 E0.4955
G1 X143.586 Y81.150 E0.5071
G1 X153.769 Y81.150 E0.8458
G1 X154.115 Y81.205 E0.8575
G1 X154.412 Y81.357 E0.8686
G1 X154.648 Y81.593 E0.8797
G1 X154.800 Y81.890 E0.8908
G1 X154.855 Y82.236 E0.9024
G1 X154.855 Y92.396 E1.2404
G1 X154.924 Y92.835 E1.2552
G1 X155.133 Y93.246 E1.2705
G1 X155.459 Y93.572 E1.2858
G1 X155.870 Y93.781 E1.3011
G1 X156.309 Y93.850 E1.3159
G1 X166.414 Y93.850 E1.6520
G1 X166.760 Y93.905 E1.6637
G1 X167.057 Y94.057 E1.6748
G1 X167.293 Y94.293 E1.6859
G1 X167.445 Y94.590 E1.6970
G1 X167.499 Y94.936 E1.7086
G1 X167.499 Y117.764 E2.4679
G1 X167.445 Y118.110 E2.4795
G1 X167.293 Y118.407 E2.4906
G1 X167.057 Y118.643 E2.5017
G1 X166.760 Y118.795 E2.5128
G1 X166.414 Y118.850 E2.5245
G1 X156.286 Y118.850 E2.8613
G1 X155.940 Y118.795 E2.8730
G1 X155.643 Y118.643 E2.8841
G1 X155.407 Y118.407 E2.8952
G1 X155.255 Y118.110 E2.9063
G1 X155.200 Y117.764 E2.9179
G1 X155.200 Y107.604 E3.2558
G1 X155.131 Y107.165 E3.2706
G1 X154.922 Y106.754 E3.2860
G1 X154.596 Y106.428 E3.3013
G1 X154.185 Y106.219 E3.3166
G1 X153.746 Y106.150 E3.3314
G1 X143.586 Y106.150 E3.6693
G1 X143.240 Y106.095 E3.6810
G1 X142.943 Y105.943 E3.6921
G1 X142.707 Y105.707 E3.7032
G1 X142.555 Y105.410 E3.7143
G1 X142.501 Y105.064 E3.7259
G1 X142.501 Y82.236 E4.4852
G1 X142.546 Y81.949 E4.4948
G0 X143.081 Y81.355 F7200
;segType:Loop
G0 X143.464 Y81.575
G1 X143.617 Y81.550 E4.5000 F3600
G1 X153.738 Y81.550 E4.8366
G1 X153.990 Y81.590 E4.8451
G1 X154.174 Y81.684 E4.8520
G1 X154.321 Y81.831 E4.8589
G1 X154.415 Y82.015 E4.8658
G1 X154.455 Y82.267 E4.8742
G1 X154.455 Y92.427 E5.2122
G1 X154.539 Y92.960 E5.2301
G1 X154.806 Y93.484 E5.2497
G1 X155.221 Y93.899 E5.2692
G1 X155.745 Y94.166 E5.2887
G1 X156.278 Y94.250 E5.3067
G1 X166.383 Y94.250 E5.6428
G1 X166.635 Y94.290 E5.6513
G1 X166.819 Y94.384 E5.6582
